(G-CODE GENERATED BY FLATCAM v8.994 - www.flatcam.org - Version Date: 2020/11/7)

(Name: clickyKeyboard-F_Cu.gbr_iso_combined_cnc)
(Type: G-code from Geometry)
(Units: MM)

(Created on Friday, 01 September 2023 at 10:57)

(This preprocessor is the default preprocessor used by FlatCAM.)
(It is made to work with MACH3 compatible motion controllers.)

(TOOL DIAMETER: 0.1996 mm)
(Feedrate_XY: 100.0 mm/min)
(Feedrate_Z: 90.70000000000036 mm/min)
(Feedrate rapids 1500.0 mm/min)

(Z_Cut: -0.1859 mm)
(Z_Move: 2.0 mm)
(Z Start: None mm)
(Z End: 20.0 mm)
(X,Y End: None mm)
(Steps per circle: 64)
(Preprocessor Geometry: default)

(X range:    0.4713 ...  130.2891  mm)
(Y range:    0.3063 ...   35.3537  mm)

(Spindle Speed: 0.0 RPM)
G21
G90
G94

G01 F100.00

M5
G00 Z15.0000
G00 X0.0000 Y0.0000
T1
M6    
(MSG, Change to Tool Dia = 0.1996)
M0
G00 Z15.0000

M03
G01 F100.00
G00 X0.6110 Y2.5920
G01 F90.70
G01 Z-0.1859
G01 F100.00
G01 X0.6116 Y2.5723
G01 X0.6170 Y2.4907
G01 X0.6291 Y2.3204
G01 X0.6307 Y2.3055
G01 X0.6332 Y2.2881
G01 X0.6573 Y2.1668
G01 X0.6884 Y2.0245
G01 X0.6960 Y1.9983
G01 X0.7347 Y1.8841
G01 X0.7837 Y1.7525
G01 X0.7932 Y1.7300
G01 X0.8526 Y1.6095
G01 X0.9179 Y1.4898
G01 X0.9318 Y1.4668
G01 X1.0039 Y1.3591
G01 X1.0869 Y1.2479
G01 X1.1015 Y1.2299
G01 X1.1883 Y1.1311
G01 X1.2876 Y1.0315
G01 X1.3019 Y1.0180
G01 X1.3949 Y0.9365
G01 X1.4129 Y0.9219
G01 X1.5215 Y0.8407
G01 X1.6318 Y0.7668
G01 X1.6548 Y0.7529
G01 X1.7745 Y0.6876
G01 X1.8896 Y0.6308
G01 X1.9006 Y0.6257
G01 X1.9175 Y0.6187
G01 X2.0424 Y0.5721
G01 X2.1698 Y0.5289
G01 X2.1961 Y0.5219
G01 X2.3318 Y0.4923
G01 X2.4482 Y0.4692
G01 X2.4629 Y0.4667
G01 X2.4854 Y0.4641
G01 X2.6557 Y0.4520
G01 X2.7492 Y0.4461
G01 X6.4459 Y0.4460
G01 X6.4573 Y0.4466
G01 X6.4743 Y0.4484
G01 X6.4855 Y0.4503
G01 X6.4967 Y0.4527
G01 X6.5804 Y0.4771
G01 X6.5972 Y0.4832
G01 X6.6135 Y0.4905
G01 X6.6292 Y0.4990
G01 X6.6442 Y0.5087
G01 X6.6537 Y0.5157
G01 X6.6630 Y0.5232
G01 X6.6718 Y0.5312
G01 X6.6803 Y0.5395
G01 X6.6883 Y0.5483
G01 X6.7340 Y0.6011
G01 X6.7416 Y0.6103
G01 X6.7521 Y0.6248
G01 X6.7584 Y0.6348
G01 X6.7643 Y0.6452
G01 X6.7696 Y0.6558
G01 X6.7744 Y0.6667
G01 X6.7806 Y0.6834
G01 X6.7855 Y0.7006
G01 X6.7892 Y0.7180
G01 X6.8000 Y0.7931
G01 X6.8014 Y0.8049
G01 X6.8022 Y0.8167
G01 X6.8024 Y0.8346
G01 X6.8011 Y0.8524
G01 X6.7996 Y0.8642
G01 X6.7962 Y0.8817
G01 X6.7932 Y0.8932
G01 X6.7896 Y0.9045
G01 X6.7832 Y0.9212
G01 X6.7469 Y1.0003
G01 X6.7381 Y1.0160
G01 X6.7281 Y1.0309
G01 X6.7170 Y1.0451
G01 X6.7090 Y1.0541
G01 X6.6871 Y1.0763
G01 X6.6649 Y1.0964
G01 X6.6442 Y1.1205
G01 X6.6356 Y1.1296
G01 X5.9927 Y1.7725
G01 X5.9802 Y1.7842
G01 X5.9714 Y1.7915
G01 X5.9576 Y1.8015
G01 X5.9431 Y1.8106
G01 X5.8768 Y1.8469
G01 X5.8663 Y1.8523
G01 X5.8556 Y1.8571
G01 X5.8392 Y1.8634
G01 X5.8223 Y1.8685
G01 X5.8108 Y1.8712
G01 X5.7993 Y1.8733
G01 X5.7876 Y1.8748
G01 X5.7549 Y1.8782
G01 X5.7420 Y1.8789
G01 X5.3250 Y1.8790
G01 X5.3080 Y1.8808
G01 X5.2336 Y1.9086
G01 X5.1736 Y1.9536
G01 X5.1286 Y2.0136
G01 X5.1008 Y2.0880
G01 X5.0990 Y2.1050
G01 X5.0990 Y2.5156
G01 X5.0987 Y2.5270
G01 X5.0973 Y2.5441
G01 X5.0947 Y2.5610
G01 X5.0909 Y2.5776
G01 X5.0696 Y2.6502
G01 X5.0640 Y2.6669
G01 X5.0596 Y2.6778
G01 X5.0547 Y2.6885
G01 X5.0463 Y2.7040
G01 X5.0369 Y2.7188
G01 X5.0263 Y2.7330
G01 X5.0056 Y2.7585
G01 X4.9925 Y2.7727
G01 X2.3446 Y5.4206
G01 X2.3355 Y5.4292
G01 X2.3114 Y5.4499
G01 X2.2807 Y5.4840
G01 X2.2631 Y5.5021
G01 X2.2469 Y5.5214
G01 X2.2162 Y5.5556
G01 X2.1984 Y5.5815
G01 X2.1746 Y5.6281
G01 X2.1470 Y5.6761
G01 X2.1349 Y5.7052
G01 X2.1214 Y5.7556
G01 X2.1044 Y5.8084
G01 X2.0986 Y5.8394
G01 X2.0962 Y5.8852
G01 X2.0940 Y5.9104
G01 X2.0936 Y5.9356
G01 X2.0912 Y5.9814
G01 X2.0937 Y6.0131
G01 X2.0940 Y6.0256
G01 X2.0940 Y17.4944
G01 X2.0937 Y17.5069
G01 X2.0912 Y17.5386
G01 X2.0936 Y17.5844
G01 X2.0940 Y17.6096
G01 X2.0962 Y17.6348
G01 X2.0986 Y17.6806
G01 X2.1044 Y17.7116
G01 X2.1205 Y17.7613
G01 X2.1350 Y17.8148
G01 X2.1470 Y17.8439
G01 X2.1730 Y17.8891
G01 X2.1962 Y17.9345
G01 X2.2031 Y17.9501
G01 X2.2088 Y17.9662
G01 X2.2120 Y17.9772
G01 X2.2146 Y17.9883
G01 X2.2296 Y18.0684
G01 X2.2312 Y18.0802
G01 X2.2323 Y18.0920
G01 X2.2327 Y18.1039
G01 X2.2326 Y18.1158
G01 X2.2312 Y18.1336
G01 X2.2286 Y18.1513
G01 X2.2261 Y18.1629
G01 X2.2230 Y18.1744
G01 X2.2173 Y18.1913
G01 X2.1889 Y18.2616
G01 X2.1817 Y18.2776
G01 X2.1733 Y18.2931
G01 X2.1671 Y18.3031
G01 X2.1604 Y18.3127
G01 X2.1532 Y18.3220
G01 X2.1417 Y18.3353
G01 X2.1292 Y18.3477
G01 X2.1204 Y18.3554
G01 X2.0770 Y18.3915
G01 X2.0672 Y18.3989
G01 X2.0570 Y18.4057
G01 X2.0465 Y18.4120
G01 X2.0273 Y18.4224
G01 X1.9038 Y18.5238
G01 X1.8024 Y18.6473
G01 X1.7271 Y18.7881
G01 X1.6808 Y18.9410
G01 X1.6651 Y19.1000
G01 X1.6808 Y19.2590
G01 X1.7271 Y19.4119
G01 X1.8024 Y19.5527
G01 X1.9038 Y19.6762
G01 X2.0273 Y19.7776
G01 X2.1681 Y19.8529
G01 X2.3210 Y19.8992
G01 X2.4402 Y19.9110
G01 X2.5198 Y19.9110
G01 X2.6390 Y19.8992
G01 X2.7919 Y19.8529
G01 X2.9327 Y19.7776
G01 X3.0562 Y19.6762
G01 X3.1576 Y19.5527
G01 X3.2329 Y19.4119
G01 X3.2440 Y19.3752
G01 X3.2495 Y19.3592
G01 X3.2538 Y19.3486
G01 X3.2586 Y19.3383
G01 X3.2640 Y19.3281
G01 X3.2698 Y19.3183
G01 X3.3145 Y19.2501
G01 X3.3215 Y19.2405
G01 X3.3329 Y19.2267
G01 X3.3452 Y19.2139
G01 X3.3585 Y19.2020
G01 X3.3679 Y19.1946
G01 X3.3776 Y19.1877
G01 X3.3927 Y19.1783
G01 X3.4085 Y19.1700
G01 X3.4778 Y19.1391
G01 X3.4887 Y19.1345
G01 X3.4999 Y19.1305
G01 X3.5171 Y19.1255
G01 X3.5345 Y19.1218
G01 X3.5522 Y19.1194
G01 X3.5700 Y19.1184
G01 X3.5878 Y19.1186
G01 X3.6056 Y19.1202
G01 X3.6806 Y19.1316
G01 X3.6976 Y19.1349
G01 X3.7144 Y19.1393
G01 X3.7254 Y19.1430
G01 X3.7362 Y19.1472
G01 X3.7520 Y19.1544
G01 X3.7623 Y19.1599
G01 X3.7722 Y19.1658
G01 X3.8219 Y19.2004
G01 X3.8358 Y19.2115
G01 X3.8489 Y19.2237
G01 X7.3856 Y22.7604
G01 X7.3942 Y22.7695
G01 X7.4149 Y22.7936
G01 X7.4490 Y22.8243
G01 X7.4671 Y22.8419
G01 X7.4864 Y22.8581
G01 X7.5206 Y22.8888
G01 X7.5465 Y22.9066
G01 X7.5930 Y22.9304
G01 X7.6411 Y22.9580
G01 X7.6702 Y22.9700
G01 X7.7206 Y22.9836
G01 X7.7734 Y23.0006
G01 X7.8044 Y23.0064
G01 X7.8503 Y23.0088
G01 X7.8754 Y23.0110
G01 X7.9006 Y23.0114
G01 X7.9464 Y23.0138
G01 X7.9781 Y23.0113
G01 X7.9906 Y23.0110
G01 X10.9555 Y23.0110
G01 X10.9669 Y23.0113
G01 X10.9783 Y23.0121
G01 X10.9952 Y23.0143
G01 X11.0064 Y23.0165
G01 X11.0175 Y23.0191
G01 X11.0900 Y23.0404
G01 X11.1013 Y23.0440
G01 X11.1125 Y23.0482
G01 X11.1288 Y23.0555
G01 X11.1393 Y23.0610
G01 X11.1545 Y23.0703
G01 X11.1690 Y23.0807
G01 X11.1783 Y23.0882
G01 X11.1871 Y23.0962
G01 X11.1996 Y23.1089
G01 X11.2493 Y23.1661
G01 X11.2569 Y23.1754
G01 X11.2674 Y23.1899
G01 X11.2769 Y23.2052
G01 X11.2825 Y23.2158
G01 X11.2899 Y23.2321
G01 X11.2942 Y23.2433
G01 X11.2995 Y23.2604
G01 X11.3023 Y23.2721
G01 X11.3147 Y23.3292
G01 X11.3166 Y23.3404
G01 X11.3179 Y23.3517
G01 X11.3187 Y23.3631
G01 X11.3190 Y23.3745
G01 X11.3190 Y23.6350
G01 X11.3208 Y23.6520
G01 X11.3486 Y23.7264
G01 X11.3936 Y23.7864
G01 X11.4536 Y23.8314
G01 X11.5280 Y23.8592
G01 X11.5450 Y23.8610
G01 X12.8150 Y23.8610
G01 X12.8320 Y23.8592
G01 X12.9064 Y23.8314
G01 X12.9664 Y23.7864
G01 X13.0114 Y23.7264
G01 X13.0392 Y23.6520
G01 X13.0410 Y23.6350
G01 X13.0410 Y21.9677
G01 X13.0416 Y21.9563
G01 X13.0427 Y21.9449
G01 X13.0443 Y21.9336
G01 X13.0465 Y21.9224
G01 X13.0507 Y21.9059
G01 X13.0704 Y21.8388
G01 X13.0740 Y21.8275
G01 X13.0782 Y21.8164
G01 X13.0829 Y21.8055
G01 X13.0910 Y21.7896
G01 X13.0971 Y21.7793
G01 X13.1036 Y21.7694
G01 X13.1144 Y21.7552
G01 X13.1221 Y21.7461
G01 X13.1303 Y21.7375
G01 X13.1389 Y21.7293
G01 X13.2007 Y21.6757
G01 X13.2100 Y21.6684
G01 X13.2198 Y21.6615
G01 X13.2349 Y21.6522
G01 X13.2454 Y21.6465
G01 X13.2617 Y21.6391
G01 X13.2728 Y21.6349
G01 X13.2841 Y21.6312
G01 X13.3013 Y21.6267
G01 X13.3189 Y21.6235
G01 X13.3881 Y21.6135
G01 X13.3999 Y21.6121
G01 X13.4117 Y21.6113
G01 X13.4236 Y21.6111
G01 X13.4355 Y21.6115
G01 X13.4474 Y21.6124
G01 X13.4592 Y21.6140
G01 X13.4709 Y21.6161
G01 X13.4825 Y21.6188
G01 X13.4939 Y21.6221
G01 X13.5052 Y21.6259
G01 X13.5216 Y21.6327
G01 X13.5852 Y21.6618
G01 X13.6005 Y21.6694
G01 X13.6159 Y21.6786
G01 X13.6306 Y21.6889
G01 X13.6445 Y21.7003
G01 X13.6615 Y21.7163
G01 X17.8700 Y25.9248
G01 X17.8813 Y25.9376
G01 X17.8884 Y25.9466
G01 X17.8981 Y25.9606
G01 X17.9041 Y25.9704
G01 X17.9431 Y26.0418
G01 X17.9505 Y26.0577
G01 X17.9568 Y26.0741
G01 X17.9603 Y26.0853
G01 X17.9633 Y26.0966
G01 X17.9667 Y26.1138
G01 X17.9702 Y26.1395
G01 X17.9716 Y26.1523
G01 X17.9736 Y26.1906
G01 X17.9794 Y26.2216
G01 X17.9955 Y26.2713
G01 X18.0100 Y26.3248
G01 X18.0220 Y26.3539
G01 X18.0480 Y26.3992
G01 X18.0734 Y26.4485
G01 X18.0912 Y26.4744
G01 X18.1219 Y26.5086
G01 X18.1381 Y26.5279
G01 X18.1557 Y26.5460
G01 X18.1864 Y26.5801
G01 X18.2105 Y26.6008
G01 X18.2196 Y26.6094
G01 X20.2806 Y28.6704
G01 X20.2892 Y28.6795
G01 X20.3099 Y28.7036
G01 X20.3440 Y28.7343
G01 X20.3621 Y28.7519
G01 X20.3814 Y28.7681
G01 X20.4156 Y28.7988
G01 X20.4415 Y28.8166
G01 X20.4880 Y28.8404
G01 X20.5361 Y28.8680
G01 X20.5652 Y28.8800
G01 X20.6157 Y28.8937
G01 X20.6684 Y28.9106
G01 X20.6994 Y28.9163
G01 X20.7452 Y28.9188
G01 X20.7704 Y28.9210
G01 X20.7956 Y28.9214
G01 X20.8414 Y28.9238
G01 X20.8731 Y28.9213
G01 X20.8856 Y28.9210
G01 X27.3166 Y28.9210
G01 X27.3280 Y28.9213
G01 X27.3451 Y28.9227
G01 X27.3620 Y28.9253
G01 X27.3786 Y28.9291
G01 X27.4512 Y28.9504
G01 X27.4625 Y28.9540
G01 X27.4791 Y28.9605
G01 X27.4952 Y28.9682
G01 X27.5056 Y28.9740
G01 X27.5206 Y28.9837
G01 X27.5348 Y28.9944
G01 X27.5482 Y29.0062
G01 X27.5567 Y29.0145
G01 X27.5647 Y29.0233
G01 X27.6104 Y29.0761
G01 X27.6216 Y29.0900
G01 X27.6317 Y29.1047
G01 X27.6378 Y29.1149
G01 X27.6461 Y29.1308
G01 X27.6509 Y29.1417
G01 X27.6570 Y29.1584
G01 X27.6605 Y29.1698
G01 X27.6645 Y29.1872
G01 X27.6665 Y29.1989
G01 X27.6772 Y29.2740
G01 X27.6783 Y29.2858
G01 X27.6789 Y29.2977
G01 X27.6785 Y29.3155
G01 X27.6769 Y29.3333
G01 X27.6750 Y29.3450
G01 X27.6712 Y29.3625
G01 X27.6660 Y29.3795
G01 X27.6597 Y29.3962
G01 X27.6234 Y29.4752
G01 X27.6146 Y29.4909
G01 X27.6046 Y29.5058
G01 X27.5936 Y29.5200
G01 X27.5796 Y29.5354
G01 X26.5358 Y30.5794
G01 X26.5233 Y30.5911
G01 X26.5145 Y30.5983
G01 X26.5007 Y30.6084
G01 X26.4862 Y30.6175
G01 X26.4148 Y30.6565
G01 X26.4043 Y30.6616
G01 X26.3936 Y30.6661
G01 X26.3828 Y30.6701
G01 X26.3717 Y30.6736
G01 X26.3605 Y30.6766
G01 X26.3491 Y30.6790
G01 X26.3376 Y30.6808
G01 X26.3261 Y30.6821
G01 X26.2771 Y30.6853
G01 X26.2651 Y30.6854
G01 X26.2525 Y30.6849
G01 X26.0561 Y30.7018
G01 X25.8686 Y30.7520
G01 X25.6924 Y30.8342
G01 X25.5331 Y30.9457
G01 X25.3957 Y31.0831
G01 X25.2842 Y31.2424
G01 X25.2020 Y31.4186
G01 X25.1517 Y31.6063
G01 X25.1348 Y31.8000
G01 X25.1517 Y31.9937
G01 X25.2020 Y32.1814
G01 X25.2842 Y32.3576
G01 X25.3957 Y32.5169
G01 X25.5331 Y32.6543
G01 X25.6924 Y32.7658
G01 X25.8686 Y32.8480
G01 X26.0563 Y32.8983
G01 X26.2500 Y32.9152
G01 X26.4437 Y32.8983
G01 X26.6314 Y32.8480
G01 X26.8076 Y32.7658
G01 X26.9669 Y32.6543
G01 X27.1043 Y32.5169
G01 X27.2222 Y32.3485
G01 X27.2290 Y32.3393
G01 X27.2399 Y32.3261
G01 X27.2518 Y32.3138
G01 X27.2645 Y32.3024
G01 X27.3281 Y32.2515
G01 X27.3378 Y32.2445
G01 X27.3478 Y32.2380
G01 X27.3581 Y32.2321
G01 X27.3686 Y32.2266
G01 X27.3795 Y32.2217
G01 X27.3905 Y32.2173
G01 X27.4018 Y32.2135
G01 X27.4132 Y32.2103
G01 X27.4307 Y32.2065
G01 X27.4483 Y32.2040
G01 X27.5238 Y32.1962
G01 X27.5416 Y32.1955
G01 X27.5594 Y32.1961
G01 X27.5713 Y32.1972
G01 X27.5830 Y32.1990
G01 X27.5947 Y32.2013
G01 X27.6062 Y32.2041
G01 X27.6176 Y32.2076
G01 X27.6288 Y32.2116
G01 X27.6398 Y32.2162
G01 X27.6506 Y32.2213
G01 X27.7181 Y32.2555
G01 X27.7282 Y32.2612
G01 X27.7380 Y32.2675
G01 X27.7475 Y32.2742
G01 X27.7567 Y32.2813
G01 X27.7698 Y32.2929
G01 X27.7780 Y32.3011
G01 X27.8026 Y32.3290
G01 X27.8104 Y32.3385
G01 X27.8178 Y32.3485
G01 X27.9357 Y32.5168
G01 X28.0731 Y32.6543
G01 X28.2324 Y32.7658
G01 X28.4086 Y32.8480
G01 X28.5963 Y32.8983
G01 X28.7900 Y32.9152
G01 X28.9837 Y32.8983
G01 X29.1714 Y32.8480
G01 X29.3476 Y32.7658
G01 X29.5069 Y32.6543
G01 X29.6443 Y32.5169
G01 X29.7622 Y32.3485
G01 X29.7725 Y32.3348
G01 X29.7799 Y32.3261
G01 X29.7918 Y32.3138
G01 X29.8045 Y32.3024
G01 X29.8681 Y32.2515
G01 X29.8778 Y32.2445
G01 X29.8878 Y32.2380
G01 X29.8981 Y32.2321
G01 X29.9086 Y32.2266
G01 X29.9195 Y32.2217
G01 X29.9305 Y32.2173
G01 X29.9418 Y32.2135
G01 X29.9532 Y32.2103
G01 X29.9707 Y32.2065
G01 X29.9883 Y32.2040
G01 X30.0638 Y32.1962
G01 X30.0816 Y32.1955
G01 X30.0935 Y32.1958
G01 X30.1053 Y32.1966
G01 X30.1230 Y32.1990
G01 X30.1347 Y32.2013
G01 X30.1462 Y32.2041
G01 X30.1576 Y32.2076
G01 X30.1688 Y32.2116
G01 X30.1798 Y32.2162
G01 X30.1906 Y32.2213
G01 X30.2581 Y32.2555
G01 X30.2682 Y32.2612
G01 X30.2780 Y32.2675
G01 X30.2875 Y32.2742
G01 X30.2967 Y32.2813
G01 X30.3055 Y32.2889
G01 X30.3180 Y32.3011
G01 X30.3426 Y32.3290
G01 X30.3504 Y32.3385
G01 X30.3578 Y32.3485
G01 X30.4757 Y32.5168
G01 X30.6131 Y32.6543
G01 X30.7724 Y32.7658
G01 X30.9486 Y32.8480
G01 X31.1363 Y32.8983
G01 X31.3300 Y32.9152
G01 X31.5237 Y32.8983
G01 X31.7114 Y32.8480
G01 X31.8876 Y32.7658
G01 X32.0469 Y32.6543
G01 X32.1843 Y32.5169
G01 X32.3022 Y32.3485
G01 X32.3090 Y32.3393
G01 X32.3199 Y32.3261
G01 X32.3318 Y32.3138
G01 X32.3445 Y32.3024
G01 X32.4081 Y32.2515
G01 X32.4178 Y32.2445
G01 X32.4278 Y32.2380
G01 X32.4381 Y32.2321
G01 X32.4486 Y32.2266
G01 X32.4595 Y32.2217
G01 X32.4705 Y32.2173
G01 X32.4818 Y32.2135
G01 X32.4932 Y32.2103
G01 X32.5107 Y32.2065
G01 X32.5283 Y32.2040
G01 X32.6038 Y32.1962
G01 X32.6216 Y32.1955
G01 X32.6394 Y32.1961
G01 X32.6513 Y32.1972
G01 X32.6630 Y32.1990
G01 X32.6747 Y32.2013
G01 X32.6862 Y32.2041
G01 X32.6976 Y32.2076
G01 X32.7088 Y32.2116
G01 X32.7198 Y32.2162
G01 X32.7306 Y32.2213
G01 X32.7981 Y32.2555
G01 X32.8082 Y32.2612
G01 X32.8180 Y32.2675
G01 X32.8275 Y32.2742
G01 X32.8367 Y32.2813
G01 X32.8455 Y32.2889
G01 X32.8580 Y32.3011
G01 X32.8826 Y32.3290
G01 X32.8904 Y32.3385
G01 X32.8978 Y32.3485
G01 X33.0157 Y32.5168
G01 X33.1531 Y32.6543
G01 X33.3124 Y32.7658
G01 X33.4886 Y32.8480
G01 X33.6763 Y32.8983
G01 X33.8700 Y32.9152
G01 X34.0637 Y32.8983
G01 X34.2514 Y32.8480
G01 X34.4276 Y32.7658
G01 X34.5869 Y32.6543
G01 X34.7243 Y32.5169
G01 X34.8422 Y32.3485
G01 X34.8490 Y32.3393
G01 X34.8599 Y32.3261
G01 X34.8718 Y32.3138
G01 X34.8845 Y32.3024
G01 X34.9481 Y32.2515
G01 X34.9578 Y32.2445
G01 X34.9678 Y32.2380
G01 X34.9781 Y32.2321
G01 X34.9886 Y32.2266
G01 X34.9995 Y32.2217
G01 X35.0105 Y32.2173
G01 X35.0218 Y32.2135
G01 X35.0332 Y32.2103
G01 X35.0507 Y32.2065
G01 X35.0683 Y32.2040
G01 X35.1438 Y32.1962
G01 X35.1616 Y32.1955
G01 X35.1735 Y32.1958
G01 X35.1853 Y32.1966
G01 X35.2030 Y32.1990
G01 X35.2147 Y32.2013
G01 X35.2262 Y32.2041
G01 X35.2376 Y32.2076
G01 X35.2488 Y32.2116
G01 X35.2598 Y32.2162
G01 X35.2706 Y32.2213
G01 X35.3381 Y32.2555
G01 X35.3482 Y32.2612
G01 X35.3580 Y32.2675
G01 X35.3675 Y32.2742
G01 X35.3767 Y32.2813
G01 X35.3855 Y32.2889
G01 X35.3980 Y32.3011
G01 X35.4226 Y32.3290
G01 X35.4304 Y32.3385
G01 X35.4378 Y32.3485
G01 X35.5557 Y32.5168
G01 X35.6931 Y32.6543
G01 X35.8524 Y32.7658
G01 X36.0286 Y32.8480
G01 X36.2163 Y32.8983
G01 X36.4100 Y32.9152
G01 X36.6037 Y32.8983
G01 X36.7914 Y32.8480
G01 X36.9676 Y32.7658
G01 X37.1269 Y32.6543
G01 X37.2643 Y32.5169
G01 X37.3822 Y32.3485
G01 X37.3890 Y32.3393
G01 X37.3999 Y32.3261
G01 X37.4118 Y32.3138
G01 X37.4245 Y32.3024
G01 X37.4881 Y32.2515
G01 X37.4978 Y32.2445
G01 X37.5078 Y32.2380
G01 X37.5181 Y32.2321
G01 X37.5286 Y32.2266
G01 X37.5395 Y32.2217
G01 X37.5505 Y32.2173
G01 X37.5618 Y32.2135
G01 X37.5732 Y32.2103
G01 X37.5907 Y32.2065
G01 X37.6083 Y32.2040
G01 X37.6838 Y32.1962
G01 X37.7016 Y32.1955
G01 X37.7194 Y32.1961
G01 X37.7313 Y32.1972
G01 X37.7430 Y32.1990
G01 X37.7547 Y32.2013
G01 X37.7662 Y32.2041
G01 X37.7776 Y32.2076
G01 X37.7888 Y32.2116
G01 X37.7998 Y32.2162
G01 X37.8106 Y32.2213
G01 X37.8781 Y32.2555
G01 X37.8882 Y32.2612
G01 X37.8980 Y32.2675
G01 X37.9075 Y32.2742
G01 X37.9167 Y32.2813
G01 X37.9255 Y32.2889
G01 X37.9380 Y32.3011
G01 X37.9626 Y32.3290
G01 X37.9704 Y32.3385
G01 X37.9778 Y32.3485
G01 X38.0957 Y32.5168
G01 X38.2331 Y32.6543
G01 X38.3924 Y32.7658
G01 X38.5686 Y32.8480
G01 X38.7563 Y32.8983
G01 X38.9500 Y32.9152
G01 X39.1437 Y32.8983
G01 X39.3314 Y32.8480
G01 X39.5076 Y32.7658
G01 X39.6669 Y32.6543
G01 X39.7780 Y32.5432
G01 X39.7908 Y32.5319
G01 X39.7998 Y32.5248
G01 X39.8091 Y32.5182
G01 X39.8187 Y32.5120
G01 X39.8951 Y32.4701
G01 X39.9058 Y32.4649
G01 X39.9223 Y32.4582
G01 X39.9393 Y32.4526
G01 X39.9508 Y32.4497
G01 X39.9625 Y32.4473
G01 X39.9742 Y32.4455
G01 X39.9861 Y32.4443
G01 X40.0039 Y32.4436
G01 X40.0217 Y32.4442
G01 X40.0914 Y32.4492
G01 X40.1033 Y32.4503
G01 X40.1209 Y32.4531
G01 X40.1325 Y32.4557
G01 X40.1440 Y32.4589
G01 X40.1552 Y32.4626
G01 X40.1663 Y32.4669
G01 X40.1825 Y32.4744
G01 X40.1930 Y32.4800
G01 X40.2032 Y32.4862
G01 X40.2179 Y32.4963
G01 X40.2786 Y32.5419
G01 X40.2879 Y32.5496
G01 X40.2968 Y32.5578
G01 X40.3052 Y32.5664
G01 X40.3133 Y32.5754
G01 X40.3208 Y32.5848
G01 X40.3279 Y32.5946
G01 X40.3375 Y32.6099
G01 X40.3601 Y32.6512
G01 X40.3674 Y32.6666
G01 X40.4086 Y32.7764
G01 X40.4536 Y32.8364
G01 X40.5136 Y32.8814
G01 X40.5880 Y32.9092
G01 X40.6050 Y32.9110
G01 X42.3750 Y32.9110
G01 X42.3920 Y32.9092
G01 X42.4664 Y32.8814
G01 X42.5264 Y32.8364
G01 X42.5714 Y32.7764
G01 X42.5992 Y32.7020
G01 X42.6010 Y32.6850
G01 X42.6010 Y31.3745
G01 X42.6013 Y31.3631
G01 X42.6027 Y31.3461
G01 X42.6053 Y31.3292
G01 X42.6091 Y31.3125
G01 X42.6321 Y31.2343
G01 X42.6382 Y31.2175
G01 X42.6429 Y31.2066
G01 X42.6510 Y31.1907
G01 X42.6571 Y31.1805
G01 X42.6671 Y31.1657
G01 X42.6744 Y31.1563
G01 X42.6862 Y31.1429
G01 X42.6945 Y31.1345
G01 X42.7033 Y31.1264
G01 X42.7607 Y31.0768
G01 X42.7701 Y31.0695
G01 X42.7799 Y31.0626
G01 X42.7952 Y31.0531
G01 X42.8112 Y31.0449
G01 X42.8277 Y31.0379
G01 X42.8447 Y31.0321
G01 X42.8621 Y31.0277
G01 X42.9192 Y31.0153
G01 X42.9304 Y31.0134
G01 X42.9417 Y31.0121
G01 X42.9588 Y31.0110
G01 X45.1575 Y31.0110
G01 X45.1689 Y31.0113
G01 X45.1803 Y31.0121
G01 X45.1916 Y31.0134
G01 X45.2084 Y31.0165
G01 X45.2250 Y31.0207
G01 X45.2977 Y31.0421
G01 X45.3145 Y31.0482
G01 X45.3308 Y31.0555
G01 X45.3464 Y31.0640
G01 X45.3614 Y31.0737
G01 X45.3710 Y31.0807
G01 X45.3803 Y31.0882
G01 X45.3891 Y31.0962
G01 X45.3975 Y31.1045
G01 X45.4056 Y31.1133
G01 X45.4513 Y31.1661
G01 X45.4589 Y31.1753
G01 X45.4693 Y31.1898
G01 X45.4757 Y31.1998
G01 X45.4816 Y31.2102
G01 X45.4894 Y31.2262
G01 X45.4939 Y31.2372
G01 X45.4979 Y31.2484
G01 X45.5028 Y31.2656
G01 X45.5054 Y31.2772
G01 X45.5074 Y31.2889
G01 X45.5181 Y31.3639
G01 X45.5195 Y31.3816
G01 X45.5196 Y31.3993
G01 X45.5190 Y31.4111
G01 X45.5170 Y31.4287
G01 X45.5104 Y31.4617
G01 X45.4717 Y31.6063
G01 X45.4548 Y31.8000
G01 X45.4717 Y31.9937
G01 X45.5220 Y32.1814
G01 X45.6042 Y32.3576
G01 X45.7157 Y32.5169
G01 X45.8531 Y32.6543
G01 X46.0124 Y32.7658
G01 X46.1886 Y32.8480
G01 X46.3763 Y32.8983
G01 X46.5700 Y32.9152
G01 X46.7637 Y32.8983
G01 X46.9514 Y32.8480
G01 X47.1276 Y32.7658
G01 X47.2869 Y32.6543
G01 X47.4243 Y32.5169
G01 X47.5422 Y32.3485
G01 X47.5490 Y32.3393
G01 X47.5599 Y32.3261
G01 X47.5718 Y32.3138
G01 X47.5845 Y32.3024
G01 X47.6481 Y32.2515
G01 X47.6578 Y32.2445
G01 X47.6678 Y32.2380
G01 X47.6781 Y32.2321
G01 X47.6886 Y32.2266
G01 X47.6995 Y32.2217
G01 X47.7105 Y32.2173
G01 X47.7218 Y32.2135
G01 X47.7332 Y32.2103
G01 X47.7507 Y32.2065
G01 X47.7683 Y32.2040
G01 X47.8438 Y32.1962
G01 X47.8616 Y32.1955
G01 X47.8794 Y32.1961
G01 X47.8913 Y32.1972
G01 X47.9030 Y32.1990
G01 X47.9147 Y32.2013
G01 X47.9262 Y32.2041
G01 X47.9376 Y32.2076
G01 X47.9488 Y32.2116
G01 X47.9598 Y32.2162
G01 X47.9706 Y32.2213
G01 X48.0381 Y32.2555
G01 X48.0482 Y32.2612
G01 X48.0580 Y32.2675
G01 X48.0675 Y32.2742
G01 X48.0767 Y32.2813
G01 X48.0898 Y32.2929
G01 X48.0980 Y32.3011
G01 X48.1226 Y32.3290
G01 X48.1304 Y32.3385
G01 X48.1378 Y32.3485
G01 X48.2557 Y32.5168
G01 X48.3931 Y32.6543
G01 X48.5524 Y32.7658
G01 X48.7286 Y32.8480
G01 X48.9163 Y32.8983
G01 X49.1100 Y32.9152
G01 X49.3037 Y32.8983
G01 X49.4914 Y32.8480
G01 X49.6676 Y32.7658
G01 X49.8269 Y32.6543
G01 X49.9643 Y32.5169
G01 X50.0822 Y32.3485
G01 X50.0890 Y32.3393
G01 X50.0999 Y32.3261
G01 X50.1118 Y32.3138
G01 X50.1245 Y32.3024
G01 X50.1881 Y32.2515
G01 X50.1978 Y32.2445
G01 X50.2078 Y32.2380
G01 X50.2181 Y32.2321
G01 X50.2286 Y32.2266
G01 X50.2395 Y32.2217
G01 X50.2505 Y32.2173
G01 X50.2618 Y32.2135
G01 X50.2732 Y32.2103
G01 X50.2907 Y32.2065
G01 X50.3083 Y32.2040
G01 X50.3838 Y32.1962
G01 X50.4016 Y32.1955
G01 X50.4194 Y32.1961
G01 X50.4313 Y32.1972
G01 X50.4430 Y32.1990
G01 X50.4547 Y32.2013
G01 X50.4662 Y32.2041
G01 X50.4776 Y32.2076
G01 X50.4888 Y32.2116
G01 X50.4998 Y32.2162
G01 X50.5106 Y32.2213
G01 X50.5781 Y32.2555
G01 X50.5882 Y32.2612
G01 X50.5980 Y32.2675
G01 X50.6075 Y32.2742
G01 X50.6167 Y32.2813
G01 X50.6255 Y32.2889
G01 X50.6380 Y32.3011
G01 X50.6626 Y32.3290
G01 X50.6704 Y32.3385
G01 X50.6778 Y32.3485
G01 X50.7957 Y32.5168
G01 X50.9331 Y32.6543
G01 X51.0924 Y32.7658
G01 X51.2686 Y32.8480
G01 X51.4563 Y32.8983
G01 X51.6500 Y32.9152
G01 X51.8437 Y32.8983
G01 X52.0314 Y32.8480
G01 X52.2076 Y32.7658
G01 X52.3669 Y32.6543
G01 X52.4780 Y32.5432
G01 X52.4908 Y32.5319
G01 X52.4998 Y32.5248
G01 X52.5091 Y32.5182
G01 X52.5187 Y32.5120
G01 X52.5951 Y32.4701
G01 X52.6113 Y32.4625
G01 X52.6223 Y32.4582
G01 X52.6336 Y32.4543
G01 X52.6451 Y32.4511
G01 X52.6625 Y32.4473
G01 X52.6742 Y32.4455
G01 X52.6861 Y32.4443
G01 X52.7039 Y32.4436
G01 X52.7217 Y32.4442
G01 X52.7914 Y32.4492
G01 X52.8033 Y32.4503
G01 X52.8209 Y32.4531
G01 X52.8325 Y32.4557
G01 X52.8440 Y32.4589
G01 X52.8552 Y32.4626
G01 X52.8663 Y32.4669
G01 X52.8825 Y32.4744
G01 X52.8930 Y32.4800
G01 X52.9032 Y32.4862
G01 X52.9179 Y32.4963
G01 X52.9786 Y32.5419
G01 X52.9879 Y32.5496
G01 X52.9968 Y32.5578
G01 X53.0052 Y32.5664
G01 X53.0133 Y32.5754
G01 X53.0208 Y32.5848
G01 X53.0279 Y32.5946
G01 X53.0375 Y32.6099
G01 X53.0601 Y32.6512
G01 X53.0674 Y32.6666
G01 X53.1086 Y32.7764
G01 X53.1536 Y32.8364
G01 X53.2136 Y32.8814
G01 X53.2880 Y32.9092
G01 X53.3050 Y32.9110
G01 X55.0750 Y32.9110
G01 X55.0920 Y32.9092
G01 X55.1664 Y32.8814
G01 X55.2264 Y32.8364
G01 X55.2714 Y32.7764
G01 X55.2992 Y32.7020
G01 X55.3010 Y32.6850
G01 X55.3010 Y31.3745
G01 X55.3013 Y31.3631
G01 X55.3027 Y31.3461
G01 X55.3053 Y31.3292
G01 X55.3091 Y31.3125
G01 X55.3304 Y31.2400
G01 X55.3340 Y31.2287
G01 X55.3382 Y31.2175
G01 X55.3455 Y31.2012
G01 X55.3510 Y31.1907
G01 X55.3603 Y31.1755
G01 X55.3671 Y31.1657
G01 X55.3782 Y31.1517
G01 X55.3903 Y31.1386
G01 X55.3989 Y31.1304
G01 X55.4561 Y31.0807
G01 X55.4654 Y31.0731
G01 X55.4799 Y31.0626
G01 X55.4952 Y31.0531
G01 X55.5058 Y31.0475
G01 X55.5221 Y31.0401
G01 X55.5333 Y31.0358
G01 X55.5504 Y31.0305
G01 X55.5621 Y31.0277
G01 X55.6248 Y31.0143
G01 X55.6417 Y31.0121
G01 X55.6588 Y31.0110
G01 X58.4305 Y31.0110
G01 X58.4476 Y31.0116
G01 X58.4589 Y31.0127
G01 X58.4702 Y31.0143
G01 X58.4814 Y31.0165
G01 X58.4925 Y31.0191
G01 X58.5650 Y31.0404
G01 X58.5763 Y31.0440
G01 X58.5875 Y31.0482
G01 X58.5984 Y31.0529
G01 X58.6091 Y31.0582
G01 X58.6194 Y31.0640
G01 X58.6295 Y31.0703
G01 X58.6393 Y31.0771
G01 X58.6487 Y31.0844
G01 X58.6577 Y31.0921
G01 X58.6664 Y31.1003
G01 X58.6786 Y31.1133
G01 X58.7243 Y31.1661
G01 X58.7319 Y31.1754
G01 X58.7391 Y31.1850
G01 X58.7457 Y31.1949
G01 X58.7519 Y31.2052
G01 X58.7575 Y31.2158
G01 X58.7626 Y31.2266
G01 X58.7671 Y31.2377
G01 X58.7711 Y31.2490
G01 X58.7745 Y31.2604
G01 X58.7885 Y31.3236
G01 X58.7907 Y31.3348
G01 X58.7923 Y31.3461
G01 X58.7934 Y31.3574
G01 X58.7940 Y31.3745
G01 X58.7940 Y31.7383
G01 X58.7933 Y31.7594
G01 X58.7898 Y31.8000
G01 X58.7933 Y31.8406
G01 X58.7940 Y31.8617
G01 X58.7940 Y34.4850
G01 X58.7958 Y34.5020
G01 X58.8236 Y34.5764
G01 X58.8723 Y34.6419
G01 X58.8814 Y34.6564
G01 X58.8869 Y34.6664
G01 X58.8919 Y34.6767
G01 X58.8984 Y34.6925
G01 X58.9248 Y34.7635
G01 X58.9300 Y34.7806
G01 X58.9339 Y34.7980
G01 X58.9358 Y34.8098
G01 X58.9371 Y34.8216
G01 X58.9379 Y34.8394
G01 X58.9377 Y34.8513
G01 X58.9369 Y34.8632
G01 X58.9356 Y34.8750
G01 X58.9336 Y34.8867
G01 X58.9176 Y34.9608
G01 X58.9132 Y34.9781
G01 X58.9095 Y34.9894
G01 X58.9029 Y35.0060
G01 X58.8979 Y35.0168
G01 X58.8923 Y35.0273
G01 X58.8830 Y35.0425
G01 X58.8762 Y35.0523
G01 X58.8651 Y35.0662
G01 X58.8529 Y35.0793
G01 X58.7951 Y35.1367
G01 X58.7862 Y35.1444
G01 X58.7771 Y35.1515
G01 X58.7675 Y35.1583
G01 X58.7577 Y35.1645
G01 X58.7476 Y35.1703
G01 X58.7319 Y35.1780
G01 X58.7157 Y35.1846
G01 X58.6990 Y35.1899
G01 X58.6340 Y35.2066
G01 X58.6223 Y35.2092
G01 X58.6105 Y35.2113
G01 X58.5986 Y35.2128
G01 X58.5867 Y35.2137
G01 X58.5747 Y35.2140
G01 X2.7570 Y35.2140
G01 X2.7373 Y35.2134
G01 X2.6543 Y35.2079
G01 X2.4854 Y35.1959
G01 X2.4629 Y35.1933
G01 X2.4481 Y35.1908
G01 X2.3319 Y35.1677
G01 X2.1962 Y35.1381
G01 X2.1763 Y35.1330
G01 X2.1633 Y35.1290
G01 X2.0425 Y35.0879
G01 X1.9175 Y35.0413
G01 X1.9005 Y35.0343
G01 X1.8895 Y35.0292
G01 X1.7755 Y34.9729
G01 X1.6548 Y34.9071
G01 X1.6318 Y34.8932
G01 X1.5242 Y34.8212
G01 X1.4129 Y34.7381
G01 X1.3949 Y34.7235
G01 X1.3020 Y34.6420
G01 X1.2876 Y34.6285
G01 X1.1883 Y34.5288
G01 X1.1015 Y34.4301
G01 X1.0926 Y34.4193
G01 X1.0039 Y34.3009
G01 X0.9318 Y34.1932
G01 X0.9205 Y34.1748
G01 X0.8526 Y34.0505
G01 X0.7958 Y33.9354
G01 X0.7907 Y33.9245
G01 X0.7837 Y33.9075
G01 X0.7371 Y33.7825
G01 X0.6960 Y33.6617
G01 X0.6920 Y33.6487
G01 X0.6869 Y33.6289
G01 X0.6573 Y33.4931
G01 X0.6342 Y33.3768
G01 X0.6317 Y33.3621
G01 X0.6291 Y33.3396
G01 X0.6170 Y33.1695
G01 X0.6111 Y33.0758
G01 X0.6110 Y2.5920
G00 Z2.0000
G00 X0.7507 Y2.5920
G01 F90.70
G01 Z-0.1859
G01 F100.00
G01 X0.7510 Y2.5815
G01 X0.7564 Y2.4998
G01 X0.7685 Y2.3304
G01 X0.7708 Y2.3125
G01 X0.7939 Y2.1965
G01 X0.8240 Y2.0581
G01 X0.8283 Y2.0433
G01 X0.8670 Y1.9290
G01 X0.9146 Y1.8013
G01 X0.9200 Y1.7886
G01 X0.9766 Y1.6739
G01 X1.0405 Y1.5567
G01 X1.0480 Y1.5444
G01 X1.1179 Y1.4398
G01 X1.1988 Y1.3316
G01 X1.2066 Y1.3220
G01 X1.2930 Y1.2238
G01 X1.3864 Y1.1302
G01 X1.3940 Y1.1231
G01 X1.4870 Y1.0416
G01 X1.4966 Y1.0338
G01 X1.6022 Y0.9548
G01 X1.7094 Y0.8830
G01 X1.7217 Y0.8755
G01 X1.8389 Y0.8116
G01 X1.9559 Y0.7540
G01 X1.9663 Y0.7496
G01 X2.0913 Y0.7030
G01 X2.2109 Y0.6624
G01 X2.2258 Y0.6584
G01 X2.3615 Y0.6289
G01 X2.4816 Y0.6052
G01 X2.4954 Y0.6035
G01 X2.6642 Y0.5914
G01 X2.7538 Y0.5858
G01 X6.4426 Y0.5857
G01 X6.4544 Y0.5867
G01 X6.4660 Y0.5891
G01 X6.5377 Y0.6102
G01 X6.5447 Y0.6127
G01 X6.5515 Y0.6157
G01 X6.5580 Y0.6193
G01 X6.5643 Y0.6233
G01 X6.5740 Y0.6310
G01 X6.5810 Y0.6380
G01 X6.6300 Y0.6945
G01 X6.6359 Y0.7025
G01 X6.6410 Y0.7110
G01 X6.6453 Y0.7199
G01 X6.6478 Y0.7269
G01 X6.6499 Y0.7341
G01 X6.6514 Y0.7413
G01 X6.6621 Y0.8154
G01 X6.6627 Y0.8278
G01 X6.6624 Y0.8352
G01 X6.6615 Y0.8426
G01 X6.6589 Y0.8547
G01 X6.6566 Y0.8617
G01 X6.6537 Y0.8686
G01 X6.6238 Y0.9341
G01 X6.6177 Y0.9450
G01 X6.6118 Y0.9531
G01 X6.6069 Y0.9588
G01 X6.5930 Y0.9730
G01 X6.5617 Y1.0013
G01 X6.5548 Y1.0103
G01 X6.5368 Y1.0308
G01 X5.8939 Y1.6738
G01 X5.8887 Y1.6786
G01 X5.8812 Y1.6845
G01 X5.8711 Y1.6908
G01 X5.8098 Y1.7243
G01 X5.7987 Y1.7295
G01 X5.7895 Y1.7326
G01 X5.7799 Y1.7348
G01 X5.7463 Y1.7387
G01 X5.7356 Y1.7393
G01 X5.3175 Y1.7393
G01 X5.2756 Y1.7438
G01 X5.1660 Y1.7847
G01 X5.0737 Y1.8537
G01 X5.0047 Y1.9460
G01 X4.9638 Y2.0556
G01 X4.9593 Y2.0975
G01 X4.9593 Y2.5156
G01 X4.9590 Y2.5228
G01 X4.9579 Y2.5322
G01 X4.9559 Y2.5415
G01 X4.9341 Y2.6155
G01 X4.9314 Y2.6223
G01 X4.9271 Y2.6311
G01 X4.9233 Y2.6374
G01 X4.9175 Y2.6453
G01 X4.8992 Y2.6680
G01 X4.8938 Y2.6739
G01 X2.2458 Y5.3218
G01 X2.2253 Y5.3398
G01 X2.2163 Y5.3467
G01 X2.1751 Y5.3924
G01 X2.1592 Y5.4085
G01 X2.1431 Y5.4279
G01 X2.1037 Y5.4718
G01 X2.0977 Y5.4815
G01 X2.0852 Y5.4996
G01 X2.0798 Y5.5065
G01 X2.0518 Y5.5614
G01 X2.0195 Y5.6175
G01 X2.0157 Y5.6282
G01 X2.0072 Y5.6486
G01 X2.0034 Y5.6565
G01 X1.9874 Y5.7159
G01 X1.9675 Y5.7776
G01 X1.9664 Y5.7863
G01 X1.9624 Y5.8080
G01 X1.9598 Y5.8191
G01 X1.9567 Y5.8779
G01 X1.9543 Y5.9030
G01 X1.9541 Y5.9283
G01 X1.9510 Y5.9871
G01 X1.9525 Y5.9984
G01 X1.9543 Y6.0256
G01 X1.9543 Y17.4944
G01 X1.9525 Y17.5216
G01 X1.9510 Y17.5329
G01 X1.9541 Y17.5917
G01 X1.9543 Y17.6170
G01 X1.9567 Y17.6421
G01 X1.9598 Y17.7009
G01 X1.9624 Y17.7120
G01 X1.9664 Y17.7337
G01 X1.9675 Y17.7424
G01 X1.9865 Y17.8010
G01 X2.0034 Y17.8635
G01 X2.0072 Y17.8714
G01 X2.0157 Y17.8918
G01 X2.0195 Y17.9025
G01 X2.0518 Y17.9586
G01 X2.0703 Y17.9949
G01 X2.0748 Y18.0059
G01 X2.0768 Y18.0127
G01 X2.0784 Y18.0197
G01 X2.0917 Y18.0908
G01 X2.0928 Y18.1006
G01 X2.0929 Y18.1105
G01 X2.0921 Y18.1204
G01 X2.0908 Y18.1277
G01 X2.0889 Y18.1349
G01 X2.0857 Y18.1443
G01 X2.0575 Y18.2135
G01 X2.0541 Y18.2201
G01 X2.0503 Y18.2263
G01 X2.0461 Y18.2323
G01 X2.0414 Y18.2380
G01 X2.0327 Y18.2466
G01 X1.9882 Y18.2836
G01 X1.9776 Y18.2905
G01 X1.9493 Y18.3057
G01 X1.8045 Y18.4245
G01 X1.6857 Y18.5693
G01 X1.5974 Y18.7344
G01 X1.5431 Y18.9136
G01 X1.5247 Y19.1000
G01 X1.5431 Y19.2864
G01 X1.5974 Y19.4656
G01 X1.6857 Y19.6307
G01 X1.8045 Y19.7755
G01 X1.9493 Y19.8943
G01 X2.1144 Y19.9826
G01 X2.2936 Y20.0369
G01 X2.4333 Y20.0507
G01 X2.5267 Y20.0507
G01 X2.6664 Y20.0369
G01 X2.8456 Y19.9826
G01 X3.0107 Y19.8943
G01 X3.1555 Y19.7755
G01 X3.2743 Y19.6307
G01 X3.3626 Y19.4656
G01 X3.3784 Y19.4136
G01 X3.3809 Y19.4069
G01 X3.3849 Y19.3982
G01 X3.3897 Y19.3900
G01 X3.4294 Y19.3295
G01 X3.4371 Y19.3198
G01 X3.4459 Y19.3111
G01 X3.4557 Y19.3035
G01 X3.4664 Y19.2973
G01 X3.5347 Y19.2667
G01 X3.5416 Y19.2639
G01 X3.5486 Y19.2617
G01 X3.5583 Y19.2595
G01 X3.5657 Y19.2585
G01 X3.5781 Y19.2581
G01 X3.5879 Y19.2588
G01 X3.6642 Y19.2706
G01 X3.6736 Y19.2730
G01 X3.6827 Y19.2762
G01 X3.6914 Y19.2804
G01 X3.6997 Y19.2853
G01 X3.7388 Y19.3128
G01 X3.7447 Y19.3174
G01 X3.7501 Y19.3225
G01 X7.2868 Y22.8592
G01 X7.3048 Y22.8797
G01 X7.3117 Y22.8887
G01 X7.3555 Y22.9282
G01 X7.3735 Y22.9459
G01 X7.3929 Y22.9619
G01 X7.4368 Y23.0013
G01 X7.4443 Y23.0058
G01 X7.4625 Y23.0183
G01 X7.4715 Y23.0252
G01 X7.5292 Y23.0547
G01 X7.5825 Y23.0855
G01 X7.5932 Y23.0893
G01 X7.6140 Y23.0980
G01 X7.6215 Y23.1016
G01 X7.6809 Y23.1176
G01 X7.7426 Y23.1375
G01 X7.7539 Y23.1390
G01 X7.7756 Y23.1431
G01 X7.7841 Y23.1452
G01 X7.8429 Y23.1483
G01 X7.8680 Y23.1507
G01 X7.8933 Y23.1509
G01 X7.9521 Y23.1540
G01 X7.9634 Y23.1525
G01 X7.9906 Y23.1507
G01 X10.9555 Y23.1507
G01 X10.9626 Y23.1510
G01 X10.9721 Y23.1521
G01 X10.9836 Y23.1547
G01 X11.0554 Y23.1759
G01 X11.0623 Y23.1786
G01 X11.0690 Y23.1819
G01 X11.0796 Y23.1883
G01 X11.0874 Y23.1944
G01 X11.0963 Y23.2030
G01 X11.1437 Y23.2576
G01 X11.1513 Y23.2675
G01 X11.1575 Y23.2783
G01 X11.1624 Y23.2898
G01 X11.1653 Y23.2993
G01 X11.1775 Y23.3556
G01 X11.1790 Y23.3674
G01 X11.1793 Y23.6425
G01 X11.1838 Y23.6844
G01 X11.2247 Y23.7940
G01 X11.2937 Y23.8862
G01 X11.3860 Y23.9553
G01 X11.4956 Y23.9962
G01 X11.5375 Y24.0007
G01 X12.8225 Y24.0007
G01 X12.8644 Y23.9962
G01 X12.9740 Y23.9553
G01 X13.0663 Y23.8863
G01 X13.1353 Y23.7940
G01 X13.1762 Y23.6844
G01 X13.1807 Y23.6425
G01 X13.1807 Y21.9734
G01 X13.1810 Y21.9662
G01 X13.1817 Y21.9592
G01 X13.1830 Y21.9521
G01 X13.1847 Y21.9452
G01 X13.2052 Y21.8758
G01 X13.2097 Y21.8643
G01 X13.2156 Y21.8534
G01 X13.2228 Y21.8433
G01 X13.2312 Y21.8342
G01 X13.2876 Y21.7851
G01 X13.2934 Y21.7805
G01 X13.3017 Y21.7750
G01 X13.3127 Y21.7693
G01 X13.3243 Y21.7650
G01 X13.3363 Y21.7622
G01 X13.4079 Y21.7518
G01 X13.4153 Y21.7511
G01 X13.4252 Y21.7509
G01 X13.4351 Y21.7517
G01 X13.4425 Y21.7529
G01 X13.4520 Y21.7554
G01 X13.4636 Y21.7598
G01 X13.5335 Y21.7921
G01 X13.5400 Y21.7959
G01 X13.5480 Y21.8017
G01 X13.5627 Y21.8151
G01 X17.7689 Y26.0213
G01 X17.7765 Y26.0303
G01 X17.7831 Y26.0402
G01 X17.8189 Y26.1058
G01 X17.8220 Y26.1124
G01 X17.8253 Y26.1216
G01 X17.8273 Y26.1286
G01 X17.8287 Y26.1358
G01 X17.8320 Y26.1607
G01 X17.8348 Y26.2109
G01 X17.8369 Y26.2194
G01 X17.8410 Y26.2411
G01 X17.8425 Y26.2524
G01 X17.8615 Y26.3110
G01 X17.8784 Y26.3735
G01 X17.8822 Y26.3814
G01 X17.8907 Y26.4018
G01 X17.8945 Y26.4125
G01 X17.9252 Y26.4658
G01 X17.9548 Y26.5235
G01 X17.9602 Y26.5304
G01 X17.9727 Y26.5485
G01 X17.9786 Y26.5582
G01 X18.0181 Y26.6021
G01 X18.0341 Y26.6215
G01 X18.0501 Y26.6376
G01 X18.0913 Y26.6833
G01 X18.1003 Y26.6902
G01 X18.1208 Y26.7082
G01 X20.1818 Y28.7692
G01 X20.1998 Y28.7897
G01 X20.2067 Y28.7987
G01 X20.2505 Y28.8382
G01 X20.2685 Y28.8559
G01 X20.2879 Y28.8719
G01 X20.3318 Y28.9113
G01 X20.3393 Y28.9158
G01 X20.3575 Y28.9283
G01 X20.3665 Y28.9352
G01 X20.4242 Y28.9647
G01 X20.4775 Y28.9955
G01 X20.4858 Y28.9983
G01 X20.5062 Y29.0067
G01 X20.5165 Y29.0116
G01 X20.5760 Y29.0276
G01 X20.6376 Y29.0475
G01 X20.6489 Y29.0490
G01 X20.6706 Y29.0531
G01 X20.6790 Y29.0552
G01 X20.7379 Y29.0583
G01 X20.7630 Y29.0607
G01 X20.7883 Y29.0609
G01 X20.8471 Y29.0640
G01 X20.8584 Y29.0625
G01 X20.8856 Y29.0607
G01 X27.3166 Y29.0607
G01 X27.3285 Y29.0614
G01 X27.3355 Y29.0625
G01 X27.3425 Y29.0641
G01 X27.4142 Y29.0852
G01 X27.4234 Y29.0886
G01 X27.4301 Y29.0919
G01 X27.4387 Y29.0969
G01 X27.4447 Y29.1012
G01 X27.4504 Y29.1060
G01 X27.4558 Y29.1112
G01 X27.5080 Y29.1715
G01 X27.5137 Y29.1796
G01 X27.5197 Y29.1904
G01 X27.5243 Y29.2019
G01 X27.5274 Y29.2139
G01 X27.5387 Y29.2929
G01 X27.5391 Y29.3052
G01 X27.5386 Y29.3127
G01 X27.5376 Y29.3200
G01 X27.5346 Y29.3320
G01 X27.5302 Y29.3436
G01 X27.5002 Y29.4091
G01 X27.4967 Y29.4157
G01 X27.4913 Y29.4241
G01 X27.4851 Y29.4319
G01 X27.4749 Y29.4428
G01 X26.4353 Y30.4823
G01 X26.4262 Y30.4900
G01 X26.4163 Y30.4965
G01 X26.3529 Y30.5311
G01 X26.3465 Y30.5344
G01 X26.3397 Y30.5371
G01 X26.3329 Y30.5394
G01 X26.3258 Y30.5412
G01 X26.3139 Y30.5430
G01 X26.2718 Y30.5456
G01 X26.2618 Y30.5455
G01 X26.2500 Y30.5445
G01 X26.0320 Y30.5636
G01 X25.8206 Y30.6202
G01 X25.6223 Y30.7127
G01 X25.4430 Y30.8382
G01 X25.2882 Y30.9930
G01 X25.1627 Y31.1723
G01 X25.0702 Y31.3706
G01 X25.0136 Y31.5820
G01 X24.9945 Y31.8000
G01 X25.0136 Y32.0180
G01 X25.0702 Y32.2294
G01 X25.1627 Y32.4277
G01 X25.2882 Y32.6070
G01 X25.4430 Y32.7618
G01 X25.6223 Y32.8873
G01 X25.8206 Y32.9798
G01 X26.0320 Y33.0364
G01 X26.2500 Y33.0555
G01 X26.4680 Y33.0364
G01 X26.6794 Y32.9798
G01 X26.8777 Y32.8873
G01 X27.0570 Y32.7618
G01 X27.2118 Y32.6070
G01 X27.3367 Y32.4286
G01 X27.3440 Y32.4193
G01 X27.3490 Y32.4142
G01 X27.3543 Y32.4094
G01 X27.4126 Y32.3627
G01 X27.4208 Y32.3571
G01 X27.4318 Y32.3513
G01 X27.4410 Y32.3477
G01 X27.4529 Y32.3445
G01 X27.4627 Y32.3429
G01 X27.5322 Y32.3358
G01 X27.5421 Y32.3352
G01 X27.5520 Y32.3357
G01 X27.5618 Y32.3371
G01 X27.5714 Y32.3395
G01 X27.5830 Y32.3438
G01 X27.6520 Y32.3786
G01 X27.6623 Y32.3850
G01 X27.6718 Y32.3925
G01 X27.6803 Y32.4012
G01 X27.7018 Y32.4265
G01 X27.8282 Y32.6070
G01 X27.9830 Y32.7618
G01 X28.1623 Y32.8873
G01 X28.3606 Y32.9798
G01 X28.5720 Y33.0364
G01 X28.7900 Y33.0555
G01 X29.0080 Y33.0364
G01 X29.2194 Y32.9798
G01 X29.4177 Y32.8873
G01 X29.5970 Y32.7618
G01 X29.7518 Y32.6070
G01 X29.8781 Y32.4267
G01 X29.8857 Y32.4175
G01 X29.8943 Y32.4094
G01 X29.9546 Y32.3613
G01 X29.9651 Y32.3547
G01 X29.9763 Y32.3494
G01 X29.9881 Y32.3456
G01 X30.0003 Y32.3432
G01 X30.0722 Y32.3358
G01 X30.0821 Y32.3352
G01 X30.0920 Y32.3357
G01 X30.1018 Y32.3371
G01 X30.1114 Y32.3395
G01 X30.1230 Y32.3438
G01 X30.1920 Y32.3786
G01 X30.2023 Y32.3850
G01 X30.2118 Y32.3925
G01 X30.2203 Y32.4012
G01 X30.2418 Y32.4265
G01 X30.3682 Y32.6070
G01 X30.5230 Y32.7618
G01 X30.7023 Y32.8873
G01 X30.9006 Y32.9798
G01 X31.1120 Y33.0364
G01 X31.3300 Y33.0555
G01 X31.5480 Y33.0364
G01 X31.7594 Y32.9798
G01 X31.9577 Y32.8873
G01 X32.1370 Y32.7618
G01 X32.2918 Y32.6070
G01 X32.4181 Y32.4267
G01 X32.4257 Y32.4175
G01 X32.4343 Y32.4094
G01 X32.4946 Y32.3613
G01 X32.5051 Y32.3547
G01 X32.5163 Y32.3494
G01 X32.5281 Y32.3456
G01 X32.5403 Y32.3432
G01 X32.6122 Y32.3358
G01 X32.6221 Y32.3352
G01 X32.6320 Y32.3357
G01 X32.6443 Y32.3376
G01 X32.6538 Y32.3403
G01 X32.6630 Y32.3438
G01 X32.7320 Y32.3786
G01 X32.7423 Y32.3850
G01 X32.7518 Y32.3925
G01 X32.7603 Y32.4012
G01 X32.7818 Y32.4265
G01 X32.9082 Y32.6070
G01 X33.0630 Y32.7618
G01 X33.2423 Y32.8873
G01 X33.4406 Y32.9798
G01 X33.6520 Y33.0364
G01 X33.8700 Y33.0555
G01 X34.0880 Y33.0364
G01 X34.2994 Y32.9798
G01 X34.4977 Y32.8873
G01 X34.6770 Y32.7618
G01 X34.8318 Y32.6070
G01 X34.9581 Y32.4267
G01 X34.9657 Y32.4175
G01 X34.9743 Y32.4094
G01 X35.0346 Y32.3613
G01 X35.0451 Y32.3547
G01 X35.0563 Y32.3494
G01 X35.0681 Y32.3456
G01 X35.0803 Y32.3432
G01 X35.1522 Y32.3358
G01 X35.1621 Y32.3352
G01 X35.1745 Y32.3359
G01 X35.1843 Y32.3376
G01 X35.1938 Y32.3403
G01 X35.2030 Y32.3438
G01 X35.2720 Y32.3786
G01 X35.2823 Y32.3850
G01 X35.2918 Y32.3925
G01 X35.3003 Y32.4012
G01 X35.3218 Y32.4265
G01 X35.4482 Y32.6070
G01 X35.6030 Y32.7618
G01 X35.7823 Y32.8873
G01 X35.9806 Y32.9798
G01 X36.1920 Y33.0364
G01 X36.4100 Y33.0555
G01 X36.6280 Y33.0364
G01 X36.8394 Y32.9798
G01 X37.0377 Y32.8873
G01 X37.2170 Y32.7618
G01 X37.3718 Y32.6070
G01 X37.4981 Y32.4267
G01 X37.5057 Y32.4175
G01 X37.5143 Y32.4094
G01 X37.5746 Y32.3613
G01 X37.5851 Y32.3547
G01 X37.5963 Y32.3494
G01 X37.6081 Y32.3456
G01 X37.6203 Y32.3432
G01 X37.6922 Y32.3358
G01 X37.7021 Y32.3352
G01 X37.7120 Y32.3357
G01 X37.7243 Y32.3376
G01 X37.7338 Y32.3403
G01 X37.7430 Y32.3438
G01 X37.8120 Y32.3786
G01 X37.8223 Y32.3850
G01 X37.8318 Y32.3925
G01 X37.8403 Y32.4012
G01 X37.8618 Y32.4265
G01 X37.9882 Y32.6070
G01 X38.1430 Y32.7618
G01 X38.3223 Y32.8873
G01 X38.5206 Y32.9798
G01 X38.7320 Y33.0364
G01 X38.9500 Y33.0555
G01 X39.1680 Y33.0364
G01 X39.3794 Y32.9798
G01 X39.5777 Y32.8873
G01 X39.7570 Y32.7618
G01 X39.8728 Y32.6460
G01 X39.8798 Y32.6396
G01 X39.8854 Y32.6353
G01 X39.8955 Y32.6290
G01 X39.9568 Y32.5955
G01 X39.9657 Y32.5912
G01 X39.9750 Y32.5878
G01 X39.9846 Y32.5853
G01 X39.9944 Y32.5838
G01 X40.0043 Y32.5833
G01 X40.0118 Y32.5835
G01 X40.0839 Y32.5887
G01 X40.0962 Y32.5907
G01 X40.1081 Y32.5941
G01 X40.1194 Y32.5990
G01 X40.1301 Y32.6053
G01 X40.1940 Y32.6532
G01 X40.2032 Y32.6618
G01 X40.2081 Y32.6675
G01 X40.2126 Y32.6735
G01 X40.2179 Y32.6821
G01 X40.2370 Y32.7173
G01 X40.2407 Y32.7260
G01 X40.2847 Y32.8440
G01 X40.3537 Y32.9362
G01 X40.4460 Y33.0053
G01 X40.5556 Y33.0462
G01 X40.5975 Y33.0507
G01 X42.3825 Y33.0507
G01 X42.4244 Y33.0462
G01 X42.5340 Y33.0053
G01 X42.6263 Y32.9363
G01 X42.6953 Y32.8440
G01 X42.7362 Y32.7344
G01 X42.7407 Y32.6925
G01 X42.7407 Y31.3745
G01 X42.7410 Y31.3674
G01 X42.7421 Y31.3579
G01 X42.7441 Y31.3487
G01 X42.7644 Y31.2793
G01 X42.7668 Y31.2723
G01 X42.7697 Y31.2654
G01 X42.7756 Y31.2546
G01 X42.7797 Y31.2484
G01 X42.7844 Y31.2426
G01 X42.7930 Y31.2337
G01 X42.8476 Y31.1863
G01 X42.8575 Y31.1787
G01 X42.8639 Y31.1748
G01 X42.8706 Y31.1714
G01 X42.8774 Y31.1685
G01 X42.8869 Y31.1654
G01 X42.9456 Y31.1525
G01 X42.9550 Y31.1512
G01 X42.9621 Y31.1507
G01 X45.1575 Y31.1507
G01 X45.1693 Y31.1514
G01 X45.1810 Y31.1535
G01 X45.2527 Y31.1744
G01 X45.2597 Y31.1768
G01 X45.2666 Y31.1797
G01 X45.2753 Y31.1843
G01 X45.2816 Y31.1883
G01 X45.2894 Y31.1944
G01 X45.2983 Y31.2030
G01 X45.3489 Y31.2615
G01 X45.3546 Y31.2696
G01 X45.3606 Y31.2804
G01 X45.3643 Y31.2896
G01 X45.3672 Y31.2991
G01 X45.3691 Y31.3088
G01 X45.3793 Y31.3804
G01 X45.3800 Y31.3902
G01 X45.3795 Y31.4025
G01 X45.3780 Y31.4122
G01 X45.3737 Y31.4324
G01 X45.3336 Y31.5820
G01 X45.3145 Y31.8000
G01 X45.3336 Y32.0180
G01 X45.3902 Y32.2294
G01 X45.4827 Y32.4277
G01 X45.6082 Y32.6070
G01 X45.7630 Y32.7618
G01 X45.9423 Y32.8873
G01 X46.1406 Y32.9798
G01 X46.3520 Y33.0364
G01 X46.5700 Y33.0555
G01 X46.7880 Y33.0364
G01 X46.9994 Y32.9798
G01 X47.1977 Y32.8873
G01 X47.3770 Y32.7618
G01 X47.5318 Y32.6070
G01 X47.6567 Y32.4286
G01 X47.6640 Y32.4193
G01 X47.6690 Y32.4142
G01 X47.6743 Y32.4094
G01 X47.7326 Y32.3627
G01 X47.7430 Y32.3559
G01 X47.7518 Y32.3513
G01 X47.7610 Y32.3477
G01 X47.7729 Y32.3445
G01 X47.7827 Y32.3429
G01 X47.8522 Y32.3358
G01 X47.8621 Y32.3352
G01 X47.8720 Y32.3357
G01 X47.8818 Y32.3371
G01 X47.8914 Y32.3395
G01 X47.9030 Y32.3438
G01 X47.9720 Y32.3786
G01 X47.9823 Y32.3850
G01 X47.9918 Y32.3925
G01 X48.0003 Y32.4012
G01 X48.0218 Y32.4265
G01 X48.1482 Y32.6070
G01 X48.3030 Y32.7618
G01 X48.4823 Y32.8873
G01 X48.6806 Y32.9798
G01 X48.8920 Y33.0364
G01 X49.1100 Y33.0555
G01 X49.3280 Y33.0364
G01 X49.5394 Y32.9798
G01 X49.7377 Y32.8873
G01 X49.9170 Y32.7618
G01 X50.0718 Y32.6070
G01 X50.1981 Y32.4267
G01 X50.2057 Y32.4175
G01 X50.2143 Y32.4094
G01 X50.2746 Y32.3613
G01 X50.2851 Y32.3547
G01 X50.2963 Y32.3494
G01 X50.3081 Y32.3456
G01 X50.3203 Y32.3432
G01 X50.3922 Y32.3358
G01 X50.4021 Y32.3352
G01 X50.4120 Y32.3357
G01 X50.4243 Y32.3376
G01 X50.4338 Y32.3403
G01 X50.4430 Y32.3438
G01 X50.5120 Y32.3786
G01 X50.5223 Y32.3850
G01 X50.5318 Y32.3925
G01 X50.5403 Y32.4012
G01 X50.5618 Y32.4265
G01 X50.6882 Y32.6070
G01 X50.8430 Y32.7618
G01 X51.0223 Y32.8873
G01 X51.2206 Y32.9798
G01 X51.4320 Y33.0364
G01 X51.6500 Y33.0555
G01 X51.8680 Y33.0364
G01 X52.0794 Y32.9798
G01 X52.2777 Y32.8873
G01 X52.4570 Y32.7618
G01 X52.5728 Y32.6460
G01 X52.5798 Y32.6396
G01 X52.5854 Y32.6353
G01 X52.5955 Y32.6290
G01 X52.6568 Y32.5955
G01 X52.6657 Y32.5912
G01 X52.6750 Y32.5878
G01 X52.6846 Y32.5853
G01 X52.6944 Y32.5838
G01 X52.7043 Y32.5833
G01 X52.7118 Y32.5835
G01 X52.7839 Y32.5887
G01 X52.7962 Y32.5907
G01 X52.8081 Y32.5941
G01 X52.8194 Y32.5990
G01 X52.8301 Y32.6053
G01 X52.8940 Y32.6532
G01 X52.9032 Y32.6618
G01 X52.9081 Y32.6675
G01 X52.9126 Y32.6735
G01 X52.9179 Y32.6821
G01 X52.9370 Y32.7173
G01 X52.9407 Y32.7260
G01 X52.9847 Y32.8440
G01 X53.0537 Y32.9362
G01 X53.1460 Y33.0053
G01 X53.2556 Y33.0462
G01 X53.2975 Y33.0507
G01 X55.0825 Y33.0507
G01 X55.1244 Y33.0462
G01 X55.2340 Y33.0053
G01 X55.3263 Y32.9363
G01 X55.3953 Y32.8440
G01 X55.4362 Y32.7344
G01 X55.4407 Y32.6925
G01 X55.4407 Y31.3745
G01 X55.4410 Y31.3674
G01 X55.4421 Y31.3579
G01 X55.4441 Y31.3487
G01 X55.4644 Y31.2793
G01 X55.4668 Y31.2723
G01 X55.4697 Y31.2654
G01 X55.4756 Y31.2546
G01 X55.4797 Y31.2484
G01 X55.4844 Y31.2426
G01 X55.4930 Y31.2337
G01 X55.5495 Y31.1847
G01 X55.5555 Y31.1801
G01 X55.5639 Y31.1748
G01 X55.5751 Y31.1694
G01 X55.5821 Y31.1668
G01 X55.5893 Y31.1647
G01 X55.6456 Y31.1525
G01 X55.6550 Y31.1512
G01 X55.6645 Y31.1507
G01 X58.4352 Y31.1508
G01 X58.4471 Y31.1521
G01 X58.4563 Y31.1541
G01 X58.5257 Y31.1744
G01 X58.5327 Y31.1768
G01 X58.5418 Y31.1807
G01 X58.5504 Y31.1856
G01 X58.5586 Y31.1912
G01 X58.5679 Y31.1994
G01 X58.5730 Y31.2048
G01 X58.6203 Y31.2595
G01 X58.6263 Y31.2675
G01 X58.6314 Y31.2761
G01 X58.6365 Y31.2874
G01 X58.6403 Y31.2993
G01 X58.6520 Y31.3533
G01 X58.6538 Y31.3650
G01 X58.6543 Y31.3745
G01 X58.6543 Y31.7383
G01 X58.6537 Y31.7524
G01 X58.6495 Y31.8000
G01 X58.6537 Y31.8476
G01 X58.6543 Y31.8617
G01 X58.6543 Y34.4925
G01 X58.6588 Y34.5344
G01 X58.6997 Y34.6440
G01 X58.7539 Y34.7164
G01 X58.7579 Y34.7222
G01 X58.7616 Y34.7284
G01 X58.7648 Y34.7347
G01 X58.7675 Y34.7413
G01 X58.7919 Y34.8068
G01 X58.7955 Y34.8186
G01 X58.7973 Y34.8284
G01 X58.7981 Y34.8382
G01 X58.7980 Y34.8482
G01 X58.7969 Y34.8580
G01 X58.7799 Y34.9360
G01 X58.7759 Y34.9477
G01 X58.7705 Y34.9588
G01 X58.7638 Y34.9692
G01 X58.7592 Y34.9750
G01 X58.7541 Y34.9805
G01 X58.7030 Y35.0316
G01 X58.6937 Y35.0394
G01 X58.6856 Y35.0448
G01 X58.6792 Y35.0484
G01 X58.6726 Y35.0514
G01 X58.6658 Y35.0540
G01 X58.6588 Y35.0560
G01 X58.5970 Y35.0718
G01 X58.5847 Y35.0738
G01 X58.5747 Y35.0743
G01 X2.7570 Y35.0743
G01 X2.7464 Y35.0740
G01 X2.6642 Y35.0686
G01 X2.4954 Y35.0565
G01 X2.4815 Y35.0548
G01 X2.3616 Y35.0311
G01 X2.2259 Y35.0016
G01 X2.2136 Y34.9984
G01 X2.0913 Y34.9570
G01 X1.9663 Y34.9104
G01 X1.9559 Y34.9060
G01 X1.8393 Y34.8486
G01 X1.7218 Y34.7845
G01 X1.7094 Y34.7770
G01 X1.6049 Y34.7071
G01 X1.4967 Y34.6263
G01 X1.4870 Y34.6184
G01 X1.3941 Y34.5369
G01 X1.3864 Y34.5297
G01 X1.2902 Y34.4333
G01 X1.2041 Y34.3351
G01 X1.1179 Y34.2202
G01 X1.0480 Y34.1156
G01 X1.0416 Y34.1052
G01 X0.9766 Y33.9861
G01 X0.9190 Y33.8691
G01 X0.9146 Y33.8587
G01 X0.8680 Y33.7337
G01 X0.8266 Y33.6114
G01 X0.8234 Y33.5992
G01 X0.7939 Y33.4634
G01 X0.7702 Y33.3434
G01 X0.7685 Y33.3296
G01 X0.7564 Y33.1609
G01 X0.7508 Y33.0712
G01 X0.7507 Y2.5920
G00 Z2.0000
G00 X5.9527 Y6.4398
G01 F90.70
G01 Z-0.1859
G01 F100.00
G01 X5.3600 Y6.4398
G01 X5.3527 Y6.4395
G01 X5.3405 Y6.4379
G01 X5.3310 Y6.4355
G01 X5.3196 Y6.4312
G01 X5.3087 Y6.4256
G01 X5.2986 Y6.4187
G01 X5.2894 Y6.4106
G01 X5.2813 Y6.4014
G01 X5.2757 Y6.3934
G01 X5.2720 Y6.3870
G01 X5.2688 Y6.3804
G01 X5.2645 Y6.3690
G01 X5.2626 Y6.3619
G01 X5.2613 Y6.3546
G01 X5.2602 Y6.3424
G01 X5.2602 Y5.4400
G01 X5.2607 Y5.4302
G01 X5.2621 Y5.4205
G01 X5.2638 Y5.4134
G01 X5.2669 Y5.4041
G01 X5.2709 Y5.3951
G01 X5.2757 Y5.3866
G01 X5.2813 Y5.3786
G01 X5.2861 Y5.3730
G01 X5.2930 Y5.3661
G01 X5.3005 Y5.3598
G01 X5.3087 Y5.3544
G01 X5.3196 Y5.3488
G01 X5.3287 Y5.3452
G01 X5.3381 Y5.3426
G01 X5.3502 Y5.3407
G01 X5.3600 Y5.3402
G01 X6.8624 Y5.3402
G01 X6.8722 Y5.3410
G01 X6.8819 Y5.3426
G01 X6.8890 Y5.3445
G01 X6.8982 Y5.3478
G01 X6.9049 Y5.3509
G01 X6.9134 Y5.3557
G01 X6.9214 Y5.3613
G01 X6.9270 Y5.3661
G01 X6.9339 Y5.3730
G01 X6.9402 Y5.3805
G01 X6.9456 Y5.3887
G01 X6.9502 Y5.3973
G01 X6.9540 Y5.4064
G01 X6.9568 Y5.4158
G01 X6.9587 Y5.4254
G01 X6.9597 Y5.4351
G01 X6.9598 Y6.0388
G01 X6.9807 Y6.0672
G01 X7.0060 Y6.1093
G01 X7.0269 Y6.1537
G01 X7.0419 Y6.1952
G01 X7.0448 Y6.2046
G01 X7.0543 Y6.2427
G01 X7.0562 Y6.2523
G01 X7.0626 Y6.2960
G01 X7.0649 Y6.3401
G01 X7.0650 Y8.3161
G01 X7.0761 Y8.3249
G01 X7.1305 Y8.3745
G01 X7.1832 Y8.4325
G01 X7.2300 Y8.4957
G01 X7.2679 Y8.5587
G01 X7.2726 Y8.5674
G01 X7.3019 Y8.6295
G01 X7.3057 Y8.6385
G01 X7.3304 Y8.7080
G01 X7.3484 Y8.7792
G01 X7.3503 Y8.7888
G01 X7.3609 Y8.8616
G01 X7.3647 Y8.9351
G01 X7.3647 Y8.9449
G01 X7.3609 Y9.0184
G01 X7.3494 Y9.0960
G01 X7.3304 Y9.1722
G01 X7.3057 Y9.2415
G01 X7.3019 Y9.2505
G01 X7.2726 Y9.3126
G01 X7.2679 Y9.3213
G01 X7.2300 Y9.3843
G01 X7.1833 Y9.4474
G01 X7.1305 Y9.5055
G01 X7.0761 Y9.5551
G01 X7.0685 Y9.5613
G01 X7.0133 Y9.6022
G01 X7.0052 Y9.6076
G01 X6.9420 Y9.6454
G01 X6.8711 Y9.6789
G01 X6.7972 Y9.7054
G01 X6.7234 Y9.7239
G01 X6.7162 Y9.7253
G01 X6.6434 Y9.7359
G01 X6.5650 Y9.7398
G01 X6.4866 Y9.7359
G01 X6.4090 Y9.7244
G01 X6.3328 Y9.7054
G01 X6.2589 Y9.6789
G01 X6.1880 Y9.6454
G01 X6.1207 Y9.6050
G01 X6.0575 Y9.5582
G01 X5.9995 Y9.5055
G01 X5.9467 Y9.4474
G01 X5.9000 Y9.3843
G01 X5.8596 Y9.3170
G01 X5.8261 Y9.2461
G01 X5.7996 Y9.1722
G01 X5.7811 Y9.0984
G01 X5.7697 Y9.0233
G01 X5.7687 Y9.0135
G01 X5.7652 Y8.9400
G01 X5.7691 Y8.8616
G01 X5.7797 Y8.7888
G01 X5.7816 Y8.7792
G01 X5.7996 Y8.7078
G01 X5.8243 Y8.6385
G01 X5.8281 Y8.6295
G01 X5.8574 Y8.5674
G01 X5.8621 Y8.5587
G01 X5.9000 Y8.4957
G01 X5.9437 Y8.4365
G01 X5.9499 Y8.4289
G01 X5.9995 Y8.3745
G01 X6.0544 Y8.3245
G01 X6.0650 Y8.3161
G01 X6.0650 Y6.5521
G01 X5.9527 Y6.4398
G00 Z2.0000
G00 X5.8948 Y6.5795
G01 F90.70
G01 Z-0.1859
G01 F100.00
G01 X5.3600 Y6.5795
G01 X5.3424 Y6.5789
G01 X5.3307 Y6.5777
G01 X5.3191 Y6.5760
G01 X5.3018 Y6.5723
G01 X5.2905 Y6.5692
G01 X5.2793 Y6.5655
G01 X5.2683 Y6.5613
G01 X5.2576 Y6.5565
G01 X5.2471 Y6.5512
G01 X5.2369 Y6.5454
G01 X5.2221 Y6.5358
G01 X5.2126 Y6.5288
G01 X5.1991 Y6.5175
G01 X5.1906 Y6.5094
G01 X5.1825 Y6.5009
G01 X5.1748 Y6.4919
G01 X5.1642 Y6.4779
G01 X5.1576 Y6.4681
G01 X5.1516 Y6.4581
G01 X5.1435 Y6.4424
G01 X5.1387 Y6.4317
G01 X5.1326 Y6.4151
G01 X5.1292 Y6.4039
G01 X5.1263 Y6.3925
G01 X5.1231 Y6.3751
G01 X5.1216 Y6.3635
G01 X5.1206 Y6.3459
G01 X5.1206 Y5.4341
G01 X5.1211 Y5.4224
G01 X5.1223 Y5.4107
G01 X5.1251 Y5.3933
G01 X5.1277 Y5.3818
G01 X5.1308 Y5.3705
G01 X5.1365 Y5.3538
G01 X5.1435 Y5.3376
G01 X5.1488 Y5.3271
G01 X5.1546 Y5.3169
G01 X5.1608 Y5.3069
G01 X5.1676 Y5.2973
G01 X5.1786 Y5.2836
G01 X5.1865 Y5.2748
G01 X5.1948 Y5.2665
G01 X5.2036 Y5.2586
G01 X5.2126 Y5.2512
G01 X5.2221 Y5.2442
G01 X5.2319 Y5.2376
G01 X5.2419 Y5.2316
G01 X5.2576 Y5.2235
G01 X5.2683 Y5.2187
G01 X5.2793 Y5.2145
G01 X5.2961 Y5.2092
G01 X5.3075 Y5.2063
G01 X5.3191 Y5.2040
G01 X5.3307 Y5.2023
G01 X5.3424 Y5.2011
G01 X5.3541 Y5.2006
G01 X6.8659 Y5.2006
G01 X6.8835 Y5.2016
G01 X6.8951 Y5.2031
G01 X6.9067 Y5.2051
G01 X6.9182 Y5.2077
G01 X6.9295 Y5.2108
G01 X6.9462 Y5.2165
G01 X6.9571 Y5.2210
G01 X6.9677 Y5.2261
G01 X6.9831 Y5.2346
G01 X6.9931 Y5.2408
G01 X7.0027 Y5.2476
G01 X7.0164 Y5.2586
G01 X7.0252 Y5.2665
G01 X7.0335 Y5.2748
G01 X7.0452 Y5.2881
G01 X7.0524 Y5.2973
G01 X7.0592 Y5.3069
G01 X7.0684 Y5.3219
G01 X7.0765 Y5.3376
G01 X7.0813 Y5.3483
G01 X7.0855 Y5.3593
G01 X7.0892 Y5.3705
G01 X7.0923 Y5.3818
G01 X7.0960 Y5.3991
G01 X7.0984 Y5.4165
G01 X7.0992 Y5.4282
G01 X7.0995 Y5.4400
G01 X7.0995 Y5.9936
G01 X7.1263 Y6.0383
G01 X7.1345 Y6.0539
G01 X7.1560 Y6.1002
G01 X7.1735 Y6.1481
G01 X7.1772 Y6.1593
G01 X7.1803 Y6.1706
G01 X7.1924 Y6.2202
G01 X7.2002 Y6.2706
G01 X7.2021 Y6.2882
G01 X7.2047 Y6.3450
G01 X7.2047 Y8.2530
G01 X7.2251 Y8.2716
G01 X7.2334 Y8.2799
G01 X7.2871 Y8.3391
G01 X7.2985 Y8.3532
G01 X7.3429 Y8.4132
G01 X7.3525 Y8.4280
G01 X7.3936 Y8.4971
G01 X7.4282 Y8.5697
G01 X7.4330 Y8.5805
G01 X7.4604 Y8.6561
G01 X7.4642 Y8.6677
G01 X7.4839 Y8.7452
G01 X7.4865 Y8.7567
G01 X7.4885 Y8.7683
G01 X7.5000 Y8.8479
G01 X7.5042 Y8.9282
G01 X7.5045 Y8.9400
G01 X7.5042 Y8.9518
G01 X7.5000 Y9.0321
G01 X7.4885 Y9.1117
G01 X7.4865 Y9.1233
G01 X7.4839 Y9.1348
G01 X7.4641 Y9.2127
G01 X7.4372 Y9.2886
G01 X7.4330 Y9.2995
G01 X7.4282 Y9.3103
G01 X7.3989 Y9.3724
G01 X7.3907 Y9.3880
G01 X7.3525 Y9.4520
G01 X7.3462 Y9.4620
G01 X7.2985 Y9.5268
G01 X7.2913 Y9.5360
G01 X7.2836 Y9.5449
G01 X7.2334 Y9.6001
G01 X7.2208 Y9.6124
G01 X7.1610 Y9.6663
G01 X7.0966 Y9.7144
G01 X7.0870 Y9.7212
G01 X7.0770 Y9.7275
G01 X7.0079 Y9.7686
G01 X6.9353 Y9.8032
G01 X6.9245 Y9.8080
G01 X6.9136 Y9.8122
G01 X6.8489 Y9.8354
G01 X6.8321 Y9.8407
G01 X6.7598 Y9.8589
G01 X6.7483 Y9.8615
G01 X6.7367 Y9.8635
G01 X6.6571 Y9.8750
G01 X6.6454 Y9.8759
G01 X6.5650 Y9.8795
G01 X6.4846 Y9.8759
G01 X6.4729 Y9.8750
G01 X6.3933 Y9.8635
G01 X6.3817 Y9.8615
G01 X6.3702 Y9.8589
G01 X6.2923 Y9.8391
G01 X6.2164 Y9.8122
G01 X6.2055 Y9.8080
G01 X6.1947 Y9.8032
G01 X6.1221 Y9.7686
G01 X6.0530 Y9.7275
G01 X6.0430 Y9.7212
G01 X5.9782 Y9.6735
G01 X5.9688 Y9.6661
G01 X5.9092 Y9.6124
G01 X5.9007 Y9.6043
G01 X5.8464 Y9.5449
G01 X5.8387 Y9.5360
G01 X5.8315 Y9.5268
G01 X5.7838 Y9.4620
G01 X5.7775 Y9.4520
G01 X5.7364 Y9.3829
G01 X5.7018 Y9.3103
G01 X5.6970 Y9.2995
G01 X5.6696 Y9.2239
G01 X5.6643 Y9.2071
G01 X5.6461 Y9.1348
G01 X5.6435 Y9.1233
G01 X5.6314 Y9.0438
G01 X5.6300 Y9.0321
G01 X5.6291 Y9.0204
G01 X5.6255 Y8.9400
G01 X5.6291 Y8.8596
G01 X5.6300 Y8.8479
G01 X5.6314 Y8.8362
G01 X5.6435 Y8.7567
G01 X5.6461 Y8.7452
G01 X5.6643 Y8.6729
G01 X5.6696 Y8.6561
G01 X5.6928 Y8.5914
G01 X5.6970 Y8.5805
G01 X5.7018 Y8.5697
G01 X5.7364 Y8.4971
G01 X5.7422 Y8.4869
G01 X5.7806 Y8.4230
G01 X5.7906 Y8.4084
G01 X5.8315 Y8.3532
G01 X5.8425 Y8.3395
G01 X5.8966 Y8.2799
G01 X5.9049 Y8.2716
G01 X5.9253 Y8.2530
G01 X5.9253 Y6.6100
G01 X5.8948 Y6.5795
G00 Z2.0000
G00 X10.8527 Y6.4398
G01 F90.70
G01 Z-0.1859
G01 F100.00
G01 X10.2600 Y6.4398
G01 X10.2527 Y6.4395
G01 X10.2429 Y6.4383
G01 X10.2310 Y6.4355
G01 X10.2196 Y6.4312
G01 X10.2087 Y6.4256
G01 X10.1986 Y6.4187
G01 X10.1894 Y6.4106
G01 X10.1813 Y6.4014
G01 X10.1744 Y6.3913
G01 X10.1688 Y6.3804
G01 X10.1645 Y6.3690
G01 X10.1626 Y6.3619
G01 X10.1613 Y6.3546
G01 X10.1602 Y6.3424
G01 X10.1602 Y5.4376
G01 X10.1607 Y5.4302
G01 X10.1617 Y5.4229
G01 X10.1645 Y5.4110
G01 X10.1688 Y5.3996
G01 X10.1744 Y5.3887
G01 X10.1813 Y5.3786
G01 X10.1894 Y5.3694
G01 X10.1986 Y5.3613
G01 X10.2087 Y5.3544
G01 X10.2151 Y5.3509
G01 X10.2218 Y5.3478
G01 X10.2334 Y5.3438
G01 X10.2454 Y5.3413
G01 X10.2527 Y5.3405
G01 X10.2600 Y5.3402
G01 X11.7600 Y5.3402
G01 X11.7722 Y5.3410
G01 X11.7842 Y5.3432
G01 X11.7959 Y5.3469
G01 X11.8070 Y5.3520
G01 X11.8175 Y5.3584
G01 X11.8270 Y5.3661
G01 X11.8356 Y5.3748
G01 X11.8430 Y5.3846
G01 X11.8468 Y5.3908
G01 X11.8502 Y5.3973
G01 X11.8548 Y5.4087
G01 X11.8579 Y5.4205
G01 X11.8595 Y5.4327
G01 X11.8598 Y5.4400
G01 X11.8598 Y6.0327
G01 X12.2671 Y6.4400
G01 X30.6289 Y6.4400
G01 X30.0360 Y6.4398
G01 X30.0287 Y6.4395
G01 X30.0165 Y6.4379
G01 X30.0070 Y6.4355
G01 X29.9956 Y6.4312
G01 X29.9847 Y6.4256
G01 X29.9746 Y6.4187
G01 X29.9654 Y6.4106
G01 X29.9589 Y6.4033
G01 X29.9517 Y6.3934
G01 X29.9458 Y6.3827
G01 X29.9429 Y6.3759
G01 X29.9405 Y6.3690
G01 X29.9386 Y6.3619
G01 X29.9373 Y6.3546
G01 X29.9362 Y6.3424
G01 X29.9362 Y5.4400
G01 X29.9365 Y5.4327
G01 X29.9377 Y5.4229
G01 X29.9398 Y5.4134
G01 X29.9420 Y5.4064
G01 X29.9448 Y5.3996
G01 X29.9492 Y5.3908
G01 X29.9544 Y5.3825
G01 X29.9589 Y5.3767
G01 X29.9672 Y5.3677
G01 X29.9746 Y5.3613
G01 X29.9826 Y5.3557
G01 X29.9933 Y5.3498
G01 X30.0024 Y5.3460
G01 X30.0141 Y5.3426
G01 X30.0238 Y5.3410
G01 X30.0336 Y5.3402
G01 X31.5360 Y5.3402
G01 X31.5458 Y5.3407
G01 X31.5531 Y5.3417
G01 X31.5602 Y5.3432
G01 X31.5696 Y5.3460
G01 X31.5787 Y5.3498
G01 X31.5873 Y5.3544
G01 X31.5935 Y5.3584
G01 X31.6012 Y5.3644
G01 X31.6083 Y5.3712
G01 X31.6147 Y5.3786
G01 X31.6203 Y5.3866
G01 X31.6240 Y5.3930
G01 X31.6282 Y5.4018
G01 X31.6308 Y5.4087
G01 X31.6328 Y5.4158
G01 X31.6347 Y5.4254
G01 X31.6355 Y5.4327
G01 X31.6358 Y5.4400
G01 X31.6358 Y6.0327
G01 X32.0431 Y6.4400
G01 X50.4049 Y6.4400
G01 X49.8120 Y6.4398
G01 X49.8047 Y6.4395
G01 X49.7925 Y6.4379
G01 X49.7830 Y6.4355
G01 X49.7716 Y6.4312
G01 X49.7607 Y6.4256
G01 X49.7506 Y6.4187
G01 X49.7414 Y6.4106
G01 X49.7349 Y6.4033
G01 X49.7277 Y6.3934
G01 X49.7218 Y6.3827
G01 X49.7189 Y6.3759
G01 X49.7165 Y6.3690
G01 X49.7137 Y6.3571
G01 X49.7127 Y6.3498
G01 X49.7122 Y6.3424
G01 X49.7122 Y5.4400
G01 X49.7125 Y5.4327
G01 X49.7137 Y5.4229
G01 X49.7158 Y5.4134
G01 X49.7180 Y5.4064
G01 X49.7218 Y5.3973
G01 X49.7252 Y5.3908
G01 X49.7304 Y5.3825
G01 X49.7349 Y5.3767
G01 X49.7414 Y5.3694
G01 X49.7506 Y5.3613
G01 X49.7607 Y5.3544
G01 X49.7693 Y5.3498
G01 X49.7784 Y5.3460
G01 X49.7901 Y5.3426
G01 X49.7998 Y5.3410
G01 X49.8096 Y5.3402
G01 X51.3120 Y5.3402
G01 X51.3218 Y5.3407
G01 X51.3315 Y5.3421
G01 X51.3410 Y5.3445
G01 X51.3479 Y5.3469
G01 X51.3547 Y5.3498
G01 X51.3633 Y5.3544
G01 X51.3715 Y5.3598
G01 X51.3772 Y5.3644
G01 X51.3826 Y5.3694
G01 X51.3891 Y5.3767
G01 X51.3950 Y5.3846
G01 X51.3988 Y5.3908
G01 X51.4032 Y5.3996
G01 X51.4060 Y5.4064
G01 X51.4088 Y5.4158
G01 X51.4107 Y5.4254
G01 X51.4115 Y5.4327
G01 X51.4118 Y5.4400
G01 X51.4118 Y6.0327
G01 X51.8191 Y6.4400
G01 X70.1809 Y6.4400
G01 X69.5880 Y6.4398
G01 X69.5807 Y6.4395
G01 X69.5709 Y6.4383
G01 X69.5590 Y6.4355
G01 X69.5476 Y6.4312
G01 X69.5367 Y6.4256
G01 X69.5266 Y6.4187
G01 X69.5192 Y6.4123
G01 X69.5109 Y6.4033
G01 X69.5037 Y6.3934
G01 X69.5000 Y6.3870
G01 X69.4968 Y6.3804
G01 X69.4925 Y6.3690
G01 X69.4906 Y6.3619
G01 X69.4893 Y6.3546
G01 X69.4882 Y6.3424
G01 X69.4882 Y5.4400
G01 X69.4885 Y5.4327
G01 X69.4897 Y5.4229
G01 X69.4912 Y5.4158
G01 X69.4940 Y5.4064
G01 X69.4978 Y5.3973
G01 X69.5012 Y5.3908
G01 X69.5050 Y5.3846
G01 X69.5109 Y5.3767
G01 X69.5174 Y5.3694
G01 X69.5266 Y5.3613
G01 X69.5346 Y5.3557
G01 X69.5431 Y5.3509
G01 X69.5521 Y5.3469
G01 X69.5638 Y5.3432
G01 X69.5734 Y5.3413
G01 X69.5856 Y5.3402
G01 X71.0880 Y5.3402
G01 X71.0978 Y5.3407
G01 X71.1075 Y5.3421
G01 X71.1146 Y5.3438
G01 X71.1239 Y5.3469
G01 X71.1329 Y5.3509
G01 X71.1393 Y5.3544
G01 X71.1455 Y5.3584
G01 X71.1532 Y5.3644
G01 X71.1603 Y5.3712
G01 X71.1651 Y5.3767
G01 X71.1710 Y5.3846
G01 X71.1748 Y5.3908
G01 X71.1792 Y5.3996
G01 X71.1828 Y5.4087
G01 X71.1848 Y5.4158
G01 X71.1867 Y5.4254
G01 X71.1875 Y5.4327
G01 X71.1878 Y5.4400
G01 X71.1878 Y6.0327
G01 X71.5951 Y6.4400
G01 X89.9569 Y6.4400
G01 X89.3640 Y6.4398
G01 X89.3567 Y6.4395
G01 X89.3469 Y6.4383
G01 X89.3350 Y6.4355
G01 X89.3236 Y6.4312
G01 X89.3127 Y6.4256
G01 X89.3026 Y6.4187
G01 X89.2952 Y6.4123
G01 X89.2869 Y6.4033
G01 X89.2797 Y6.3934
G01 X89.2760 Y6.3870
G01 X89.2728 Y6.3804
G01 X89.2685 Y6.3690
G01 X89.2666 Y6.3619
G01 X89.2653 Y6.3546
G01 X89.2642 Y6.3424
G01 X89.2642 Y5.4400
G01 X89.2645 Y5.4327
G01 X89.2657 Y5.4229
G01 X89.2672 Y5.4158
G01 X89.2700 Y5.4064
G01 X89.2738 Y5.3973
G01 X89.2772 Y5.3908
G01 X89.2810 Y5.3846
G01 X89.2869 Y5.3767
G01 X89.2934 Y5.3694
G01 X89.3026 Y5.3613
G01 X89.3106 Y5.3557
G01 X89.3191 Y5.3509
G01 X89.3281 Y5.3469
G01 X89.3398 Y5.3432
G01 X89.3494 Y5.3413
G01 X89.3616 Y5.3402
G01 X90.8640 Y5.3402
G01 X90.8738 Y5.3407
G01 X90.8835 Y5.3421
G01 X90.8906 Y5.3438
G01 X90.8999 Y5.3469
G01 X90.9089 Y5.3509
G01 X90.9153 Y5.3544
G01 X90.9215 Y5.3584
G01 X90.9292 Y5.3644
G01 X90.9363 Y5.3712
G01 X90.9411 Y5.3767
G01 X90.9470 Y5.3846
G01 X90.9508 Y5.3908
G01 X90.9552 Y5.3996
G01 X90.9588 Y5.4087
G01 X90.9608 Y5.4158
G01 X90.9627 Y5.4254
G01 X90.9635 Y5.4327
G01 X90.9638 Y5.4400
G01 X90.9638 Y6.0327
G01 X91.3711 Y6.4400
G01 X108.6329 Y6.4400
G01 X109.0402 Y6.0327
G01 X109.0402 Y5.4400
G01 X109.0405 Y5.4327
G01 X109.0421 Y5.4205
G01 X109.0452 Y5.4087
G01 X109.0498 Y5.3973
G01 X109.0532 Y5.3908
G01 X109.0570 Y5.3846
G01 X109.0613 Y5.3786
G01 X109.0661 Y5.3730
G01 X109.0748 Y5.3644
G01 X109.0805 Y5.3598
G01 X109.0866 Y5.3557
G01 X109.0973 Y5.3498
G01 X109.1087 Y5.3452
G01 X109.1181 Y5.3426
G01 X109.1278 Y5.3410
G01 X109.1400 Y5.3402
G01 X110.6449 Y5.3403
G01 X110.6546 Y5.3413
G01 X110.6642 Y5.3432
G01 X110.6736 Y5.3460
G01 X110.6827 Y5.3498
G01 X110.6892 Y5.3532
G01 X110.6975 Y5.3584
G01 X110.7052 Y5.3644
G01 X110.7123 Y5.3712
G01 X110.7187 Y5.3786
G01 X110.7230 Y5.3846
G01 X110.7280 Y5.3930
G01 X110.7322 Y5.4018
G01 X110.7355 Y5.4110
G01 X110.7379 Y5.4205
G01 X110.7393 Y5.4302
G01 X110.7398 Y5.4400
G01 X110.7398 Y6.3424
G01 X110.7390 Y6.3522
G01 X110.7374 Y6.3619
G01 X110.7355 Y6.3690
G01 X110.7322 Y6.3782
G01 X110.7280 Y6.3870
G01 X110.7230 Y6.3954
G01 X110.7187 Y6.4014
G01 X110.7123 Y6.4088
G01 X110.7052 Y6.4156
G01 X110.6975 Y6.4216
G01 X110.6892 Y6.4268
G01 X110.6827 Y6.4302
G01 X110.6736 Y6.4340
G01 X110.6642 Y6.4368
G01 X110.6546 Y6.4387
G01 X110.6449 Y6.4397
G01 X110.0473 Y6.4398
G01 X109.1936 Y7.2936
G01 X109.1572 Y7.3265
G01 X109.1178 Y7.3557
G01 X109.0800 Y7.3785
G01 X109.0713 Y7.3832
G01 X109.0358 Y7.4000
G01 X109.0268 Y7.4037
G01 X108.9851 Y7.4185
G01 X108.9375 Y7.4304
G01 X108.8890 Y7.4376
G01 X108.8424 Y7.4400
G01 X17.8600 Y7.4400
G01 X17.8600 Y7.4629
G01 X18.5424 Y8.1453
G01 X18.5565 Y8.1437
G01 X18.6300 Y8.1402
G01 X18.7084 Y8.1441
G01 X18.7860 Y8.1556
G01 X18.8622 Y8.1746
G01 X18.9361 Y8.2011
G01 X19.0070 Y8.2346
G01 X19.0743 Y8.2750
G01 X19.1374 Y8.3217
G01 X19.1955 Y8.3745
G01 X19.2451 Y8.4289
G01 X19.2513 Y8.4365
G01 X19.2950 Y8.4957
G01 X19.3329 Y8.5587
G01 X19.3376 Y8.5674
G01 X19.3689 Y8.6339
G01 X19.3947 Y8.7058
G01 X19.4144 Y8.7840
G01 X19.4253 Y8.8567
G01 X19.4263 Y8.8665
G01 X19.4298 Y8.9400
G01 X19.4263 Y9.0135
G01 X19.4253 Y9.0233
G01 X19.4153 Y9.0912
G01 X19.4134 Y9.1008
G01 X19.3954 Y9.1722
G01 X19.3689 Y9.2461
G01 X19.3354 Y9.3170
G01 X19.2976 Y9.3802
G01 X19.2922 Y9.3883
G01 X19.2513 Y9.4435
G01 X19.2451 Y9.4511
G01 X19.1955 Y9.5055
G01 X19.1411 Y9.5551
G01 X19.1335 Y9.5613
G01 X19.0743 Y9.6050
G01 X19.0070 Y9.6454
G01 X18.9405 Y9.6769
G01 X18.9315 Y9.6807
G01 X18.8622 Y9.7054
G01 X18.7908 Y9.7234
G01 X18.7812 Y9.7253
G01 X18.7084 Y9.7359
G01 X18.6300 Y9.7398
G01 X18.5516 Y9.7359
G01 X18.4788 Y9.7253
G01 X18.4692 Y9.7234
G01 X18.3978 Y9.7054
G01 X18.3285 Y9.6807
G01 X18.3195 Y9.6769
G01 X18.2574 Y9.6476
G01 X18.2487 Y9.6429
G01 X18.1857 Y9.6050
G01 X18.1225 Y9.5582
G01 X18.0645 Y9.5055
G01 X18.0149 Y9.4511
G01 X18.0102 Y9.4455
G01 X17.9650 Y9.3843
G01 X17.9246 Y9.3170
G01 X17.8911 Y9.2461
G01 X17.8646 Y9.1722
G01 X17.8456 Y9.0960
G01 X17.8341 Y9.0184
G01 X17.8302 Y8.9400
G01 X17.8337 Y8.8665
G01 X17.8353 Y8.8524
G01 X17.0047 Y8.0218
G01 X16.9767 Y7.9909
G01 X16.9705 Y7.9833
G01 X16.9443 Y7.9478
G01 X16.9202 Y7.9078
G01 X16.8981 Y7.8613
G01 X16.8815 Y7.8151
G01 X16.8696 Y7.7675
G01 X16.8627 Y7.7214
G01 X16.8600 Y7.6700
G01 X16.8600 Y7.4400
G01 X12.0600 Y7.4400
G01 X12.0110 Y7.4376
G01 X11.9649 Y7.4308
G01 X11.9196 Y7.4198
G01 X11.9102 Y7.4169
G01 X11.8687 Y7.4019
G01 X11.8287 Y7.3832
G01 X11.8200 Y7.3785
G01 X11.7822 Y7.3557
G01 X11.7467 Y7.3295
G01 X11.7391 Y7.3233
G01 X11.7064 Y7.2936
G01 X10.8527 Y6.4398
G00 Z2.0000
G00 X12.0504 Y5.2788
G01 F90.70
G01 Z-0.1859
G01 F100.00
G01 X12.0540 Y5.2675
G01 X12.0605 Y5.2509
G01 X12.0682 Y5.2348
G01 X12.0771 Y5.2193
G01 X12.0837 Y5.2094
G01 X12.0944 Y5.1952
G01 X12.1021 Y5.1861
G01 X12.1145 Y5.1733
G01 X12.1233 Y5.1653
G01 X12.1807 Y5.1157
G01 X12.1900 Y5.1084
G01 X12.1998 Y5.1015
G01 X12.2149 Y5.0922
G01 X12.2254 Y5.0865
G01 X12.2362 Y5.0815
G01 X12.2528 Y5.0749
G01 X12.2641 Y5.0712
G01 X12.2756 Y5.0680
G01 X12.2872 Y5.0655
G01 X12.2989 Y5.0635
G01 X12.3681 Y5.0535
G01 X12.3858 Y5.0517
G01 X12.4036 Y5.0511
G01 X12.4155 Y5.0515
G01 X12.4274 Y5.0524
G01 X12.4450 Y5.0550
G01 X12.4625 Y5.0588
G01 X12.4739 Y5.0621
G01 X12.4907 Y5.0681
G01 X12.5016 Y5.0727
G01 X12.5752 Y5.1066
G01 X12.5857 Y5.1124
G01 X12.5959 Y5.1186
G01 X12.6058 Y5.1254
G01 X12.6153 Y5.1326
G01 X12.6245 Y5.1403
G01 X12.6415 Y5.1563
G01 X13.1477 Y5.6625
G01 X13.1553 Y5.6710
G01 X13.1626 Y5.6798
G01 X13.1727 Y5.6936
G01 X13.1788 Y5.7032
G01 X13.2208 Y5.7796
G01 X13.2260 Y5.7903
G01 X13.2306 Y5.8013
G01 X13.2347 Y5.8124
G01 X13.2382 Y5.8238
G01 X13.2412 Y5.8353
G01 X13.2436 Y5.8470
G01 X13.2454 Y5.8587
G01 X13.2466 Y5.8706
G01 X13.2473 Y5.8884
G01 X13.2467 Y5.9062
G01 X13.2412 Y5.9818
G01 X13.2398 Y5.9937
G01 X13.2378 Y6.0054
G01 X13.2337 Y6.0227
G01 X13.2283 Y6.0397
G01 X13.2240 Y6.0508
G01 X13.2191 Y6.0617
G01 X13.2109 Y6.0775
G01 X13.2047 Y6.0877
G01 X13.1981 Y6.0976
G01 X13.1491 Y6.1630
G01 X13.1415 Y6.1722
G01 X13.1293 Y6.1852
G01 X13.1206 Y6.1933
G01 X13.1115 Y6.2010
G01 X13.0972 Y6.2117
G01 X13.0873 Y6.2182
G01 X13.0770 Y6.2243
G01 X13.0665 Y6.2298
G01 X13.0557 Y6.2348
G01 X13.0447 Y6.2392
G01 X12.9792 Y6.2636
G01 X12.9680 Y6.2675
G01 X12.9509 Y6.2722
G01 X12.9393 Y6.2747
G01 X12.9276 Y6.2765
G01 X12.9099 Y6.2783
G01 X12.8866 Y6.2790
G01 X12.4844 Y6.2790
G01 X12.4673 Y6.2784
G01 X12.4559 Y6.2773
G01 X12.4390 Y6.2747
G01 X12.4224 Y6.2709
G01 X12.3498 Y6.2496
G01 X12.3331 Y6.2440
G01 X12.3222 Y6.2396
G01 X12.3115 Y6.2347
G01 X12.2960 Y6.2263
G01 X12.2812 Y6.2169
G01 X12.2670 Y6.2063
G01 X12.2415 Y6.1856
G01 X12.2273 Y6.1725
G01 X12.1235 Y6.0686
G01 X12.1158 Y6.0602
G01 X12.1051 Y6.0469
G01 X12.0953 Y6.0328
G01 X12.0894 Y6.0231
G01 X12.0531 Y5.9568
G01 X12.0477 Y5.9463
G01 X12.0429 Y5.9356
G01 X12.0366 Y5.9192
G01 X12.0331 Y5.9079
G01 X12.0301 Y5.8966
G01 X12.0277 Y5.8851
G01 X12.0259 Y5.8734
G01 X12.0218 Y5.8349
G01 X12.0211 Y5.8221
G01 X12.0210 Y5.4077
G01 X12.0216 Y5.3963
G01 X12.0227 Y5.3849
G01 X12.0243 Y5.3736
G01 X12.0265 Y5.3624
G01 X12.0307 Y5.3459
G01 X12.0504 Y5.2788
G00 Z2.0000
G00 X12.1844 Y5.3182
G01 F90.70
G01 Z-0.1859
G01 F100.00
G01 X12.1868 Y5.3112
G01 X12.1897 Y5.3043
G01 X12.1956 Y5.2934
G01 X12.1997 Y5.2873
G01 X12.2044 Y5.2814
G01 X12.2130 Y5.2725
G01 X12.2676 Y5.2251
G01 X12.2754 Y5.2190
G01 X12.2838 Y5.2137
G01 X12.2927 Y5.2093
G01 X12.3019 Y5.2057
G01 X12.3115 Y5.2031
G01 X12.3188 Y5.2018
G01 X12.3929 Y5.1913
G01 X12.4052 Y5.1909
G01 X12.4127 Y5.1914
G01 X12.4200 Y5.1924
G01 X12.4297 Y5.1947
G01 X12.4413 Y5.1988
G01 X12.5072 Y5.2289
G01 X12.5135 Y5.2321
G01 X12.5200 Y5.2359
G01 X12.5261 Y5.2402
G01 X12.5319 Y5.2449
G01 X12.5427 Y5.2551
G01 X13.0449 Y5.7572
G01 X13.0528 Y5.7661
G01 X13.0595 Y5.7759
G01 X13.0966 Y5.8435
G01 X13.1015 Y5.8548
G01 X13.1051 Y5.8667
G01 X13.1071 Y5.8789
G01 X13.1076 Y5.8913
G01 X13.1024 Y5.9660
G01 X13.1007 Y5.9782
G01 X13.0983 Y5.9878
G01 X13.0950 Y5.9972
G01 X13.0895 Y6.0083
G01 X13.0827 Y6.0186
G01 X13.0408 Y6.0746
G01 X13.0345 Y6.0822
G01 X13.0275 Y6.0892
G01 X13.0177 Y6.0968
G01 X13.0093 Y6.1021
G01 X13.0004 Y6.1064
G01 X12.9280 Y6.1335
G01 X12.9186 Y6.1363
G01 X12.9064 Y6.1384
G01 X12.8866 Y6.1393
G01 X12.4844 Y6.1393
G01 X12.4772 Y6.1390
G01 X12.4702 Y6.1383
G01 X12.4585 Y6.1359
G01 X12.3892 Y6.1156
G01 X12.3800 Y6.1124
G01 X12.3689 Y6.1071
G01 X12.3606 Y6.1019
G01 X12.3300 Y6.0774
G01 X12.2262 Y5.9739
G01 X12.2214 Y5.9687
G01 X12.2169 Y5.9631
G01 X12.2129 Y5.9573
G01 X12.2092 Y5.9511
G01 X12.1746 Y5.8877
G01 X12.1715 Y5.8810
G01 X12.1689 Y5.8741
G01 X12.1667 Y5.8671
G01 X12.1652 Y5.8599
G01 X12.1613 Y5.8263
G01 X12.1607 Y5.8156
G01 X12.1607 Y5.4110
G01 X12.1617 Y5.3992
G01 X12.1641 Y5.3875
G01 X12.1844 Y5.3182
G00 Z2.0000
G00 X13.3703 Y6.0526
G01 F90.70
G01 Z-0.1859
G01 F100.00
G01 X13.4783 Y6.1606
G01 X13.3239 Y6.1606
G01 X13.3322 Y6.1468
G01 X13.3412 Y6.1302
G01 X13.3530 Y6.1045
G01 X13.3628 Y6.0780
G01 X13.3703 Y6.0526
G00 Z2.0000
G00 X13.7280 Y7.7194
G01 F90.70
G01 Z-0.1859
G01 F100.00
G01 X14.6452 Y7.7194
G01 X14.6389 Y7.7294
G01 X14.6295 Y7.7457
G01 X14.6170 Y7.7711
G01 X14.6064 Y7.7972
G01 X14.5978 Y7.8241
G01 X14.5911 Y7.8516
G01 X14.5866 Y7.8795
G01 X14.5841 Y7.9076
G01 X14.5833 Y7.9372
G01 X14.5160 Y7.9131
G01 X14.4983 Y7.9072
G01 X14.4803 Y7.9023
G01 X14.4137 Y7.8856
G01 X14.3955 Y7.8815
G01 X14.3772 Y7.8783
G01 X14.3093 Y7.8682
G01 X14.2908 Y7.8660
G01 X14.2722 Y7.8646
G01 X14.2036 Y7.8612
G01 X14.1850 Y7.8608
G01 X14.1664 Y7.8612
G01 X14.0978 Y7.8646
G01 X14.0792 Y7.8660
G01 X14.0607 Y7.8682
G01 X13.9928 Y7.8783
G01 X13.9745 Y7.8815
G01 X13.9563 Y7.8856
G01 X13.8897 Y7.9023
G01 X13.8724 Y7.9070
G01 X13.8555 Y7.9126
G01 X13.7883 Y7.9366
G01 X13.7758 Y7.8497
G01 X13.7722 Y7.8312
G01 X13.7676 Y7.8129
G01 X13.7622 Y7.7949
G01 X13.7524 Y7.7684
G01 X13.7407 Y7.7427
G01 X13.7280 Y7.7194
G00 Z2.0000
G00 X14.7234 Y7.9205
G01 F90.70
G01 Z-0.1859
G01 F100.00
G01 X14.7240 Y7.9087
G01 X14.7260 Y7.8909
G01 X14.7281 Y7.8792
G01 X14.7307 Y7.8676
G01 X14.7340 Y7.8562
G01 X14.7377 Y7.8449
G01 X14.7421 Y7.8338
G01 X14.7469 Y7.8230
G01 X14.7553 Y7.8072
G01 X14.7614 Y7.7970
G01 X14.8040 Y7.7342
G01 X14.8109 Y7.7246
G01 X14.8183 Y7.7152
G01 X14.8302 Y7.7020
G01 X14.8387 Y7.6937
G01 X14.8476 Y7.6858
G01 X14.8617 Y7.6748
G01 X14.8715 Y7.6680
G01 X14.8816 Y7.6618
G01 X14.8973 Y7.6534
G01 X14.9082 Y7.6485
G01 X14.9834 Y7.6167
G01 X14.9945 Y7.6129
G01 X15.0058 Y7.6096
G01 X15.0173 Y7.6069
G01 X15.0289 Y7.6048
G01 X15.0465 Y7.6027
G01 X15.0669 Y7.6014
G01 X15.0809 Y7.6010
G01 X16.3840 Y7.6010
G01 X16.4010 Y7.6021
G01 X16.4124 Y7.6034
G01 X16.4292 Y7.6065
G01 X16.4403 Y7.6091
G01 X16.5185 Y7.6321
G01 X16.5353 Y7.6382
G01 X16.5515 Y7.6455
G01 X16.5672 Y7.6540
G01 X16.5822 Y7.6637
G01 X16.5918 Y7.6707
G01 X16.6010 Y7.6782
G01 X16.6141 Y7.6903
G01 X16.6263 Y7.7033
G01 X16.6759 Y7.7606
G01 X16.6832 Y7.7699
G01 X16.6932 Y7.7845
G01 X16.6992 Y7.7945
G01 X16.7048 Y7.8049
G01 X16.7099 Y7.8156
G01 X16.7144 Y7.8264
G01 X16.7234 Y7.8514
G01 X16.7276 Y7.8640
G01 X16.7400 Y7.9098
G01 X16.7520 Y7.9389
G01 X16.7780 Y7.9842
G01 X16.8034 Y8.0335
G01 X16.8212 Y8.0594
G01 X16.8519 Y8.0936
G01 X16.8681 Y8.1129
G01 X16.8857 Y8.1310
G01 X16.9164 Y8.1651
G01 X16.9405 Y8.1858
G01 X16.9496 Y8.1944
G01 X17.5690 Y8.8138
G01 X17.5806 Y8.8263
G01 X17.5879 Y8.8351
G01 X17.5947 Y8.8442
G01 X17.6011 Y8.8536
G01 X17.6098 Y8.8683
G01 X17.6433 Y8.9297
G01 X17.6513 Y8.9456
G01 X17.6559 Y8.9565
G01 X17.6618 Y8.9733
G01 X17.6665 Y8.9904
G01 X17.6688 Y9.0020
G01 X17.6731 Y9.0300
G01 X17.6813 Y9.1174
G01 X17.6850 Y9.1326
G01 X17.6871 Y9.1438
G01 X17.6886 Y9.1551
G01 X17.6896 Y9.1665
G01 X17.6901 Y9.1836
G01 X17.6894 Y9.2594
G01 X17.6887 Y9.2713
G01 X17.6874 Y9.2831
G01 X17.6856 Y9.2948
G01 X17.6831 Y9.3065
G01 X17.6784 Y9.3237
G01 X17.6745 Y9.3349
G01 X17.6701 Y9.3460
G01 X17.6651 Y9.3568
G01 X17.6567 Y9.3725
G01 X17.6504 Y9.3826
G01 X17.6121 Y9.4411
G01 X17.6018 Y9.4556
G01 X17.5904 Y9.4694
G01 X17.5781 Y9.4822
G01 X17.5648 Y9.4941
G01 X17.5554 Y9.5015
G01 X17.5458 Y9.5084
G01 X17.5357 Y9.5148
G01 X17.5201 Y9.5235
G01 X17.5094 Y9.5286
G01 X17.4401 Y9.5595
G01 X17.4231 Y9.5658
G01 X17.4057 Y9.5708
G01 X17.3880 Y9.5745
G01 X17.3700 Y9.5769
G01 X17.3420 Y9.5788
G01 X17.3313 Y9.5790
G01 X15.9037 Y9.5790
G01 X15.8923 Y9.5784
G01 X15.8753 Y9.5766
G01 X15.8640 Y9.5747
G01 X15.8474 Y9.5709
G01 X15.7692 Y9.5479
G01 X15.7526 Y9.5419
G01 X15.7365 Y9.5347
G01 X15.7261 Y9.5293
G01 X15.7160 Y9.5233
G01 X15.7014 Y9.5135
G01 X15.6714 Y9.4897
G01 X15.6569 Y9.4770
G01 X15.2460 Y9.0662
G01 X15.2381 Y9.0580
G01 X15.2307 Y9.0494
G01 X15.2203 Y9.0358
G01 X15.2139 Y9.0264
G01 X15.2052 Y9.0117
G01 X15.1717 Y8.9503
G01 X15.1662 Y8.9398
G01 X15.1613 Y8.9290
G01 X15.1570 Y8.9180
G01 X15.1515 Y8.9011
G01 X15.1485 Y8.8896
G01 X15.1462 Y8.8780
G01 X15.1419 Y8.8500
G01 X15.1337 Y8.7627
G01 X15.0849 Y8.5914
G01 X15.0055 Y8.4319
G01 X14.8982 Y8.2898
G01 X14.8319 Y8.2293
G01 X14.8200 Y8.2170
G01 X14.8089 Y8.2039
G01 X14.8021 Y8.1948
G01 X14.7957 Y8.1853
G01 X14.7564 Y8.1208
G01 X14.7505 Y8.1105
G01 X14.7426 Y8.0945
G01 X14.7380 Y8.0835
G01 X14.7340 Y8.0723
G01 X14.7305 Y8.0610
G01 X14.7275 Y8.0494
G01 X14.7243 Y8.0319
G01 X14.7223 Y8.0142
G01 X14.7216 Y7.9963
G01 X14.7234 Y7.9205
G00 Z2.0000
G00 X14.8631 Y7.9241
G01 F90.70
G01 Z-0.1859
G01 F100.00
G01 X14.8639 Y7.9142
G01 X14.8662 Y7.9020
G01 X14.8699 Y7.8902
G01 X14.8752 Y7.8790
G01 X14.8803 Y7.8705
G01 X14.9210 Y7.8107
G01 X14.9271 Y7.8029
G01 X14.9340 Y7.7958
G01 X14.9416 Y7.7894
G01 X14.9477 Y7.7851
G01 X14.9541 Y7.7813
G01 X14.9630 Y7.7770
G01 X15.0318 Y7.7477
G01 X15.0436 Y7.7442
G01 X15.0508 Y7.7428
G01 X15.0581 Y7.7419
G01 X15.0809 Y7.7407
G01 X16.3806 Y7.7407
G01 X16.3925 Y7.7417
G01 X16.4041 Y7.7441
G01 X16.4758 Y7.7652
G01 X16.4851 Y7.7686
G01 X16.4918 Y7.7719
G01 X16.4982 Y7.7756
G01 X16.5063 Y7.7812
G01 X16.5121 Y7.7860
G01 X16.5174 Y7.7912
G01 X16.5681 Y7.8495
G01 X16.5725 Y7.8554
G01 X16.5778 Y7.8636
G01 X16.5812 Y7.8702
G01 X16.5841 Y7.8769
G01 X16.5929 Y7.9013
G01 X16.6084 Y7.9585
G01 X16.6122 Y7.9664
G01 X16.6207 Y7.9868
G01 X16.6245 Y7.9975
G01 X16.6552 Y8.0508
G01 X16.6848 Y8.1085
G01 X16.6902 Y8.1154
G01 X16.7027 Y8.1335
G01 X16.7086 Y8.1432
G01 X16.7481 Y8.1871
G01 X16.7641 Y8.2065
G01 X16.7801 Y8.2226
G01 X16.8213 Y8.2683
G01 X16.8303 Y8.2752
G01 X16.8508 Y8.2932
G01 X17.4702 Y8.9126
G01 X17.4766 Y8.9196
G01 X17.4823 Y8.9272
G01 X17.4872 Y8.9353
G01 X17.5240 Y9.0032
G01 X17.5268 Y9.0101
G01 X17.5298 Y9.0195
G01 X17.5313 Y9.0268
G01 X17.5340 Y9.0441
G01 X17.5434 Y9.1431
G01 X17.5472 Y9.1565
G01 X17.5487 Y9.1635
G01 X17.5500 Y9.1729
G01 X17.5504 Y9.1800
G01 X17.5498 Y9.2523
G01 X17.5492 Y9.2622
G01 X17.5481 Y9.2695
G01 X17.5459 Y9.2792
G01 X17.5426 Y9.2885
G01 X17.5385 Y9.2975
G01 X17.5335 Y9.3061
G01 X17.4924 Y9.3686
G01 X17.4878 Y9.3745
G01 X17.4828 Y9.3800
G01 X17.4755 Y9.3867
G01 X17.4696 Y9.3912
G01 X17.4613 Y9.3965
G01 X17.4547 Y9.4000
G01 X17.3886 Y9.4295
G01 X17.3816 Y9.4323
G01 X17.3720 Y9.4352
G01 X17.3621 Y9.4372
G01 X17.3380 Y9.4391
G01 X15.9070 Y9.4393
G01 X15.8952 Y9.4383
G01 X15.8835 Y9.4359
G01 X15.8119 Y9.4149
G01 X15.8027 Y9.4114
G01 X15.7961 Y9.4082
G01 X15.7897 Y9.4046
G01 X15.7816 Y9.3990
G01 X15.7570 Y9.3792
G01 X15.7511 Y9.3738
G01 X15.3448 Y8.9674
G01 X15.3384 Y8.9604
G01 X15.3314 Y8.9508
G01 X15.2931 Y8.8812
G01 X15.2891 Y8.8722
G01 X15.2859 Y8.8628
G01 X15.2837 Y8.8532
G01 X15.2805 Y8.8329
G01 X15.2716 Y8.7369
G01 X15.2158 Y8.5407
G01 X15.1248 Y8.3581
G01 X15.0019 Y8.1953
G01 X14.9284 Y8.1283
G01 X14.9235 Y8.1232
G01 X14.9189 Y8.1177
G01 X14.9121 Y8.1080
G01 X14.8746 Y8.0461
G01 X14.8701 Y8.0373
G01 X14.8665 Y8.0281
G01 X14.8633 Y8.0161
G01 X14.8618 Y8.0063
G01 X14.8614 Y7.9939
G01 X14.8631 Y7.9241
G00 Z2.0000
G00 X13.5637 Y9.4435
G01 F90.70
G01 Z-0.1859
G01 F100.00
G01 X13.5200 Y9.3843
G01 X13.4821 Y9.3213
G01 X13.4774 Y9.3126
G01 X13.4461 Y9.2461
G01 X13.4196 Y9.1722
G01 X13.4016 Y9.1008
G01 X13.3997 Y9.0912
G01 X13.3891 Y9.0184
G01 X13.3852 Y8.9400
G01 X13.3887 Y8.8665
G01 X13.3897 Y8.8567
G01 X13.4006 Y8.7840
G01 X13.4183 Y8.7126
G01 X13.4212 Y8.7032
G01 X13.4461 Y8.6339
G01 X13.4774 Y8.5674
G01 X13.4821 Y8.5587
G01 X13.5200 Y8.4957
G01 X13.5637 Y8.4365
G01 X13.5699 Y8.4289
G01 X13.6195 Y8.3745
G01 X13.6744 Y8.3245
G01 X13.6815 Y8.3187
G01 X13.7367 Y8.2778
G01 X13.7448 Y8.2724
G01 X13.8080 Y8.2346
G01 X13.8745 Y8.2031
G01 X13.8835 Y8.1993
G01 X13.9530 Y8.1746
G01 X14.0290 Y8.1556
G01 X14.1017 Y8.1447
G01 X14.1115 Y8.1437
G01 X14.1850 Y8.1402
G01 X14.2634 Y8.1441
G01 X14.3410 Y8.1556
G01 X14.4172 Y8.1746
G01 X14.4911 Y8.2011
G01 X14.5620 Y8.2346
G01 X14.6293 Y8.2750
G01 X14.6924 Y8.3217
G01 X14.7470 Y8.3711
G01 X14.7523 Y8.3762
G01 X14.8032 Y8.4325
G01 X14.8472 Y8.4917
G01 X14.8526 Y8.4998
G01 X14.8904 Y8.5630
G01 X14.9219 Y8.6295
G01 X14.9257 Y8.6385
G01 X14.9490 Y8.7036
G01 X14.9517 Y8.7126
G01 X14.9694 Y8.7840
G01 X14.9809 Y8.8616
G01 X14.9848 Y8.9400
G01 X14.9813 Y9.0135
G01 X14.9797 Y9.0276
G01 X15.6921 Y9.7400
G01 X60.8250 Y9.7400
G01 X60.8740 Y9.7424
G01 X60.9177 Y9.7488
G01 X60.9273 Y9.7507
G01 X60.9701 Y9.7615
G01 X61.0163 Y9.7781
G01 X61.0607 Y9.7990
G01 X61.0986 Y9.8216
G01 X61.1068 Y9.8271
G01 X61.1383 Y9.8505
G01 X61.1459 Y9.8567
G01 X61.1786 Y9.8864
G01 X62.5623 Y11.2702
G01 X63.2950 Y11.2702
G01 X63.3023 Y11.2705
G01 X63.3145 Y11.2721
G01 X63.3263 Y11.2752
G01 X63.3332 Y11.2778
G01 X63.3399 Y11.2809
G01 X63.3504 Y11.2870
G01 X63.3564 Y11.2913
G01 X63.3620 Y11.2961
G01 X63.3706 Y11.3048
G01 X63.3780 Y11.3146
G01 X63.3841 Y11.3251
G01 X63.3881 Y11.3341
G01 X63.3918 Y11.3458
G01 X63.3940 Y11.3578
G01 X63.3948 Y11.3700
G01 X63.3948 Y14.8700
G01 X63.3943 Y14.8798
G01 X63.3933 Y14.8871
G01 X63.3912 Y14.8966
G01 X63.3881 Y14.9059
G01 X63.3841 Y14.9149
G01 X63.3793 Y14.9234
G01 X63.3752 Y14.9295
G01 X63.3689 Y14.9370
G01 X63.3620 Y14.9439
G01 X63.3564 Y14.9487
G01 X63.3484 Y14.9543
G01 X63.3420 Y14.9580
G01 X63.3332 Y14.9622
G01 X63.3240 Y14.9655
G01 X63.3145 Y14.9679
G01 X63.3048 Y14.9693
G01 X63.2974 Y14.9698
G01 X61.5926 Y14.9698
G01 X61.5804 Y14.9687
G01 X61.5684 Y14.9662
G01 X61.5568 Y14.9622
G01 X61.5458 Y14.9568
G01 X61.5355 Y14.9502
G01 X61.5280 Y14.9439
G01 X61.5194 Y14.9352
G01 X61.5120 Y14.9254
G01 X61.5082 Y14.9192
G01 X61.5048 Y14.9127
G01 X61.5019 Y14.9059
G01 X61.4995 Y14.8990
G01 X61.4976 Y14.8919
G01 X61.4963 Y14.8846
G01 X61.4955 Y14.8773
G01 X61.4952 Y14.8700
G01 X61.4952 Y11.6173
G01 X60.6179 Y10.7400
G01 X15.4826 Y10.7400
G01 X15.4360 Y10.7376
G01 X15.3875 Y10.7304
G01 X15.3399 Y10.7185
G01 X15.2982 Y10.7037
G01 X15.2892 Y10.7000
G01 X15.2537 Y10.6832
G01 X15.2450 Y10.6785
G01 X15.2072 Y10.6557
G01 X15.1678 Y10.6265
G01 X15.1314 Y10.5936
G01 X14.2726 Y9.7347
G01 X14.2585 Y9.7363
G01 X14.1850 Y9.7398
G01 X14.1115 Y9.7363
G01 X14.1017 Y9.7353
G01 X14.0290 Y9.7244
G01 X13.9576 Y9.7067
G01 X13.9482 Y9.7038
G01 X13.8789 Y9.6789
G01 X13.8124 Y9.6476
G01 X13.8037 Y9.6429
G01 X13.7407 Y9.6050
G01 X13.6813 Y9.5611
G01 X13.6739 Y9.5551
G01 X13.6195 Y9.5055
G01 X13.5699 Y9.4511
G01 X13.5637 Y9.4435
G00 Z2.0000
G00 X11.8061 Y14.0603
G01 F90.70
G01 Z-0.1859
G01 F100.00
G01 X11.8060 Y14.0479
G01 X11.8074 Y14.0356
G01 X11.8103 Y14.0235
G01 X11.8147 Y14.0120
G01 X11.8180 Y14.0053
G01 X11.8540 Y13.9397
G01 X11.8581 Y13.9335
G01 X11.8627 Y13.9276
G01 X11.8712 Y13.9187
G01 X11.8808 Y13.9108
G01 X11.8891 Y13.9054
G01 X11.9526 Y13.8707
G01 X11.9614 Y13.8665
G01 X11.9729 Y13.8624
G01 X11.9825 Y13.8602
G01 X12.0161 Y13.8563
G01 X12.0241 Y13.8557
G01 X25.9155 Y13.8557
G01 X25.9226 Y13.8560
G01 X25.9297 Y13.8567
G01 X25.9367 Y13.8580
G01 X25.9436 Y13.8597
G01 X26.0107 Y13.8794
G01 X26.0177 Y13.8818
G01 X26.0290 Y13.8869
G01 X26.0375 Y13.8919
G01 X26.0455 Y13.8978
G01 X26.0529 Y13.9044
G01 X26.0580 Y13.9098
G01 X26.1053 Y13.9645
G01 X26.1113 Y13.9725
G01 X26.1164 Y13.9811
G01 X26.1215 Y13.9924
G01 X26.1253 Y14.0043
G01 X26.1370 Y14.0583
G01 X26.1386 Y14.0677
G01 X26.1393 Y14.0795
G01 X26.1393 Y15.6975
G01 X26.1438 Y15.7394
G01 X26.1847 Y15.8490
G01 X26.2537 Y15.9412
G01 X26.3460 Y16.0103
G01 X26.4556 Y16.0512
G01 X26.4975 Y16.0557
G01 X29.7825 Y16.0557
G01 X29.8244 Y16.0512
G01 X29.9340 Y16.0103
G01 X30.0263 Y15.9413
G01 X30.0953 Y15.8490
G01 X30.1362 Y15.7394
G01 X30.1407 Y15.6975
G01 X30.1407 Y14.0795
G01 X30.1412 Y14.0700
G01 X30.1425 Y14.0606
G01 X30.1447 Y14.0514
G01 X30.1644 Y13.9843
G01 X30.1677 Y13.9750
G01 X30.1719 Y13.9660
G01 X30.1783 Y13.9554
G01 X30.1844 Y13.9476
G01 X30.1930 Y13.9387
G01 X30.2495 Y13.8897
G01 X30.2596 Y13.8824
G01 X30.2683 Y13.8775
G01 X30.2798 Y13.8726
G01 X30.2893 Y13.8697
G01 X30.3456 Y13.8575
G01 X30.3550 Y13.8562
G01 X30.3621 Y13.8557
G01 X55.3406 Y13.8557
G01 X55.3501 Y13.8562
G01 X55.3595 Y13.8575
G01 X55.3688 Y13.8597
G01 X55.4358 Y13.8794
G01 X55.4473 Y13.8836
G01 X55.4561 Y13.8879
G01 X55.4664 Y13.8945
G01 X55.4909 Y13.9141
G01 X55.4970 Y13.9194
G01 X57.5568 Y15.9792
G01 X57.5748 Y15.9997
G01 X57.5817 Y16.0087
G01 X57.6255 Y16.0482
G01 X57.6435 Y16.0659
G01 X57.6629 Y16.0819
G01 X57.7068 Y16.1213
G01 X57.7143 Y16.1258
G01 X57.7325 Y16.1383
G01 X57.7415 Y16.1452
G01 X57.7992 Y16.1747
G01 X57.8525 Y16.2055
G01 X57.8632 Y16.2093
G01 X57.8840 Y16.2180
G01 X57.8915 Y16.2216
G01 X57.9510 Y16.2376
G01 X58.0126 Y16.2575
G01 X58.0239 Y16.2590
G01 X58.0456 Y16.2631
G01 X58.0541 Y16.2652
G01 X58.1129 Y16.2683
G01 X58.1380 Y16.2707
G01 X58.1633 Y16.2709
G01 X58.2221 Y16.2740
G01 X58.2334 Y16.2725
G01 X58.2606 Y16.2707
G01 X74.8165 Y16.2707
G01 X74.8437 Y16.2725
G01 X74.8549 Y16.2740
G01 X74.9138 Y16.2709
G01 X74.9390 Y16.2707
G01 X74.9641 Y16.2683
G01 X75.0230 Y16.2652
G01 X75.0315 Y16.2631
G01 X75.0532 Y16.2590
G01 X75.0645 Y16.2575
G01 X75.1261 Y16.2376
G01 X75.1856 Y16.2216
G01 X75.1935 Y16.2178
G01 X75.2138 Y16.2093
G01 X75.2246 Y16.2055
G01 X75.2807 Y16.1732
G01 X75.3356 Y16.1452
G01 X75.3446 Y16.1383
G01 X75.3628 Y16.1258
G01 X75.3703 Y16.1213
G01 X75.4141 Y16.0819
G01 X75.4336 Y16.0659
G01 X75.4497 Y16.0499
G01 X75.4954 Y16.0087
G01 X75.5023 Y15.9997
G01 X75.5185 Y15.9810
G01 X75.6542 Y15.8453
G01 X75.6747 Y15.8273
G01 X75.6837 Y15.8204
G01 X75.7232 Y15.7766
G01 X75.7409 Y15.7586
G01 X75.7552 Y15.7411
G01 X75.7963 Y15.6953
G01 X75.8023 Y15.6856
G01 X75.8148 Y15.6674
G01 X75.8202 Y15.6606
G01 X75.8482 Y15.6057
G01 X75.8805 Y15.5495
G01 X75.8843 Y15.5388
G01 X75.8930 Y15.5181
G01 X75.8966 Y15.5106
G01 X75.9135 Y15.4481
G01 X75.9252 Y15.4122
G01 X75.9278 Y15.4055
G01 X75.9309 Y15.3989
G01 X75.9370 Y15.3886
G01 X75.9765 Y15.3309
G01 X75.9808 Y15.3251
G01 X75.9873 Y15.3178
G01 X75.9963 Y15.3096
G01 X76.0062 Y15.3025
G01 X76.0125 Y15.2989
G01 X76.0331 Y15.2887
G01 X76.0428 Y15.2819
G01 X76.0536 Y15.2761
G01 X76.0603 Y15.2733
G01 X76.1890 Y15.2253
G01 X76.2828 Y15.1551
G01 X76.2908 Y15.1500
G01 X76.2992 Y15.1456
G01 X76.3713 Y15.1185
G01 X76.3783 Y15.1162
G01 X76.3855 Y15.1144
G01 X76.3953 Y15.1128
G01 X76.4027 Y15.1123
G01 X76.4102 Y15.1123
G01 X76.4200 Y15.1132
G01 X76.4274 Y15.1145
G01 X76.4956 Y15.1293
G01 X76.5048 Y15.1318
G01 X76.5137 Y15.1351
G01 X76.5223 Y15.1393
G01 X76.5452 Y15.1538
G01 X76.6380 Y15.2231
G01 X76.6471 Y15.2307
G01 X76.6521 Y15.2358
G01 X76.6581 Y15.2432
G01 X76.7000 Y15.2991
G01 X76.7042 Y15.3052
G01 X76.7091 Y15.3138
G01 X76.7131 Y15.3229
G01 X76.7163 Y15.3323
G01 X76.7184 Y15.3419
G01 X76.7196 Y15.3518
G01 X76.7246 Y15.4215
G01 X76.7248 Y15.4314
G01 X76.7241 Y15.4413
G01 X76.7223 Y15.4510
G01 X76.7188 Y15.4629
G01 X76.7149 Y15.4720
G01 X76.6769 Y15.5417
G01 X76.6701 Y15.5515
G01 X76.6621 Y15.5605
G01 X64.8289 Y27.3938
G01 X64.8200 Y27.4016
G01 X64.8103 Y27.4084
G01 X64.7448 Y27.4443
G01 X64.7383 Y27.4475
G01 X64.7315 Y27.4503
G01 X64.7245 Y27.4526
G01 X64.7173 Y27.4544
G01 X64.7101 Y27.4556
G01 X64.6813 Y27.4587
G01 X64.6706 Y27.4593
G01 X30.2353 Y27.4593
G01 X30.2281 Y27.4590
G01 X30.2187 Y27.4579
G01 X30.2094 Y27.4559
G01 X30.1401 Y27.4356
G01 X30.1331 Y27.4332
G01 X30.1218 Y27.4281
G01 X30.1132 Y27.4231
G01 X30.1033 Y27.4156
G01 X30.0944 Y27.4070
G01 X30.0439 Y27.3485
G01 X30.0369 Y27.3383
G01 X30.0312 Y27.3273
G01 X30.0269 Y27.3157
G01 X30.0241 Y27.3037
G01 X30.0130 Y27.2248
G01 X30.0127 Y27.2175
G01 X30.0132 Y27.2078
G01 X30.0147 Y27.1982
G01 X30.0170 Y27.1888
G01 X30.0203 Y27.1797
G01 X30.0458 Y27.1184
G01 X30.0493 Y27.1118
G01 X30.0546 Y27.1034
G01 X30.0953 Y27.0490
G01 X30.1362 Y26.9394
G01 X30.1407 Y26.8975
G01 X30.1407 Y24.8125
G01 X30.1362 Y24.7706
G01 X30.0953 Y24.6610
G01 X30.0263 Y24.5687
G01 X29.9340 Y24.4997
G01 X29.8244 Y24.4588
G01 X29.7825 Y24.4543
G01 X26.4975 Y24.4543
G01 X26.4556 Y24.4588
G01 X26.3460 Y24.4997
G01 X26.2537 Y24.5687
G01 X26.1847 Y24.6610
G01 X26.1438 Y24.7706
G01 X26.1393 Y24.8125
G01 X26.1393 Y26.8975
G01 X26.1438 Y26.9394
G01 X26.1847 Y27.0490
G01 X26.2253 Y27.1033
G01 X26.2292 Y27.1092
G01 X26.2338 Y27.1176
G01 X26.2375 Y27.1263
G01 X26.2635 Y27.1965
G01 X26.2655 Y27.2036
G01 X26.2670 Y27.2109
G01 X26.2679 Y27.2183
G01 X26.2682 Y27.2257
G01 X26.2678 Y27.2356
G01 X26.2664 Y27.2454
G01 X26.2505 Y27.3186
G01 X26.2469 Y27.3304
G01 X26.2440 Y27.3372
G01 X26.2406 Y27.3438
G01 X26.2367 Y27.3502
G01 X26.2323 Y27.3562
G01 X26.2241 Y27.3655
G01 X26.1712 Y27.4182
G01 X26.1637 Y27.4244
G01 X26.1536 Y27.4311
G01 X26.1471 Y27.4344
G01 X26.1404 Y27.4373
G01 X26.1289 Y27.4410
G01 X26.0670 Y27.4568
G01 X26.0547 Y27.4588
G01 X26.0447 Y27.4593
G01 X21.2270 Y27.4593
G01 X21.2152 Y27.4583
G01 X21.2035 Y27.4559
G01 X21.1342 Y27.4356
G01 X21.1250 Y27.4324
G01 X21.1161 Y27.4282
G01 X21.1056 Y27.4219
G01 X21.0791 Y27.4009
G01 X21.0730 Y27.3956
G01 X19.4911 Y25.8137
G01 X19.4835 Y25.8047
G01 X19.4769 Y25.7948
G01 X19.4411 Y25.7292
G01 X19.4371 Y25.7203
G01 X19.4347 Y25.7134
G01 X19.4327 Y25.7064
G01 X19.4313 Y25.6992
G01 X19.4280 Y25.6743
G01 X19.4252 Y25.6241
G01 X19.4231 Y25.6156
G01 X19.4190 Y25.5939
G01 X19.4175 Y25.5826
G01 X19.3976 Y25.5209
G01 X19.3816 Y25.4615
G01 X19.3768 Y25.4512
G01 X19.3683 Y25.4308
G01 X19.3655 Y25.4225
G01 X19.3332 Y25.3664
G01 X19.3052 Y25.3115
G01 X19.2983 Y25.3025
G01 X19.2858 Y25.2843
G01 X19.2813 Y25.2768
G01 X19.2419 Y25.2329
G01 X19.2259 Y25.2135
G01 X19.2082 Y25.1955
G01 X19.1687 Y25.1517
G01 X19.1597 Y25.1448
G01 X19.1392 Y25.1268
G01 X15.4501 Y21.4378
G01 X15.4422 Y21.4289
G01 X15.4355 Y21.4191
G01 X15.3996 Y21.3537
G01 X15.3963 Y21.3470
G01 X15.3919 Y21.3355
G01 X15.3890 Y21.3234
G01 X15.3875 Y21.3111
G01 X15.3876 Y21.2987
G01 X15.3931 Y21.2241
G01 X15.3954 Y21.2119
G01 X15.3991 Y21.2001
G01 X15.4043 Y21.1889
G01 X15.4108 Y21.1784
G01 X15.4572 Y21.1165
G01 X15.4657 Y21.1075
G01 X15.4752 Y21.0996
G01 X15.4857 Y21.0929
G01 X15.4946 Y21.0886
G01 X15.5693 Y21.0607
G01 X15.5813 Y21.0577
G01 X15.5935 Y21.0562
G01 X15.6084 Y21.0557
G01 X19.3751 Y21.0557
G01 X19.3869 Y21.0564
G01 X19.3940 Y21.0575
G01 X19.4009 Y21.0591
G01 X19.4702 Y21.0794
G01 X19.4817 Y21.0835
G01 X19.4925 Y21.0890
G01 X19.5026 Y21.0958
G01 X19.5305 Y21.1191
G01 X19.5362 Y21.1243
G01 X19.6881 Y21.2891
G01 X19.7423 Y21.3314
G01 X19.7508 Y21.3396
G01 X19.7569 Y21.3469
G01 X19.8019 Y21.4097
G01 X19.8080 Y21.4205
G01 X19.8127 Y21.4319
G01 X19.8159 Y21.4439
G01 X19.8176 Y21.4561
G01 X19.8216 Y21.5309
G01 X19.8213 Y21.5408
G01 X19.8197 Y21.5530
G01 X19.8173 Y21.5627
G01 X19.8130 Y21.5743
G01 X19.8085 Y21.5831
G01 X19.7738 Y21.6438
G01 X19.7674 Y21.6537
G01 X19.7628 Y21.6594
G01 X19.7579 Y21.6648
G01 X19.7427 Y21.6783
G01 X19.6881 Y21.7209
G01 X19.5309 Y21.8917
G01 X19.4039 Y22.0861
G01 X19.3107 Y22.2986
G01 X19.2537 Y22.5237
G01 X19.2345 Y22.7550
G01 X19.2537 Y22.9863
G01 X19.3107 Y23.2114
G01 X19.4039 Y23.4239
G01 X19.5309 Y23.6183
G01 X19.6881 Y23.7891
G01 X19.8713 Y23.9316
G01 X20.0754 Y24.0421
G01 X20.2950 Y24.1175
G01 X20.5239 Y24.1557
G01 X20.7561 Y24.1557
G01 X20.9850 Y24.1175
G01 X21.2046 Y24.0421
G01 X21.4087 Y23.9316
G01 X21.5919 Y23.7891
G01 X21.7491 Y23.6183
G01 X21.8761 Y23.4239
G01 X21.9693 Y23.2114
G01 X22.0263 Y22.9863
G01 X22.0455 Y22.7550
G01 X22.0263 Y22.5237
G01 X21.9693 Y22.2986
G01 X21.8761 Y22.0861
G01 X21.7491 Y21.8917
G01 X21.5919 Y21.7209
G01 X21.5395 Y21.6801
G01 X21.5342 Y21.6754
G01 X21.5292 Y21.6704
G01 X21.5217 Y21.6611
G01 X21.4794 Y21.6024
G01 X21.4743 Y21.5940
G01 X21.4700 Y21.5850
G01 X21.4666 Y21.5757
G01 X21.4636 Y21.5637
G01 X21.4622 Y21.5514
G01 X21.4584 Y21.4767
G01 X21.4591 Y21.4643
G01 X21.4608 Y21.4545
G01 X21.4635 Y21.4450
G01 X21.4670 Y21.4357
G01 X21.4715 Y21.4269
G01 X21.5062 Y21.3662
G01 X21.5127 Y21.3561
G01 X21.5173 Y21.3505
G01 X21.5222 Y21.3452
G01 X21.5373 Y21.3317
G01 X21.5919 Y21.2891
G01 X21.7491 Y21.1183
G01 X21.8761 Y20.9239
G01 X21.9693 Y20.7114
G01 X22.0263 Y20.4863
G01 X22.0455 Y20.2550
G01 X22.0263 Y20.0237
G01 X21.9693 Y19.7986
G01 X21.8761 Y19.5861
G01 X21.7684 Y19.4212
G01 X21.7647 Y19.4151
G01 X21.7614 Y19.4087
G01 X21.7587 Y19.4021
G01 X21.7564 Y19.3954
G01 X21.7355 Y19.3261
G01 X21.7330 Y19.3140
G01 X21.7319 Y19.3017
G01 X21.7325 Y19.2893
G01 X21.7345 Y19.2771
G01 X21.7556 Y19.2027
G01 X21.7590 Y19.1935
G01 X21.7622 Y19.1868
G01 X21.7671 Y19.1783
G01 X21.7713 Y19.1723
G01 X21.7776 Y19.1648
G01 X21.8081 Y19.1318
G01 X21.8175 Y19.1228
G01 X21.9263 Y19.0413
G01 X21.9953 Y18.9490
G01 X22.0362 Y18.8394
G01 X22.0407 Y18.7975
G01 X22.0407 Y16.7125
G01 X22.0362 Y16.6706
G01 X21.9953 Y16.5610
G01 X21.9263 Y16.4687
G01 X21.8340 Y16.3997
G01 X21.7244 Y16.3588
G01 X21.6825 Y16.3543
G01 X19.5975 Y16.3543
G01 X19.5556 Y16.3588
G01 X19.4460 Y16.3997
G01 X19.3537 Y16.4687
G01 X19.2847 Y16.5610
G01 X19.2438 Y16.6706
G01 X19.2393 Y16.7125
G01 X19.2393 Y18.7975
G01 X19.2438 Y18.8394
G01 X19.2847 Y18.9490
G01 X19.3537 Y19.0412
G01 X19.3728 Y19.0558
G01 X19.3796 Y19.0624
G01 X19.3859 Y19.0695
G01 X19.4306 Y19.1294
G01 X19.4347 Y19.1356
G01 X19.4394 Y19.1443
G01 X19.4424 Y19.1511
G01 X19.4448 Y19.1582
G01 X19.4467 Y19.1653
G01 X19.4484 Y19.1751
G01 X19.4538 Y19.2497
G01 X19.4540 Y19.2596
G01 X19.4533 Y19.2695
G01 X19.4515 Y19.2793
G01 X19.4488 Y19.2888
G01 X19.4452 Y19.2980
G01 X19.4419 Y19.3047
G01 X19.4072 Y19.3682
G01 X19.4018 Y19.3765
G01 X19.3972 Y19.3824
G01 X19.3922 Y19.3879
G01 X19.3868 Y19.3930
G01 X19.3791 Y19.3992
G01 X19.3729 Y19.4033
G01 X19.3029 Y19.4415
G01 X19.2916 Y19.4461
G01 X19.2846 Y19.4483
G01 X19.2774 Y19.4498
G01 X19.2438 Y19.4537
G01 X19.2331 Y19.4543
G01 X15.9094 Y19.4543
G01 X15.8975 Y19.4536
G01 X15.8858 Y19.4515
G01 X15.8142 Y19.4306
G01 X15.8072 Y19.4282
G01 X15.8005 Y19.4254
G01 X15.7918 Y19.4209
G01 X15.7836 Y19.4155
G01 X15.7591 Y19.3959
G01 X15.7511 Y19.3888
G01 X12.1462 Y15.7839
G01 X12.1414 Y15.7787
G01 X12.1369 Y15.7731
G01 X12.1329 Y15.7673
G01 X12.1292 Y15.7611
G01 X12.0957 Y15.6998
G01 X12.0905 Y15.6887
G01 X12.0874 Y15.6795
G01 X12.0847 Y15.6675
G01 X12.0808 Y15.6310
G01 X12.0807 Y14.5575
G01 X12.0762 Y14.5156
G01 X12.0353 Y14.4060
G01 X11.9663 Y14.3137
G01 X11.8927 Y14.2587
G01 X11.8871 Y14.2542
G01 X11.8819 Y14.2493
G01 X11.8770 Y14.2441
G01 X11.8726 Y14.2386
G01 X11.8307 Y14.1826
G01 X11.8252 Y14.1744
G01 X11.8205 Y14.1657
G01 X11.8175 Y14.1589
G01 X11.8144 Y14.1495
G01 X11.8123 Y14.1398
G01 X11.8111 Y14.1300
G01 X11.8061 Y14.0603
G00 Z2.0000
G00 X11.6667 Y14.0702
G01 F90.70
G01 Z-0.1859
G01 F100.00
G01 X11.6662 Y14.0583
G01 X11.6662 Y14.0464
G01 X11.6668 Y14.0346
G01 X11.6689 Y14.0168
G01 X11.6710 Y14.0051
G01 X11.6752 Y13.9878
G01 X11.6807 Y13.9708
G01 X11.6850 Y13.9598
G01 X11.6900 Y13.9489
G01 X11.6954 Y13.9383
G01 X11.7289 Y13.8770
G01 X11.7348 Y13.8667
G01 X11.7413 Y13.8567
G01 X11.7519 Y13.8424
G01 X11.7596 Y13.8333
G01 X11.7676 Y13.8246
G01 X11.7806 Y13.8123
G01 X11.7897 Y13.8046
G01 X11.8040 Y13.7940
G01 X11.8140 Y13.7876
G01 X11.8243 Y13.7816
G01 X11.8856 Y13.7481
G01 X11.8961 Y13.7427
G01 X11.9068 Y13.7379
G01 X11.9177 Y13.7335
G01 X11.9345 Y13.7281
G01 X11.9459 Y13.7251
G01 X11.9574 Y13.7227
G01 X11.9690 Y13.7209
G01 X12.0012 Y13.7174
G01 X12.0204 Y13.7161
G01 X25.9155 Y13.7160
G01 X25.9326 Y13.7166
G01 X25.9439 Y13.7177
G01 X25.9608 Y13.7203
G01 X25.9775 Y13.7241
G01 X26.0500 Y13.7454
G01 X26.0669 Y13.7510
G01 X26.0834 Y13.7579
G01 X26.0993 Y13.7660
G01 X26.1145 Y13.7753
G01 X26.1243 Y13.7821
G01 X26.1337 Y13.7894
G01 X26.1471 Y13.8012
G01 X26.1596 Y13.8139
G01 X26.2093 Y13.8711
G01 X26.2169 Y13.8804
G01 X26.2241 Y13.8900
G01 X26.2307 Y13.8999
G01 X26.2369 Y13.9102
G01 X26.2451 Y13.9262
G01 X26.2499 Y13.9371
G01 X26.2542 Y13.9483
G01 X26.2579 Y13.9597
G01 X26.2610 Y13.9712
G01 X26.2757 Y14.0398
G01 X26.2779 Y14.0567
G01 X26.2787 Y14.0681
G01 X26.2790 Y14.0795
G01 X26.2790 Y15.6900
G01 X26.2808 Y15.7070
G01 X26.3086 Y15.7814
G01 X26.3536 Y15.8414
G01 X26.4136 Y15.8864
G01 X26.4880 Y15.9142
G01 X26.5050 Y15.9160
G01 X29.7750 Y15.9160
G01 X29.7920 Y15.9142
G01 X29.8664 Y15.8864
G01 X29.9264 Y15.8414
G01 X29.9714 Y15.7814
G01 X29.9992 Y15.7070
G01 X30.0010 Y15.6900
G01 X30.0010 Y14.0795
G01 X30.0013 Y14.0681
G01 X30.0027 Y14.0511
G01 X30.0043 Y14.0398
G01 X30.0065 Y14.0286
G01 X30.0107 Y14.0120
G01 X30.0321 Y13.9393
G01 X30.0382 Y13.9225
G01 X30.0455 Y13.9062
G01 X30.0510 Y13.8957
G01 X30.0571 Y13.8855
G01 X30.0636 Y13.8756
G01 X30.0707 Y13.8660
G01 X30.0782 Y13.8567
G01 X30.0862 Y13.8479
G01 X30.0945 Y13.8395
G01 X30.1033 Y13.8314
G01 X30.1561 Y13.7857
G01 X30.1701 Y13.7745
G01 X30.1849 Y13.7643
G01 X30.1952 Y13.7581
G01 X30.2058 Y13.7525
G01 X30.2166 Y13.7474
G01 X30.2333 Y13.7408
G01 X30.2504 Y13.7355
G01 X30.3136 Y13.7215
G01 X30.3248 Y13.7193
G01 X30.3361 Y13.7177
G01 X30.3531 Y13.7163
G01 X30.3645 Y13.7160
G01 X55.3406 Y13.7160
G01 X55.3520 Y13.7163
G01 X55.3634 Y13.7171
G01 X55.3747 Y13.7184
G01 X55.3860 Y13.7203
G01 X55.4026 Y13.7241
G01 X55.4808 Y13.7471
G01 X55.4919 Y13.7510
G01 X55.5028 Y13.7554
G01 X55.5135 Y13.7603
G01 X55.5239 Y13.7657
G01 X55.5340 Y13.7717
G01 X55.5438 Y13.7781
G01 X55.5533 Y13.7851
G01 X55.5786 Y13.8053
G01 X55.5931 Y13.8180
G01 X57.6556 Y15.8804
G01 X57.6642 Y15.8895
G01 X57.6849 Y15.9136
G01 X57.7190 Y15.9444
G01 X57.7371 Y15.9619
G01 X57.7564 Y15.9781
G01 X57.7906 Y16.0088
G01 X57.8166 Y16.0266
G01 X57.8659 Y16.0520
G01 X57.9111 Y16.0780
G01 X57.9402 Y16.0900
G01 X57.9907 Y16.1036
G01 X58.0434 Y16.1206
G01 X58.0744 Y16.1264
G01 X58.1203 Y16.1288
G01 X58.1454 Y16.1310
G01 X58.1706 Y16.1314
G01 X58.2164 Y16.1338
G01 X58.2481 Y16.1313
G01 X58.2606 Y16.1310
G01 X74.8165 Y16.1310
G01 X74.8290 Y16.1313
G01 X74.8606 Y16.1338
G01 X74.9065 Y16.1314
G01 X74.9317 Y16.1310
G01 X74.9568 Y16.1288
G01 X75.0027 Y16.1264
G01 X75.0337 Y16.1206
G01 X75.0864 Y16.1037
G01 X75.1369 Y16.0900
G01 X75.1660 Y16.0780
G01 X75.2140 Y16.0504
G01 X75.2605 Y16.0266
G01 X75.2865 Y16.0088
G01 X75.3207 Y15.9780
G01 X75.3400 Y15.9619
G01 X75.3581 Y15.9443
G01 X75.3922 Y15.9136
G01 X75.4128 Y15.8895
G01 X75.4215 Y15.8804
G01 X75.5554 Y15.7465
G01 X75.5645 Y15.7378
G01 X75.5886 Y15.7172
G01 X75.6193 Y15.6831
G01 X75.6369 Y15.6650
G01 X75.6531 Y15.6456
G01 X75.6838 Y15.6115
G01 X75.7016 Y15.5855
G01 X75.7254 Y15.5390
G01 X75.7530 Y15.4910
G01 X75.7650 Y15.4619
G01 X75.7786 Y15.4115
G01 X75.7932 Y15.3664
G01 X75.7994 Y15.3502
G01 X75.8069 Y15.3345
G01 X75.8125 Y15.3244
G01 X75.8185 Y15.3146
G01 X75.8645 Y15.2473
G01 X75.8716 Y15.2380
G01 X75.8791 Y15.2290
G01 X75.8911 Y15.2163
G01 X75.8997 Y15.2083
G01 X75.9086 Y15.2008
G01 X75.9179 Y15.1937
G01 X75.9275 Y15.1870
G01 X75.9425 Y15.1779
G01 X75.9608 Y15.1685
G01 X75.9744 Y15.1600
G01 X75.9899 Y15.1517
G01 X76.0006 Y15.1468
G01 X76.0115 Y15.1424
G01 X76.1214 Y15.1014
G01 X76.2018 Y15.0413
G01 X76.2160 Y15.0319
G01 X76.2309 Y15.0235
G01 X76.2412 Y15.0185
G01 X76.2517 Y15.0141
G01 X76.3280 Y14.9856
G01 X76.3394 Y14.9820
G01 X76.3509 Y14.9789
G01 X76.3625 Y14.9765
G01 X76.3743 Y14.9746
G01 X76.3861 Y14.9733
G01 X76.3980 Y14.9726
G01 X76.4099 Y14.9725
G01 X76.4218 Y14.9730
G01 X76.4395 Y14.9748
G01 X76.4571 Y14.9780
G01 X76.5253 Y14.9928
G01 X76.5364 Y14.9955
G01 X76.5474 Y14.9987
G01 X76.5634 Y15.0045
G01 X76.5739 Y15.0090
G01 X76.5842 Y15.0140
G01 X76.5991 Y15.0223
G01 X76.6188 Y15.0349
G01 X76.6328 Y15.0447
G01 X76.7307 Y15.1183
G01 X76.7393 Y15.1257
G01 X76.7476 Y15.1336
G01 X76.7554 Y15.1419
G01 X76.7629 Y15.1505
G01 X76.8118 Y15.2154
G01 X76.8220 Y15.2300
G01 X76.8281 Y15.2402
G01 X76.8338 Y15.2507
G01 X76.8412 Y15.2669
G01 X76.8475 Y15.2836
G01 X76.8509 Y15.2950
G01 X76.8538 Y15.3065
G01 X76.8571 Y15.3241
G01 X76.8590 Y15.3418
G01 X76.8640 Y15.4115
G01 X76.8645 Y15.4234
G01 X76.8645 Y15.4353
G01 X76.8639 Y15.4472
G01 X76.8626 Y15.4590
G01 X76.8608 Y15.4708
G01 X76.8585 Y15.4824
G01 X76.8555 Y15.4939
G01 X76.8520 Y15.5053
G01 X76.8479 Y15.5165
G01 X76.8432 Y15.5274
G01 X76.8353 Y15.5434
G01 X76.8018 Y15.6047
G01 X76.7933 Y15.6191
G01 X76.7869 Y15.6286
G01 X76.7800 Y15.6378
G01 X76.7727 Y15.6467
G01 X76.7609 Y15.6593
G01 X64.9277 Y27.4925
G01 X64.9194 Y27.5004
G01 X64.9064 Y27.5115
G01 X64.8973 Y27.5183
G01 X64.8878 Y27.5247
G01 X64.8731 Y27.5334
G01 X64.8118 Y27.5669
G01 X64.7960 Y27.5748
G01 X64.7797 Y27.5815
G01 X64.7629 Y27.5869
G01 X64.7458 Y27.5912
G01 X64.7284 Y27.5941
G01 X64.6962 Y27.5976
G01 X64.6835 Y27.5987
G01 X64.6706 Y27.5990
G01 X30.2353 Y27.5990
G01 X30.2182 Y27.5984
G01 X30.2068 Y27.5973
G01 X30.1955 Y27.5957
G01 X30.1843 Y27.5935
G01 X30.1733 Y27.5909
G01 X30.1007 Y27.5696
G01 X30.0894 Y27.5660
G01 X30.0783 Y27.5618
G01 X30.0674 Y27.5571
G01 X30.0567 Y27.5518
G01 X30.0463 Y27.5460
G01 X30.0313 Y27.5363
G01 X30.0217 Y27.5293
G01 X30.0125 Y27.5218
G01 X30.0037 Y27.5138
G01 X29.9952 Y27.5055
G01 X29.9872 Y27.4967
G01 X29.9414 Y27.4439
G01 X29.9339 Y27.4347
G01 X29.9268 Y27.4251
G01 X29.9202 Y27.4153
G01 X29.9140 Y27.4051
G01 X29.9058 Y27.3892
G01 X29.8988 Y27.3728
G01 X29.8949 Y27.3616
G01 X29.8914 Y27.3502
G01 X29.8886 Y27.3387
G01 X29.8854 Y27.3211
G01 X29.8741 Y27.2404
G01 X29.8731 Y27.2229
G01 X29.8731 Y27.2112
G01 X29.8737 Y27.1996
G01 X29.8749 Y27.1880
G01 X29.8766 Y27.1765
G01 X29.8789 Y27.1650
G01 X29.8817 Y27.1537
G01 X29.8870 Y27.1371
G01 X29.9148 Y27.0694
G01 X29.9196 Y27.0585
G01 X29.9250 Y27.0478
G01 X29.9309 Y27.0374
G01 X29.9407 Y27.0225
G01 X29.9714 Y26.9814
G01 X29.9992 Y26.9070
G01 X30.0010 Y26.8900
G01 X30.0010 Y24.8200
G01 X29.9992 Y24.8030
G01 X29.9714 Y24.7286
G01 X29.9264 Y24.6686
G01 X29.8664 Y24.6236
G01 X29.7920 Y24.5958
G01 X29.7750 Y24.5940
G01 X26.5050 Y24.5940
G01 X26.4880 Y24.5958
G01 X26.4136 Y24.6236
G01 X26.3536 Y24.6686
G01 X26.3086 Y24.7286
G01 X26.2808 Y24.8030
G01 X26.2790 Y24.8200
G01 X26.2790 Y26.8900
G01 X26.2808 Y26.9070
G01 X26.3086 Y26.9814
G01 X26.3391 Y27.0223
G01 X26.3485 Y27.0365
G01 X26.3542 Y27.0464
G01 X26.3595 Y27.0565
G01 X26.3642 Y27.0669
G01 X26.3684 Y27.0775
G01 X26.3949 Y27.1485
G01 X26.4000 Y27.1656
G01 X26.4039 Y27.1830
G01 X26.4065 Y27.2007
G01 X26.4078 Y27.2185
G01 X26.4079 Y27.2304
G01 X26.4070 Y27.2482
G01 X26.4047 Y27.2659
G01 X26.4025 Y27.2776
G01 X26.3863 Y27.3516
G01 X26.3814 Y27.3688
G01 X26.3775 Y27.3800
G01 X26.3705 Y27.3964
G01 X26.3624 Y27.4123
G01 X26.3530 Y27.4275
G01 X26.3426 Y27.4420
G01 X26.3311 Y27.4557
G01 X26.3229 Y27.4643
G01 X26.2735 Y27.5137
G01 X26.2607 Y27.5256
G01 X26.2517 Y27.5330
G01 X26.2424 Y27.5400
G01 X26.2327 Y27.5465
G01 X26.2227 Y27.5525
G01 X26.2072 Y27.5606
G01 X26.1911 Y27.5675
G01 X26.1746 Y27.5733
G01 X26.1634 Y27.5764
G01 X26.1040 Y27.5916
G01 X26.0923 Y27.5942
G01 X26.0805 Y27.5963
G01 X26.0686 Y27.5978
G01 X26.0567 Y27.5987
G01 X26.0447 Y27.5990
G01 X21.2237 Y27.5990
G01 X21.2066 Y27.5979
G01 X21.1953 Y27.5966
G01 X21.1840 Y27.5947
G01 X21.1729 Y27.5923
G01 X21.0948 Y27.5696
G01 X21.0836 Y27.5660
G01 X21.0726 Y27.5619
G01 X21.0619 Y27.5572
G01 X21.0513 Y27.5521
G01 X21.0410 Y27.5463
G01 X21.0310 Y27.5401
G01 X21.0167 Y27.5299
G01 X20.9914 Y27.5097
G01 X20.9816 Y27.5014
G01 X20.9723 Y27.4925
G01 X19.3900 Y25.9101
G01 X19.3823 Y25.9017
G01 X19.3716 Y25.8884
G01 X19.3650 Y25.8791
G01 X19.3559 Y25.8646
G01 X19.3169 Y25.7932
G01 X19.3095 Y25.7773
G01 X19.3032 Y25.7609
G01 X19.2997 Y25.7497
G01 X19.2967 Y25.7384
G01 X19.2933 Y25.7212
G01 X19.2898 Y25.6955
G01 X19.2884 Y25.6827
G01 X19.2864 Y25.6444
G01 X19.2806 Y25.6134
G01 X19.2636 Y25.5607
G01 X19.2500 Y25.5102
G01 X19.2380 Y25.4811
G01 X19.2104 Y25.4330
G01 X19.1866 Y25.3865
G01 X19.1688 Y25.3606
G01 X19.1381 Y25.3264
G01 X19.1219 Y25.3071
G01 X19.1043 Y25.2890
G01 X19.0736 Y25.2549
G01 X19.0495 Y25.2342
G01 X19.0404 Y25.2256
G01 X15.3473 Y21.5325
G01 X15.3397 Y21.5240
G01 X15.3324 Y21.5152
G01 X15.3223 Y21.5014
G01 X15.3162 Y21.4918
G01 X15.2742 Y21.4154
G01 X15.2690 Y21.4047
G01 X15.2644 Y21.3937
G01 X15.2603 Y21.3826
G01 X15.2552 Y21.3655
G01 X15.2525 Y21.3539
G01 X15.2504 Y21.3422
G01 X15.2484 Y21.3244
G01 X15.2478 Y21.3126
G01 X15.2477 Y21.3007
G01 X15.2483 Y21.2888
G01 X15.2533 Y21.2191
G01 X15.2552 Y21.2013
G01 X15.2572 Y21.1896
G01 X15.2598 Y21.1780
G01 X15.2630 Y21.1665
G01 X15.2688 Y21.1497
G01 X15.2734 Y21.1387
G01 X15.2785 Y21.1280
G01 X15.2871 Y21.1123
G01 X15.2935 Y21.1023
G01 X15.3004 Y21.0926
G01 X15.3423 Y21.0367
G01 X15.3535 Y21.0228
G01 X15.3616 Y21.0140
G01 X15.3700 Y21.0057
