(G-CODE GENERATED BY FLATCAM v8.994 - www.flatcam.org - Version Date: 2020/11/7)

(Name: clickyKeyboard-Edge_Cuts.gbr_cutout_cnc)
(Type: G-code from Geometry)
(Units: MM)

(Created on Friday, 01 September 2023 at 11:01)

(This preprocessor is the default preprocessor used by FlatCAM.)
(It is made to work with MACH3 compatible motion controllers.)

(TOOL DIAMETER: 3.175 mm)
(Feedrate_XY: 50.0 mm/min)
(Feedrate_Z: 60.0 mm/min)
(Feedrate rapids 1500.0 mm/min)

(Z_Cut: -2.0 mm)
(DepthPerCut: 0.5 mm <=>4 passes)
(Z_Move: 2.0 mm)
(Z Start: None mm)
(Z End: 20.0 mm)
(X,Y End: None mm)
(Steps per circle: 64)
(Preprocessor Geometry: default)

(X range:   -0.8875 ...  131.6493  mm)
(Y range:   -1.0525 ...   36.7125  mm)

(Spindle Speed: 0.0 RPM)
G21
G90
G94

G01 F50.00

M5
G00 Z15.0000
G00 X0.0000 Y0.0000
T1
M6    
(MSG, Change to Tool Dia = 3.1750)
M0
G00 Z15.0000

M03
G01 F50.00
G00 X63.3934 Y-1.0525
G01 F60.00
G01 Z-0.5000
G01 F50.00
G01 X2.7550 Y-1.0525
G01 X2.7136 Y-1.0520
G01 X2.6697 Y-1.0504
G01 X2.4830 Y-1.0413
G01 X2.3955 Y-1.0347
G01 X2.3133 Y-1.0245
G01 X2.1284 Y-0.9971
G01 X2.0420 Y-0.9820
G01 X1.9612 Y-0.9638
G01 X1.7798 Y-0.9184
G01 X1.6953 Y-0.8949
G01 X1.6167 Y-0.8689
G01 X1.4406 Y-0.8059
G01 X1.3588 Y-0.7743
G01 X1.2831 Y-0.7407
G01 X1.1141 Y-0.6608
G01 X1.0401 Y-0.6235
G01 X0.9637 Y-0.5804
G01 X0.8034 Y-0.4843
G01 X0.7293 Y-0.4372
G01 X0.6616 Y-0.3895
G01 X0.5114 Y-0.2782
G01 X0.4423 Y-0.2241
G01 X0.3796 Y-0.1700
G01 X0.2411 Y-0.0445
G01 X0.1777 Y0.0161
G01 X0.1205 Y0.0761
G01 X-0.0050 Y0.2146
G01 X-0.0622 Y0.2811
G01 X-0.1132 Y0.3464
G01 X-0.2245 Y0.4966
G01 X-0.2750 Y0.5684
G01 X-0.3193 Y0.6384
G01 X-0.4154 Y0.7987
G01 X-0.4585 Y0.8751
G01 X-0.4958 Y0.9491
G01 X-0.5757 Y1.1181
G01 X-0.6111 Y1.1984
G01 X-0.6409 Y1.2756
G01 X-0.7039 Y1.4517
G01 X-0.7313 Y1.5350
G01 X-0.7534 Y1.6148
G01 X-0.7988 Y1.7962
G01 X-0.8180 Y1.8818
G01 X-0.8321 Y1.9634
G01 X-0.8595 Y2.1483
G01 X-0.8702 Y2.2354
G01 X-0.8763 Y2.3180
G01 X-0.8854 Y2.5047
G01 X-0.8870 Y2.5681
G01 X-0.8873 Y2.5681
G01 X-0.8870 Y2.5681
G01 X-0.8875 Y2.5900
G01 X-0.8875 Y33.0700
G01 X-0.8870 Y33.1114
G01 X-0.8854 Y33.1553
G01 X-0.8763 Y33.3420
G01 X-0.8702 Y33.4246
G01 X-0.8595 Y33.5117
G01 X-0.8321 Y33.6966
G01 X-0.8180 Y33.7782
G01 X-0.7988 Y33.8638
G01 X-0.7534 Y34.0452
G01 X-0.7313 Y34.1250
G01 X-0.7039 Y34.2083
G01 X-0.6409 Y34.3844
G01 X-0.6111 Y34.4616
G01 X-0.5757 Y34.5419
G01 X-0.4958 Y34.7109
G01 X-0.4585 Y34.7849
G01 X-0.4154 Y34.8613
G01 X-0.3193 Y35.0216
G01 X-0.2750 Y35.0916
G01 X-0.2245 Y35.1634
G01 X-0.1132 Y35.3136
G01 X-0.0622 Y35.3789
G01 X-0.0050 Y35.4454
G01 X0.1205 Y35.5839
G01 X0.1811 Y35.6473
G01 X0.2411 Y35.7045
G01 X0.3796 Y35.8300
G01 X0.4461 Y35.8872
G01 X0.5114 Y35.9382
G01 X0.6616 Y36.0495
G01 X0.7334 Y36.1000
G01 X0.8034 Y36.1443
G01 X0.9637 Y36.2404
G01 X1.0401 Y36.2835
G01 X1.1141 Y36.3208
G01 X1.2831 Y36.4007
G01 X1.3634 Y36.4361
G01 X1.4406 Y36.4659
G01 X1.6167 Y36.5289
G01 X1.7000 Y36.5563
G01 X1.7798 Y36.5784
G01 X1.9612 Y36.6238
G01 X2.0468 Y36.6430
G01 X2.1284 Y36.6571
G01 X2.3133 Y36.6845
G01 X2.4004 Y36.6952
G01 X2.4830 Y36.7013
G01 X2.6697 Y36.7104
G01 X2.7111 Y36.7120
G01 X2.7550 Y36.7125
G01 X63.3934 Y36.7125
G00 X63.3934 Y36.7125
G01 F60.00
G01 Z-1.0000
G01 F50.00
G01 X2.7550 Y36.7125
G01 X2.7111 Y36.7120
G01 X2.6697 Y36.7104
G01 X2.4830 Y36.7013
G01 X2.4004 Y36.6952
G01 X2.3133 Y36.6845
G01 X2.1284 Y36.6571
G01 X2.0468 Y36.6430
G01 X1.9612 Y36.6238
G01 X1.7798 Y36.5784
G01 X1.7000 Y36.5563
G01 X1.6167 Y36.5289
G01 X1.4406 Y36.4659
G01 X1.3634 Y36.4361
G01 X1.2831 Y36.4007
G01 X1.1141 Y36.3208
G01 X1.0401 Y36.2835
G01 X0.9637 Y36.2404
G01 X0.8034 Y36.1443
G01 X0.7334 Y36.1000
G01 X0.6616 Y36.0495
G01 X0.5114 Y35.9382
G01 X0.4461 Y35.8872
G01 X0.3796 Y35.8300
G01 X0.2411 Y35.7045
G01 X0.1811 Y35.6473
G01 X0.1205 Y35.5839
G01 X-0.0050 Y35.4454
G01 X-0.0622 Y35.3789
G01 X-0.1132 Y35.3136
G01 X-0.2245 Y35.1634
G01 X-0.2750 Y35.0916
G01 X-0.3193 Y35.0216
G01 X-0.4154 Y34.8613
G01 X-0.4585 Y34.7849
G01 X-0.4958 Y34.7109
G01 X-0.5757 Y34.5419
G01 X-0.6111 Y34.4616
G01 X-0.6409 Y34.3844
G01 X-0.7039 Y34.2083
G01 X-0.7313 Y34.1250
G01 X-0.7534 Y34.0452
G01 X-0.7988 Y33.8638
G01 X-0.8180 Y33.7782
G01 X-0.8321 Y33.6966
G01 X-0.8595 Y33.5117
G01 X-0.8702 Y33.4246
G01 X-0.8763 Y33.3420
G01 X-0.8854 Y33.1553
G01 X-0.8870 Y33.1114
G01 X-0.8875 Y33.0700
G01 X-0.8875 Y2.5900
G01 X-0.8870 Y2.5681
G01 X-0.8873 Y2.5681
G01 X-0.8870 Y2.5681
G01 X-0.8854 Y2.5047
G01 X-0.8763 Y2.3180
G01 X-0.8702 Y2.2354
G01 X-0.8595 Y2.1483
G01 X-0.8321 Y1.9634
G01 X-0.8180 Y1.8818
G01 X-0.7988 Y1.7962
G01 X-0.7534 Y1.6148
G01 X-0.7313 Y1.5350
G01 X-0.7039 Y1.4517
G01 X-0.6409 Y1.2756
G01 X-0.6111 Y1.1984
G01 X-0.5757 Y1.1181
G01 X-0.4958 Y0.9491
G01 X-0.4585 Y0.8751
G01 X-0.4154 Y0.7987
G01 X-0.3193 Y0.6384
G01 X-0.2750 Y0.5684
G01 X-0.2245 Y0.4966
G01 X-0.1132 Y0.3464
G01 X-0.0622 Y0.2811
G01 X-0.0050 Y0.2146
G01 X0.1205 Y0.0761
G01 X0.1777 Y0.0161
G01 X0.2411 Y-0.0445
G01 X0.3796 Y-0.1700
G01 X0.4423 Y-0.2241
G01 X0.5114 Y-0.2782
G01 X0.6616 Y-0.3895
G01 X0.7293 Y-0.4372
G01 X0.8034 Y-0.4843
G01 X0.9637 Y-0.5804
G01 X1.0401 Y-0.6235
G01 X1.1141 Y-0.6608
G01 X1.2831 Y-0.7407
G01 X1.3588 Y-0.7743
G01 X1.4406 Y-0.8059
G01 X1.6167 Y-0.8689
G01 X1.6953 Y-0.8949
G01 X1.7798 Y-0.9184
G01 X1.9612 Y-0.9638
G01 X2.0420 Y-0.9820
G01 X2.1284 Y-0.9971
G01 X2.3133 Y-1.0245
G01 X2.3955 Y-1.0347
G01 X2.4830 Y-1.0413
G01 X2.6697 Y-1.0504
G01 X2.7136 Y-1.0520
G01 X2.7550 Y-1.0525
G01 X63.3934 Y-1.0525
G00 X63.3934 Y-1.0525
G01 F60.00
G01 Z-1.5000
G01 F50.00
G01 X2.7550 Y-1.0525
G01 X2.7136 Y-1.0520
G01 X2.6697 Y-1.0504
G01 X2.4830 Y-1.0413
G01 X2.3955 Y-1.0347
G01 X2.3133 Y-1.0245
G01 X2.1284 Y-0.9971
G01 X2.0420 Y-0.9820
G01 X1.9612 Y-0.9638
G01 X1.7798 Y-0.9184
G01 X1.6953 Y-0.8949
G01 X1.6167 Y-0.8689
G01 X1.4406 Y-0.8059
G01 X1.3588 Y-0.7743
G01 X1.2831 Y-0.7407
G01 X1.1141 Y-0.6608
G01 X1.0401 Y-0.6235
G01 X0.9637 Y-0.5804
G01 X0.8034 Y-0.4843
G01 X0.7293 Y-0.4372
G01 X0.6616 Y-0.3895
G01 X0.5114 Y-0.2782
G01 X0.4423 Y-0.2241
G01 X0.3796 Y-0.1700
G01 X0.2411 Y-0.0445
G01 X0.1777 Y0.0161
G01 X0.1205 Y0.0761
G01 X-0.0050 Y0.2146
G01 X-0.0622 Y0.2811
G01 X-0.1132 Y0.3464
G01 X-0.2245 Y0.4966
G01 X-0.2750 Y0.5684
G01 X-0.3193 Y0.6384
G01 X-0.4154 Y0.7987
G01 X-0.4585 Y0.8751
G01 X-0.4958 Y0.9491
G01 X-0.5757 Y1.1181
G01 X-0.6111 Y1.1984
G01 X-0.6409 Y1.2756
G01 X-0.7039 Y1.4517
G01 X-0.7313 Y1.5350
G01 X-0.7534 Y1.6148
G01 X-0.7988 Y1.7962
G01 X-0.8180 Y1.8818
G01 X-0.8321 Y1.9634
G01 X-0.8595 Y2.1483
G01 X-0.8702 Y2.2354
G01 X-0.8763 Y2.3180
G01 X-0.8854 Y2.5047
G01 X-0.8870 Y2.5681
G01 X-0.8873 Y2.5681
G01 X-0.8870 Y2.5681
G01 X-0.8875 Y2.5900
G01 X-0.8875 Y33.0700
G01 X-0.8870 Y33.1114
G01 X-0.8854 Y33.1553
G01 X-0.8763 Y33.3420
G01 X-0.8702 Y33.4246
G01 X-0.8595 Y33.5117
G01 X-0.8321 Y33.6966
G01 X-0.8180 Y33.7782
G01 X-0.7988 Y33.8638
G01 X-0.7534 Y34.0452
G01 X-0.7313 Y34.1250
G01 X-0.7039 Y34.2083
G01 X-0.6409 Y34.3844
G01 X-0.6111 Y34.4616
G01 X-0.5757 Y34.5419
G01 X-0.4958 Y34.7109
G01 X-0.4585 Y34.7849
G01 X-0.4154 Y34.8613
G01 X-0.3193 Y35.0216
G01 X-0.2750 Y35.0916
G01 X-0.2245 Y35.1634
G01 X-0.1132 Y35.3136
G01 X-0.0622 Y35.3789
G01 X-0.0050 Y35.4454
G01 X0.1205 Y35.5839
G01 X0.1811 Y35.6473
G01 X0.2411 Y35.7045
G01 X0.3796 Y35.8300
G01 X0.4461 Y35.8872
G01 X0.5114 Y35.9382
G01 X0.6616 Y36.0495
G01 X0.7334 Y36.1000
G01 X0.8034 Y36.1443
G01 X0.9637 Y36.2404
G01 X1.0401 Y36.2835
G01 X1.1141 Y36.3208
G01 X1.2831 Y36.4007
G01 X1.3634 Y36.4361
G01 X1.4406 Y36.4659
G01 X1.6167 Y36.5289
G01 X1.7000 Y36.5563
G01 X1.7798 Y36.5784
G01 X1.9612 Y36.6238
G01 X2.0468 Y36.6430
G01 X2.1284 Y36.6571
G01 X2.3133 Y36.6845
G01 X2.4004 Y36.6952
G01 X2.4830 Y36.7013
G01 X2.6697 Y36.7104
G01 X2.7111 Y36.7120
G01 X2.7550 Y36.7125
G01 X63.3934 Y36.7125
G00 X63.3934 Y36.7125
G01 F60.00
G01 Z-2.0000
G01 F50.00
G01 X2.7550 Y36.7125
G01 X2.7111 Y36.7120
G01 X2.6697 Y36.7104
G01 X2.4830 Y36.7013
G01 X2.4004 Y36.6952
G01 X2.3133 Y36.6845
G01 X2.1284 Y36.6571
G01 X2.0468 Y36.6430
G01 X1.9612 Y36.6238
G01 X1.7798 Y36.5784
G01 X1.7000 Y36.5563
G01 X1.6167 Y36.5289
G01 X1.4406 Y36.4659
G01 X1.3634 Y36.4361
G01 X1.2831 Y36.4007
G01 X1.1141 Y36.3208
G01 X1.0401 Y36.2835
G01 X0.9637 Y36.2404
G01 X0.8034 Y36.1443
G01 X0.7334 Y36.1000
G01 X0.6616 Y36.0495
G01 X0.5114 Y35.9382
G01 X0.4461 Y35.8872
G01 X0.3796 Y35.8300
G01 X0.2411 Y35.7045
G01 X0.1811 Y35.6473
G01 X0.1205 Y35.5839
G01 X-0.0050 Y35.4454
G01 X-0.0622 Y35.3789
G01 X-0.1132 Y35.3136
G01 X-0.2245 Y35.1634
G01 X-0.2750 Y35.0916
G01 X-0.3193 Y35.0216
G01 X-0.4154 Y34.8613
G01 X-0.4585 Y34.7849
G01 X-0.4958 Y34.7109
G01 X-0.5757 Y34.5419
G01 X-0.6111 Y34.4616
G01 X-0.6409 Y34.3844
G01 X-0.7039 Y34.2083
G01 X-0.7313 Y34.1250
G01 X-0.7534 Y34.0452
G01 X-0.7988 Y33.8638
G01 X-0.8180 Y33.7782
G01 X-0.8321 Y33.6966
G01 X-0.8595 Y33.5117
G01 X-0.8702 Y33.4246
G01 X-0.8763 Y33.3420
G01 X-0.8854 Y33.1553
G01 X-0.8870 Y33.1114
G01 X-0.8875 Y33.0700
G01 X-0.8875 Y2.5900
G01 X-0.8870 Y2.5681
G01 X-0.8873 Y2.5681
G01 X-0.8870 Y2.5681
G01 X-0.8854 Y2.5047
G01 X-0.8763 Y2.3180
G01 X-0.8702 Y2.2354
G01 X-0.8595 Y2.1483
G01 X-0.8321 Y1.9634
G01 X-0.8180 Y1.8818
G01 X-0.7988 Y1.7962
G01 X-0.7534 Y1.6148
G01 X-0.7313 Y1.5350
G01 X-0.7039 Y1.4517
G01 X-0.6409 Y1.2756
G01 X-0.6111 Y1.1984
G01 X-0.5757 Y1.1181
G01 X-0.4958 Y0.9491
G01 X-0.4585 Y0.8751
G01 X-0.4154 Y0.7987
G01 X-0.3193 Y0.6384
G01 X-0.2750 Y0.5684
G01 X-0.2245 Y0.4966
G01 X-0.1132 Y0.3464
G01 X-0.0622 Y0.2811
G01 X-0.0050 Y0.2146
G01 X0.1205 Y0.0761
G01 X0.1777 Y0.0161
G01 X0.2411 Y-0.0445
G01 X0.3796 Y-0.1700
G01 X0.4423 Y-0.2241
G01 X0.5114 Y-0.2782
G01 X0.6616 Y-0.3895
G01 X0.7293 Y-0.4372
G01 X0.8034 Y-0.4843
G01 X0.9637 Y-0.5804
G01 X1.0401 Y-0.6235
G01 X1.1141 Y-0.6608
G01 X1.2831 Y-0.7407
G01 X1.3588 Y-0.7743
G01 X1.4406 Y-0.8059
G01 X1.6167 Y-0.8689
G01 X1.6953 Y-0.8949
G01 X1.7798 Y-0.9184
G01 X1.9612 Y-0.9638
G01 X2.0420 Y-0.9820
G01 X2.1284 Y-0.9971
G01 X2.3133 Y-1.0245
G01 X2.3955 Y-1.0347
G01 X2.4830 Y-1.0413
G01 X2.6697 Y-1.0504
G01 X2.7136 Y-1.0520
G01 X2.7550 Y-1.0525
G01 X63.3934 Y-1.0525
G00 Z2.0000
G00 X67.5684 Y36.7125
G01 F60.00
G01 Z-0.5000
G01 F50.00
G01 X111.9750 Y36.7125
G01 X112.0139 Y36.7121
G01 X112.0551 Y36.7107
G01 X112.2306 Y36.7026
G01 X112.3129 Y36.6968
G01 X112.3902 Y36.6878
G01 X112.5642 Y36.6636
G01 X112.6456 Y36.6502
G01 X112.7218 Y36.6342
G01 X112.8928 Y36.5940
G01 X112.9726 Y36.5732
G01 X113.0470 Y36.5502
G01 X113.2136 Y36.4945
G01 X113.2911 Y36.4664
G01 X113.3630 Y36.4366
G01 X113.5238 Y36.3658
G01 X113.5984 Y36.3307
G01 X113.6673 Y36.2944
G01 X113.8209 Y36.2091
G01 X113.8919 Y36.1673
G01 X113.9572 Y36.1248
G01 X114.1022 Y36.0257
G01 X114.1691 Y35.9775
G01 X114.2302 Y35.9292
G01 X114.3655 Y35.8171
G01 X114.4243 Y35.7661
G01 X114.4840 Y35.7093
G01 X114.6084 Y35.5852
G01 X114.6653 Y35.5255
G01 X114.7165 Y35.4669
G01 X114.8289 Y35.3319
G01 X114.8801 Y35.2672
G01 X114.9257 Y35.2041
G01 X115.0252 Y35.0593
G01 X115.0702 Y34.9902
G01 X115.1097 Y34.9232
G01 X115.1955 Y34.7698
G01 X115.2191 Y34.7261
G01 X131.4005 Y3.7342
G01 X131.4359 Y3.6624
G01 X131.4692 Y3.5861
G01 X131.5001 Y3.5045
G01 X131.5256 Y3.4257
G01 X131.5485 Y3.3410
G01 X131.5648 Y3.2673
G01 X131.5983 Y3.0979
G01 X131.6127 Y3.0138
G01 X131.6227 Y2.9339
G01 X131.6399 Y2.7621
G01 X131.6460 Y2.6817
G01 X131.6485 Y2.5965
G01 X131.6493 Y2.4238
G01 X131.6475 Y2.3385
G01 X131.6421 Y2.2581
G01 X131.6264 Y2.0862
G01 X131.6165 Y2.0014
G01 X131.6035 Y1.9219
G01 X131.5715 Y1.7523
G01 X131.5535 Y1.6688
G01 X131.5330 Y1.5910
G01 X131.4849 Y1.4251
G01 X131.4591 Y1.3438
G01 X131.4312 Y1.2682
G01 X131.3676 Y1.1077
G01 X131.3342 Y1.0292
G01 X131.2992 Y0.9567
G01 X131.2205 Y0.8029
G01 X131.1798 Y0.7280
G01 X131.1381 Y0.6591
G01 X131.0451 Y0.5136
G01 X130.9974 Y0.4428
G01 X130.9493 Y0.3782
G01 X130.8429 Y0.2422
G01 X130.7886 Y0.1764
G01 X130.7346 Y0.1166
G01 X130.6157 Y-0.0086
G01 X130.5554 Y-0.0690
G01 X130.4960 Y-0.1233
G01 X130.3657 Y-0.2366
G01 X130.2999 Y-0.2910
G01 X130.2355 Y-0.3394
G01 X130.0950 Y-0.4398
G01 X130.0244 Y-0.4876
G01 X129.9557 Y-0.5296
G01 X129.8063 Y-0.6162
G01 X129.7314 Y-0.6571
G01 X129.6590 Y-0.6924
G01 X129.5020 Y-0.7643
G01 X129.4236 Y-0.7979
G01 X129.3481 Y-0.8261
G01 X129.1850 Y-0.8827
G01 X129.1037 Y-0.9087
G01 X129.0260 Y-0.9296
G01 X128.8582 Y-0.9704
G01 X128.7748 Y-0.9885
G01 X128.6954 Y-1.0019
G01 X128.5244 Y-1.0265
G01 X128.4397 Y-1.0365
G01 X128.3594 Y-1.0423
G01 X128.1869 Y-1.0505
G01 X128.1450 Y-1.0520
G01 X128.1040 Y-1.0525
G01 X67.5684 Y-1.0525
G00 X67.5684 Y-1.0525
G01 F60.00
G01 Z-1.0000
G01 F50.00
G01 X128.1040 Y-1.0525
G01 X128.1450 Y-1.0520
G01 X128.1869 Y-1.0505
G01 X128.3594 Y-1.0423
G01 X128.4397 Y-1.0365
G01 X128.5244 Y-1.0265
G01 X128.6954 Y-1.0019
G01 X128.7748 Y-0.9885
G01 X128.8582 Y-0.9704
G01 X129.0260 Y-0.9296
G01 X129.1037 Y-0.9087
G01 X129.1850 Y-0.8827
G01 X129.3481 Y-0.8261
G01 X129.4236 Y-0.7979
G01 X129.5020 Y-0.7643
G01 X129.6590 Y-0.6924
G01 X129.7314 Y-0.6571
G01 X129.8063 Y-0.6162
G01 X129.9557 Y-0.5296
G01 X130.0244 Y-0.4876
G01 X130.0950 Y-0.4398
G01 X130.2355 Y-0.3394
G01 X130.2999 Y-0.2910
G01 X130.3657 Y-0.2366
G01 X130.4960 Y-0.1233
G01 X130.5554 Y-0.0690
G01 X130.6157 Y-0.0086
G01 X130.7346 Y0.1166
G01 X130.7886 Y0.1764
G01 X130.8429 Y0.2422
G01 X130.9493 Y0.3782
G01 X130.9974 Y0.4428
G01 X131.0451 Y0.5136
G01 X131.1381 Y0.6591
G01 X131.1798 Y0.7280
G01 X131.2205 Y0.8029
G01 X131.2992 Y0.9567
G01 X131.3342 Y1.0292
G01 X131.3676 Y1.1077
G01 X131.4312 Y1.2682
G01 X131.4591 Y1.3438
G01 X131.4849 Y1.4251
G01 X131.5330 Y1.5910
G01 X131.5535 Y1.6688
G01 X131.5715 Y1.7523
G01 X131.6035 Y1.9219
G01 X131.6165 Y2.0014
G01 X131.6264 Y2.0862
G01 X131.6421 Y2.2581
G01 X131.6475 Y2.3385
G01 X131.6493 Y2.4238
G01 X131.6485 Y2.5965
G01 X131.6460 Y2.6817
G01 X131.6399 Y2.7621
G01 X131.6227 Y2.9339
G01 X131.6127 Y3.0138
G01 X131.5983 Y3.0979
G01 X131.5648 Y3.2673
G01 X131.5485 Y3.3410
G01 X131.5256 Y3.4257
G01 X131.5001 Y3.5045
G01 X131.4692 Y3.5861
G01 X131.4359 Y3.6624
G01 X131.4005 Y3.7342
G01 X115.2191 Y34.7261
G01 X115.1955 Y34.7698
G01 X115.1097 Y34.9232
G01 X115.0702 Y34.9902
G01 X115.0252 Y35.0593
G01 X114.9257 Y35.2041
G01 X114.8801 Y35.2672
G01 X114.8289 Y35.3319
G01 X114.7165 Y35.4669
G01 X114.6653 Y35.5255
G01 X114.6084 Y35.5852
G01 X114.4840 Y35.7093
G01 X114.4243 Y35.7661
G01 X114.3655 Y35.8171
G01 X114.2302 Y35.9292
G01 X114.1691 Y35.9775
G01 X114.1022 Y36.0257
G01 X113.9572 Y36.1248
G01 X113.8919 Y36.1673
G01 X113.8209 Y36.2091
G01 X113.6673 Y36.2944
G01 X113.5984 Y36.3307
G01 X113.5238 Y36.3658
G01 X113.3630 Y36.4366
G01 X113.2911 Y36.4664
G01 X113.2136 Y36.4945
G01 X113.0470 Y36.5502
G01 X112.9726 Y36.5732
G01 X112.8928 Y36.5940
G01 X112.7218 Y36.6342
G01 X112.6456 Y36.6502
G01 X112.5642 Y36.6636
G01 X112.3902 Y36.6878
G01 X112.3129 Y36.6968
G01 X112.2306 Y36.7026
G01 X112.0551 Y36.7107
G01 X112.0139 Y36.7121
G01 X111.9750 Y36.7125
G01 X67.5684 Y36.7125
G00 X67.5684 Y36.7125
G01 F60.00
G01 Z-1.5000
G01 F50.00
G01 X111.9750 Y36.7125
G01 X112.0139 Y36.7121
G01 X112.0551 Y36.7107
G01 X112.2306 Y36.7026
G01 X112.3129 Y36.6968
G01 X112.3902 Y36.6878
G01 X112.5642 Y36.6636
G01 X112.6456 Y36.6502
G01 X112.7218 Y36.6342
G01 X112.8928 Y36.5940
G01 X112.9726 Y36.5732
G01 X113.0470 Y36.5502
G01 X113.2136 Y36.4945
G01 X113.2911 Y36.4664
G01 X113.3630 Y36.4366
G01 X113.5238 Y36.3658
G01 X113.5984 Y36.3307
G01 X113.6673 Y36.2944
G01 X113.8209 Y36.2091
G01 X113.8919 Y36.1673
G01 X113.9572 Y36.1248
G01 X114.1022 Y36.0257
G01 X114.1691 Y35.9775
G01 X114.2302 Y35.9292
G01 X114.3655 Y35.8171
G01 X114.4243 Y35.7661
G01 X114.4840 Y35.7093
G01 X114.6084 Y35.5852
G01 X114.6653 Y35.5255
G01 X114.7165 Y35.4669
G01 X114.8289 Y35.3319
G01 X114.8801 Y35.2672
G01 X114.9257 Y35.2041
G01 X115.0252 Y35.0593
G01 X115.0702 Y34.9902
G01 X115.1097 Y34.9232
G01 X115.1955 Y34.7698
G01 X115.2191 Y34.7261
G01 X131.4005 Y3.7342
G01 X131.4359 Y3.6624
G01 X131.4692 Y3.5861
G01 X131.5001 Y3.5045
G01 X131.5256 Y3.4257
G01 X131.5485 Y3.3410
G01 X131.5648 Y3.2673
G01 X131.5983 Y3.0979
G01 X131.6127 Y3.0138
G01 X131.6227 Y2.9339
G01 X131.6399 Y2.7621
G01 X131.6460 Y2.6817
G01 X131.6485 Y2.5965
G01 X131.6493 Y2.4238
G01 X131.6475 Y2.3385
G01 X131.6421 Y2.2581
G01 X131.6264 Y2.0862
G01 X131.6165 Y2.0014
G01 X131.6035 Y1.9219
G01 X131.5715 Y1.7523
G01 X131.5535 Y1.6688
G01 X131.5330 Y1.5910
G01 X131.4849 Y1.4251
G01 X131.4591 Y1.3438
G01 X131.4312 Y1.2682
G01 X131.3676 Y1.1077
G01 X131.3342 Y1.0292
G01 X131.2992 Y0.9567
G01 X131.2205 Y0.8029
G01 X131.1798 Y0.7280
G01 X131.1381 Y0.6591
G01 X131.0451 Y0.5136
G01 X130.9974 Y0.4428
G01 X130.9493 Y0.3782
G01 X130.8429 Y0.2422
G01 X130.7886 Y0.1764
G01 X130.7346 Y0.1166
G01 X130.6157 Y-0.0086
G01 X130.5554 Y-0.0690
G01 X130.4960 Y-0.1233
G01 X130.3657 Y-0.2366
G01 X130.2999 Y-0.2910
G01 X130.2355 Y-0.3394
G01 X130.0950 Y-0.4398
G01 X130.0244 Y-0.4876
G01 X129.9557 Y-0.5296
G01 X129.8063 Y-0.6162
G01 X129.7314 Y-0.6571
G01 X129.6590 Y-0.6924
G01 X129.5020 Y-0.7643
G01 X129.4236 Y-0.7979
G01 X129.3481 Y-0.8261
G01 X129.1850 Y-0.8827
G01 X129.1037 Y-0.9087
G01 X129.0260 Y-0.9296
G01 X128.8582 Y-0.9704
G01 X128.7748 Y-0.9885
G01 X128.6954 Y-1.0019
G01 X128.5244 Y-1.0265
G01 X128.4397 Y-1.0365
G01 X128.3594 Y-1.0423
G01 X128.1869 Y-1.0505
G01 X128.1450 Y-1.0520
G01 X128.1040 Y-1.0525
G01 X67.5684 Y-1.0525
G00 X67.5684 Y-1.0525
G01 F60.00
G01 Z-2.0000
G01 F50.00
G01 X128.1040 Y-1.0525
G01 X128.1450 Y-1.0520
G01 X128.1869 Y-1.0505
G01 X128.3594 Y-1.0423
G01 X128.4397 Y-1.0365
G01 X128.5244 Y-1.0265
G01 X128.6954 Y-1.0019
G01 X128.7748 Y-0.9885
G01 X128.8582 Y-0.9704
G01 X129.0260 Y-0.9296
G01 X129.1037 Y-0.9087
G01 X129.1850 Y-0.8827
G01 X129.3481 Y-0.8261
G01 X129.4236 Y-0.7979
G01 X129.5020 Y-0.7643
G01 X129.6590 Y-0.6924
G01 X129.7314 Y-0.6571
G01 X129.8063 Y-0.6162
G01 X129.9557 Y-0.5296
G01 X130.0244 Y-0.4876
G01 X130.0950 Y-0.4398
G01 X130.2355 Y-0.3394
G01 X130.2999 Y-0.2910
G01 X130.3657 Y-0.2366
G01 X130.4960 Y-0.1233
G01 X130.5554 Y-0.0690
G01 X130.6157 Y-0.0086
G01 X130.7346 Y0.1166
G01 X130.7886 Y0.1764
G01 X130.8429 Y0.2422
G01 X130.9493 Y0.3782
G01 X130.9974 Y0.4428
G01 X131.0451 Y0.5136
G01 X131.1381 Y0.6591
G01 X131.1798 Y0.7280
G01 X131.2205 Y0.8029
G01 X131.2992 Y0.9567
G01 X131.3342 Y1.0292
G01 X131.3676 Y1.1077
G01 X131.4312 Y1.2682
G01 X131.4591 Y1.3438
G01 X131.4849 Y1.4251
G01 X131.5330 Y1.5910
G01 X131.5535 Y1.6688
G01 X131.5715 Y1.7523
G01 X131.6035 Y1.9219
G01 X131.6165 Y2.0014
G01 X131.6264 Y2.0862
G01 X131.6421 Y2.2581
G01 X131.6475 Y2.3385
G01 X131.6493 Y2.4238
G01 X131.6485 Y2.5965
G01 X131.6460 Y2.6817
G01 X131.6399 Y2.7621
G01 X131.6227 Y2.9339
G01 X131.6127 Y3.0138
G01 X131.5983 Y3.0979
G01 X131.5648 Y3.2673
G01 X131.5485 Y3.3410
G01 X131.5256 Y3.4257
G01 X131.5001 Y3.5045
G01 X131.4692 Y3.5861
G01 X131.4359 Y3.6624
G01 X131.4005 Y3.7342
G01 X115.2191 Y34.7261
G01 X115.1955 Y34.7698
G01 X115.1097 Y34.9232
G01 X115.0702 Y34.9902
G01 X115.0252 Y35.0593
G01 X114.9257 Y35.2041
G01 X114.8801 Y35.2672
G01 X114.8289 Y35.3319
G01 X114.7165 Y35.4669
G01 X114.6653 Y35.5255
G01 X114.6084 Y35.5852
G01 X114.4840 Y35.7093
G01 X114.4243 Y35.7661
G01 X114.3655 Y35.8171
G01 X114.2302 Y35.9292
G01 X114.1691 Y35.9775
G01 X114.1022 Y36.0257
G01 X113.9572 Y36.1248
G01 X113.8919 Y36.1673
G01 X113.8209 Y36.2091
G01 X113.6673 Y36.2944
G01 X113.5984 Y36.3307
G01 X113.5238 Y36.3658
G01 X113.3630 Y36.4366
G01 X113.2911 Y36.4664
G01 X113.2136 Y36.4945
G01 X113.0470 Y36.5502
G01 X112.9726 Y36.5732
G01 X112.8928 Y36.5940
G01 X112.7218 Y36.6342
G01 X112.6456 Y36.6502
G01 X112.5642 Y36.6636
G01 X112.3902 Y36.6878
G01 X112.3129 Y36.6968
G01 X112.2306 Y36.7026
G01 X112.0551 Y36.7107
G01 X112.0139 Y36.7121
G01 X111.9750 Y36.7125
G01 X67.5684 Y36.7125
G00 Z2.0000
G01 F50.00

M5
G00 Z15.0000
G00 X0.0000 Y0.0000
T9999
M6    
(MSG, Change to Tool Dia = 3.1750)
M0
G00 Z15.0000

M03
G01 F50.00
G00 X63.3934 Y-1.0525
G01 F60.00
G01 Z-0.5000
G01 F50.00
G01 X67.5684 Y-1.0525
G00 X67.5684 Y-1.0525
G01 F60.00
G01 Z-1.0000
G01 F50.00
G01 X63.3934 Y-1.0525
G00 X63.3934 Y-1.0525
G01 F60.00
G01 Z-1.5000
G01 F50.00
G01 X67.5684 Y-1.0525
G00 X67.5684 Y-1.0525
G01 F60.00
G01 Z-2.0000
G01 F50.00
G01 X63.3934 Y-1.0525
G00 Z2.0000
G00 X63.3934 Y36.7125
G01 F60.00
G01 Z-0.5000
G01 F50.00
G01 X67.5684 Y36.7125
G00 X67.5684 Y36.7125
G01 F60.00
G01 Z-1.0000
G01 F50.00
G01 X63.3934 Y36.7125
G00 X63.3934 Y36.7125
G01 F60.00
G01 Z-1.5000
G01 F50.00
G01 X67.5684 Y36.7125
G00 X67.5684 Y36.7125
G01 F60.00
G01 Z-2.0000
G01 F50.00
G01 X63.3934 Y36.7125
G00 Z2.0000
M05
G00 Z2.0000
G00 Z20.00


