(G-CODE GENERATED BY FLATCAM v8.994 - www.flatcam.org - Version Date: 2020/11/7)

(Name: clickyKeyboard-B_Cu.gbr_iso_combined_cnc)
(Type: G-code from Geometry)
(Units: MM)

(Created on Friday, 01 September 2023 at 10:59)

(This preprocessor is the default preprocessor used by FlatCAM.)
(It is made to work with MACH3 compatible motion controllers.)

(TOOL DIAMETER: 0.1996 mm)
(Feedrate_XY: 100.0 mm/min)
(Feedrate_Z: 90.0 mm/min)
(Feedrate rapids 1500.0 mm/min)

(Z_Cut: -0.1859 mm)
(Z_Move: 2.0 mm)
(Z Start: None mm)
(Z End: 20.0 mm)
(X,Y End: None mm)
(Steps per circle: 64)
(Preprocessor Geometry: default)

(X range:    0.4713 ...  130.2891  mm)
(Y range:    0.3063 ...   35.3537  mm)

(Spindle Speed: 0.0 RPM)
G21
G90
G94

G01 F100.00

M5
G00 Z15.0000
G00 X0.0000 Y0.0000
T1
M6    
(MSG, Change to Tool Dia = 0.1996)
M0
G00 Z15.0000

M03
G01 F100.00
G00 X2.9058 Y4.4309
G01 F90.00
G01 Z-0.1859
G01 F100.00
G01 X2.9338 Y4.1762
G01 X2.9986 Y3.9282
G01 X3.0989 Y3.6924
G01 X3.2324 Y3.4736
G01 X3.3963 Y3.2766
G01 X3.5872 Y3.1056
G01 X3.8009 Y2.9642
G01 X4.0329 Y2.8554
G01 X4.2783 Y2.7816
G01 X4.5319 Y2.7443
G01 X4.7240 Y2.7443
G01 X4.9156 Y2.7583
G01 X5.1657 Y2.8140
G01 X5.4051 Y2.9056
G01 X5.6286 Y3.0310
G01 X5.8314 Y3.1876
G01 X6.0093 Y3.3721
G01 X6.1584 Y3.5805
G01 X6.2756 Y3.8084
G01 X6.3583 Y4.0510
G01 X6.4049 Y4.3030
G01 X6.4142 Y4.5591
G01 X6.3862 Y4.8138
G01 X6.3214 Y5.0618
G01 X6.2211 Y5.2976
G01 X6.0876 Y5.5164
G01 X5.9237 Y5.7134
G01 X5.7328 Y5.8844
G01 X5.5191 Y6.0258
G01 X5.2871 Y6.1346
G01 X5.0417 Y6.2084
G01 X4.7881 Y6.2457
G01 X4.5960 Y6.2457
G01 X4.4044 Y6.2317
G01 X4.1543 Y6.1760
G01 X3.9149 Y6.0844
G01 X3.6914 Y5.9590
G01 X3.4886 Y5.8024
G01 X3.3107 Y5.6179
G01 X3.1616 Y5.4095
G01 X3.0444 Y5.1816
G01 X2.9617 Y4.9390
G01 X2.9151 Y4.6870
G01 X2.9058 Y4.4309
G00 Z2.0000
G00 X3.0458 Y4.4360
G01 F90.00
G01 Z-0.1859
G01 F100.00
G01 X3.0716 Y4.2016
G01 X3.1312 Y3.9735
G01 X3.2235 Y3.7564
G01 X3.3463 Y3.5551
G01 X3.4971 Y3.3739
G01 X3.6728 Y3.2165
G01 X3.8694 Y3.0864
G01 X4.0830 Y2.9863
G01 X4.3088 Y2.9184
G01 X4.5421 Y2.8840
G01 X4.7189 Y2.8840
G01 X4.8952 Y2.8969
G01 X5.1254 Y2.9482
G01 X5.3456 Y3.0324
G01 X5.5513 Y3.1479
G01 X5.7379 Y3.2920
G01 X5.9016 Y3.4617
G01 X6.0388 Y3.6535
G01 X6.1466 Y3.8632
G01 X6.2228 Y4.0864
G01 X6.2656 Y4.3183
G01 X6.2742 Y4.5540
G01 X6.2484 Y4.7884
G01 X6.1888 Y5.0165
G01 X6.0965 Y5.2336
G01 X5.9737 Y5.4349
G01 X5.8229 Y5.6161
G01 X5.6472 Y5.7735
G01 X5.4506 Y5.9036
G01 X5.2370 Y6.0037
G01 X5.0112 Y6.0716
G01 X4.7779 Y6.1060
G01 X4.6011 Y6.1060
G01 X4.4248 Y6.0931
G01 X4.1946 Y6.0418
G01 X3.9744 Y5.9576
G01 X3.7687 Y5.8421
G01 X3.5821 Y5.6980
G01 X3.4184 Y5.5283
G01 X3.2812 Y5.3365
G01 X3.1734 Y5.1268
G01 X3.0972 Y4.9036
G01 X3.0544 Y4.6717
G01 X3.0458 Y4.4360
G00 Z2.0000
G00 X3.1858 Y4.4411
G01 F90.00
G01 Z-0.1859
G01 F100.00
G01 X3.2093 Y4.2271
G01 X3.2638 Y4.0187
G01 X3.3480 Y3.8205
G01 X3.4602 Y3.6366
G01 X3.5980 Y3.4711
G01 X3.7584 Y3.3274
G01 X3.9380 Y3.2086
G01 X4.1330 Y3.1171
G01 X4.3392 Y3.0551
G01 X4.5523 Y3.0237
G01 X4.7138 Y3.0237
G01 X4.8748 Y3.0355
G01 X5.0850 Y3.0823
G01 X5.2862 Y3.1593
G01 X5.4740 Y3.2647
G01 X5.6444 Y3.3963
G01 X5.7939 Y3.5514
G01 X5.9192 Y3.7265
G01 X6.0177 Y3.9180
G01 X6.0872 Y4.1219
G01 X6.1263 Y4.3337
G01 X6.1342 Y4.5489
G01 X6.1107 Y4.7630
G01 X6.0562 Y4.9713
G01 X5.9720 Y5.1695
G01 X5.8598 Y5.3534
G01 X5.7220 Y5.5189
G01 X5.5616 Y5.6626
G01 X5.3820 Y5.7814
G01 X5.1870 Y5.8729
G01 X4.9808 Y5.9349
G01 X4.7677 Y5.9663
G01 X4.6062 Y5.9663
G01 X4.4452 Y5.9545
G01 X4.2350 Y5.9077
G01 X4.0338 Y5.8307
G01 X3.8460 Y5.7253
G01 X3.6756 Y5.5937
G01 X3.5261 Y5.4387
G01 X3.4008 Y5.2635
G01 X3.3023 Y5.0720
G01 X3.2328 Y4.8681
G01 X3.1937 Y4.6563
G01 X3.1858 Y4.4411
G00 Z2.0000
G00 X1.8055 Y16.5600
G01 F90.00
G01 Z-0.1859
G01 F100.00
G01 X1.8185 Y16.4284
G01 X1.8568 Y16.3019
G01 X1.9192 Y16.1853
G01 X2.0030 Y16.0831
G01 X2.1053 Y15.9992
G01 X2.2219 Y15.9368
G01 X2.3484 Y15.8985
G01 X2.4470 Y15.8887
G01 X2.5130 Y15.8887
G01 X2.6116 Y15.8985
G01 X2.7381 Y15.9368
G01 X2.8547 Y15.9992
G01 X2.9569 Y16.0831
G01 X3.0408 Y16.1853
G01 X3.1032 Y16.3019
G01 X3.1415 Y16.4284
G01 X3.1545 Y16.5600
G01 X3.1415 Y16.6916
G01 X3.1032 Y16.8181
G01 X3.0408 Y16.9347
G01 X2.9569 Y17.0370
G01 X2.8547 Y17.1208
G01 X2.7381 Y17.1832
G01 X2.6116 Y17.2215
G01 X2.5130 Y17.2313
G01 X2.4470 Y17.2313
G01 X2.3484 Y17.2215
G01 X2.2219 Y17.1832
G01 X2.1053 Y17.1208
G01 X2.0030 Y17.0369
G01 X1.9192 Y16.9347
G01 X1.8568 Y16.8181
G01 X1.8185 Y16.6916
G01 X1.8055 Y16.5600
G00 Z2.0000
G00 X1.6651 Y16.5600
G01 F90.00
G01 Z-0.1859
G01 F100.00
G01 X1.6808 Y16.4010
G01 X1.7271 Y16.2482
G01 X1.8024 Y16.1073
G01 X1.9038 Y15.9838
G01 X2.0273 Y15.8824
G01 X2.1681 Y15.8071
G01 X2.3210 Y15.7608
G01 X2.4402 Y15.7490
G01 X2.5198 Y15.7490
G01 X2.6390 Y15.7608
G01 X2.7919 Y15.8071
G01 X2.9327 Y15.8824
G01 X3.0562 Y15.9838
G01 X3.1576 Y16.1073
G01 X3.2329 Y16.2481
G01 X3.2792 Y16.4010
G01 X3.2949 Y16.5600
G01 X3.2792 Y16.7190
G01 X3.2329 Y16.8719
G01 X3.1576 Y17.0127
G01 X3.0562 Y17.1362
G01 X2.9327 Y17.2376
G01 X2.7918 Y17.3129
G01 X2.6390 Y17.3592
G01 X2.5198 Y17.3710
G01 X2.4402 Y17.3710
G01 X2.3210 Y17.3592
G01 X2.1681 Y17.3129
G01 X2.0273 Y17.2376
G01 X1.9038 Y17.1362
G01 X1.8024 Y17.0127
G01 X1.7271 Y16.8719
G01 X1.6808 Y16.7190
G01 X1.6651 Y16.5600
G00 Z2.0000
G00 X1.5247 Y16.5600
G01 F90.00
G01 Z-0.1859
G01 F100.00
G01 X1.5431 Y16.3736
G01 X1.5974 Y16.1944
G01 X1.6857 Y16.0293
G01 X1.8045 Y15.8845
G01 X1.9493 Y15.7657
G01 X2.1144 Y15.6774
G01 X2.2936 Y15.6231
G01 X2.4333 Y15.6093
G01 X2.5267 Y15.6093
G01 X2.6664 Y15.6231
G01 X2.8456 Y15.6774
G01 X3.0107 Y15.7657
G01 X3.1555 Y15.8845
G01 X3.2743 Y16.0293
G01 X3.3626 Y16.1944
G01 X3.4169 Y16.3736
G01 X3.4353 Y16.5600
G01 X3.4169 Y16.7464
G01 X3.3626 Y16.9256
G01 X3.2743 Y17.0907
G01 X3.1555 Y17.2355
G01 X3.0107 Y17.3543
G01 X2.8456 Y17.4426
G01 X2.6664 Y17.4969
G01 X2.5267 Y17.5107
G01 X2.4333 Y17.5107
G01 X2.2936 Y17.4969
G01 X2.1144 Y17.4426
G01 X1.9493 Y17.3543
G01 X1.8045 Y17.2355
G01 X1.6857 Y17.0907
G01 X1.5974 Y16.9256
G01 X1.5431 Y16.7464
G01 X1.5247 Y16.5600
G00 Z2.0000
G00 X8.5247 Y16.5600
G01 F90.00
G01 Z-0.1859
G01 F100.00
G01 X8.5431 Y16.3736
G01 X8.5974 Y16.1944
G01 X8.6857 Y16.0293
G01 X8.8045 Y15.8845
G01 X8.9493 Y15.7657
G01 X9.1144 Y15.6774
G01 X9.2936 Y15.6231
G01 X9.4333 Y15.6093
G01 X9.5267 Y15.6093
G01 X9.6664 Y15.6231
G01 X9.8456 Y15.6774
G01 X10.0107 Y15.7657
G01 X10.1555 Y15.8845
G01 X10.2743 Y16.0293
G01 X10.3626 Y16.1944
G01 X10.4169 Y16.3736
G01 X10.4353 Y16.5600
G01 X10.4169 Y16.7464
G01 X10.3626 Y16.9256
G01 X10.2743 Y17.0907
G01 X10.1555 Y17.2355
G01 X10.0107 Y17.3543
G01 X9.8456 Y17.4426
G01 X9.6664 Y17.4969
G01 X9.5267 Y17.5107
G01 X9.4333 Y17.5107
G01 X9.2936 Y17.4969
G01 X9.1144 Y17.4426
G01 X8.9493 Y17.3543
G01 X8.8045 Y17.2355
G01 X8.6857 Y17.0907
G01 X8.5974 Y16.9256
G01 X8.5431 Y16.7464
G01 X8.5247 Y16.5600
G00 Z2.0000
G00 X8.6651 Y16.5600
G01 F90.00
G01 Z-0.1859
G01 F100.00
G01 X8.6808 Y16.4010
G01 X8.7271 Y16.2482
G01 X8.8024 Y16.1073
G01 X8.9038 Y15.9838
G01 X9.0273 Y15.8824
G01 X9.1681 Y15.8071
G01 X9.3210 Y15.7608
G01 X9.4402 Y15.7490
G01 X9.5198 Y15.7490
G01 X9.6390 Y15.7608
G01 X9.7919 Y15.8071
G01 X9.9327 Y15.8824
G01 X10.0562 Y15.9838
G01 X10.1576 Y16.1073
G01 X10.2329 Y16.2481
G01 X10.2792 Y16.4010
G01 X10.2949 Y16.5600
G01 X10.2792 Y16.7190
G01 X10.2329 Y16.8719
G01 X10.1576 Y17.0127
G01 X10.0562 Y17.1362
G01 X9.9327 Y17.2376
G01 X9.7918 Y17.3129
G01 X9.6390 Y17.3592
G01 X9.5198 Y17.3710
G01 X9.4402 Y17.3710
G01 X9.3210 Y17.3592
G01 X9.1681 Y17.3129
G01 X9.0273 Y17.2376
G01 X8.9038 Y17.1362
G01 X8.8024 Y17.0127
G01 X8.7271 Y16.8719
G01 X8.6808 Y16.7190
G01 X8.6651 Y16.5600
G00 Z2.0000
G00 X8.8055 Y16.5600
G01 F90.00
G01 Z-0.1859
G01 F100.00
G01 X8.8185 Y16.4284
G01 X8.8568 Y16.3019
G01 X8.9192 Y16.1853
G01 X9.0030 Y16.0831
G01 X9.1053 Y15.9992
G01 X9.2219 Y15.9368
G01 X9.3484 Y15.8985
G01 X9.4470 Y15.8887
G01 X9.5130 Y15.8887
G01 X9.6116 Y15.8985
G01 X9.7381 Y15.9368
G01 X9.8547 Y15.9992
G01 X9.9569 Y16.0831
G01 X10.0408 Y16.1853
G01 X10.1032 Y16.3019
G01 X10.1415 Y16.4284
G01 X10.1545 Y16.5600
G01 X10.1415 Y16.6916
G01 X10.1032 Y16.8181
G01 X10.0408 Y16.9347
G01 X9.9569 Y17.0370
G01 X9.8547 Y17.1208
G01 X9.7381 Y17.1832
G01 X9.6116 Y17.2215
G01 X9.5130 Y17.2313
G01 X9.4470 Y17.2313
G01 X9.3484 Y17.2215
G01 X9.2219 Y17.1832
G01 X9.1053 Y17.1208
G01 X9.0030 Y17.0369
G01 X8.9192 Y16.9347
G01 X8.8568 Y16.8181
G01 X8.8185 Y16.6916
G01 X8.8055 Y16.5600
G00 Z2.0000
G00 X6.5768 Y25.7808
G01 F90.00
G01 Z-0.1859
G01 F100.00
G01 X6.6571 Y25.7850
G01 X6.6688 Y25.7864
G01 X6.7483 Y25.7985
G01 X6.8264 Y25.8178
G01 X6.8377 Y25.8209
G01 X6.8489 Y25.8246
G01 X6.9245 Y25.8520
G01 X6.9974 Y25.8861
G01 X7.0079 Y25.8914
G01 X7.0181 Y25.8972
G01 X7.0870 Y25.9388
G01 X7.1518 Y25.9865
G01 X7.1610 Y25.9937
G01 X7.2208 Y26.0476
G01 X7.2293 Y26.0557
G01 X7.2374 Y26.0642
G01 X7.2913 Y26.1240
G01 X7.3394 Y26.1884
G01 X7.3462 Y26.1980
G01 X7.3525 Y26.2080
G01 X7.3936 Y26.2771
G01 X7.4282 Y26.3497
G01 X7.4330 Y26.3605
G01 X7.4372 Y26.3714
G01 X7.4641 Y26.4473
G01 X7.4672 Y26.4586
G01 X7.4865 Y26.5367
G01 X7.4986 Y26.6162
G01 X7.5000 Y26.6279
G01 X7.5042 Y26.7082
G01 X7.5045 Y26.7200
G01 X7.5042 Y26.7318
G01 X7.5000 Y26.8121
G01 X7.4986 Y26.8238
G01 X7.4865 Y26.9033
G01 X7.4672 Y26.9814
G01 X7.4641 Y26.9927
G01 X7.4604 Y27.0039
G01 X7.4330 Y27.0795
G01 X7.3989 Y27.1524
G01 X7.3936 Y27.1629
G01 X7.3878 Y27.1731
G01 X7.3462 Y27.2420
G01 X7.2985 Y27.3068
G01 X7.2913 Y27.3160
G01 X7.2374 Y27.3758
G01 X7.2293 Y27.3843
G01 X7.2208 Y27.3924
G01 X7.1610 Y27.4463
G01 X7.0966 Y27.4944
G01 X7.0870 Y27.5012
G01 X7.0770 Y27.5075
G01 X7.0079 Y27.5486
G01 X6.9353 Y27.5832
G01 X6.9245 Y27.5880
G01 X6.9136 Y27.5922
G01 X6.8377 Y27.6191
G01 X6.7598 Y27.6389
G01 X6.7483 Y27.6415
G01 X6.6688 Y27.6536
G01 X6.6571 Y27.6550
G01 X6.5768 Y27.6592
G01 X6.5650 Y27.6595
G01 X6.5532 Y27.6592
G01 X6.4729 Y27.6550
G01 X6.4612 Y27.6536
G01 X6.3817 Y27.6415
G01 X6.3036 Y27.6222
G01 X6.2923 Y27.6191
G01 X6.2811 Y27.6154
G01 X6.2055 Y27.5880
G01 X6.1326 Y27.5539
G01 X6.1221 Y27.5486
G01 X6.1119 Y27.5428
G01 X6.0430 Y27.5012
G01 X5.9782 Y27.4535
G01 X5.9690 Y27.4463
G01 X5.9092 Y27.3924
G01 X5.9007 Y27.3843
G01 X5.8926 Y27.3758
G01 X5.8387 Y27.3160
G01 X5.7906 Y27.2516
G01 X5.7838 Y27.2420
G01 X5.7775 Y27.2320
G01 X5.7364 Y27.1629
G01 X5.7018 Y27.0903
G01 X5.6970 Y27.0795
G01 X5.6928 Y27.0686
G01 X5.6659 Y26.9927
G01 X5.6461 Y26.9148
G01 X5.6435 Y26.9033
G01 X5.6415 Y26.8917
G01 X5.6300 Y26.8121
G01 X5.6258 Y26.7318
G01 X5.6255 Y26.7200
G01 X5.6258 Y26.7082
G01 X5.6300 Y26.6279
G01 X5.6314 Y26.6162
G01 X5.6435 Y26.5367
G01 X5.6628 Y26.4586
G01 X5.6659 Y26.4473
G01 X5.6696 Y26.4361
G01 X5.6970 Y26.3605
G01 X5.7311 Y26.2876
G01 X5.7364 Y26.2771
G01 X5.7422 Y26.2669
G01 X5.7838 Y26.1980
G01 X5.8315 Y26.1332
G01 X5.8387 Y26.1240
G01 X5.8926 Y26.0642
G01 X5.9007 Y26.0557
G01 X5.9092 Y26.0476
G01 X5.9690 Y25.9937
G01 X6.0334 Y25.9456
G01 X6.0430 Y25.9388
G01 X6.0530 Y25.9325
G01 X6.1221 Y25.8914
G01 X6.1947 Y25.8568
G01 X6.2055 Y25.8520
G01 X6.2164 Y25.8478
G01 X6.2923 Y25.8209
G01 X6.3702 Y25.8011
G01 X6.3817 Y25.7985
G01 X6.3933 Y25.7965
G01 X6.4729 Y25.7850
G01 X6.5532 Y25.7808
G01 X6.5650 Y25.7805
G01 X6.5768 Y25.7808
G00 Z2.0000
G00 X6.5699 Y25.9203
G01 F90.00
G01 Z-0.1859
G01 F100.00
G01 X6.6434 Y25.9241
G01 X6.7210 Y25.9356
G01 X6.7972 Y25.9546
G01 X6.8711 Y25.9811
G01 X6.9420 Y26.0146
G01 X7.0093 Y26.0550
G01 X7.0724 Y26.1017
G01 X7.1305 Y26.1545
G01 X7.1833 Y26.2126
G01 X7.2300 Y26.2757
G01 X7.2704 Y26.3430
G01 X7.3039 Y26.4139
G01 X7.3304 Y26.4878
G01 X7.3494 Y26.5640
G01 X7.3609 Y26.6416
G01 X7.3648 Y26.7200
G01 X7.3609 Y26.7984
G01 X7.3494 Y26.8760
G01 X7.3304 Y26.9522
G01 X7.3039 Y27.0261
G01 X7.2704 Y27.0970
G01 X7.2300 Y27.1643
G01 X7.1833 Y27.2274
G01 X7.1305 Y27.2855
G01 X7.0724 Y27.3383
G01 X7.0093 Y27.3850
G01 X6.9420 Y27.4254
G01 X6.8711 Y27.4589
G01 X6.7972 Y27.4854
G01 X6.7210 Y27.5044
G01 X6.6434 Y27.5159
G01 X6.5650 Y27.5198
G01 X6.4866 Y27.5159
G01 X6.4090 Y27.5044
G01 X6.3328 Y27.4854
G01 X6.2589 Y27.4589
G01 X6.1880 Y27.4254
G01 X6.1207 Y27.3850
G01 X6.0576 Y27.3383
G01 X5.9995 Y27.2855
G01 X5.9467 Y27.2274
G01 X5.9000 Y27.1643
G01 X5.8596 Y27.0970
G01 X5.8261 Y27.0261
G01 X5.7996 Y26.9522
G01 X5.7806 Y26.8760
G01 X5.7691 Y26.7984
G01 X5.7652 Y26.7200
G01 X5.7691 Y26.6416
G01 X5.7806 Y26.5640
G01 X5.7996 Y26.4878
G01 X5.8261 Y26.4139
G01 X5.8596 Y26.3430
G01 X5.9000 Y26.2757
G01 X5.9467 Y26.2126
G01 X5.9995 Y26.1545
G01 X6.0576 Y26.1017
G01 X6.1207 Y26.0550
G01 X6.1880 Y26.0146
G01 X6.2589 Y25.9811
G01 X6.3328 Y25.9546
G01 X6.4090 Y25.9356
G01 X6.4866 Y25.9241
G01 X6.5601 Y25.9203
G01 X6.5699 Y25.9203
G00 Z2.0000
G00 X5.5999 Y26.7200
G01 F90.00
G01 Z-0.1859
G01 F100.00
G01 X5.6163 Y26.5427
G01 X5.6651 Y26.3714
G01 X5.7445 Y26.2119
G01 X5.8518 Y26.0698
G01 X5.9834 Y25.9498
G01 X6.1348 Y25.8561
G01 X6.3009 Y25.7917
G01 X6.4760 Y25.7590
G01 X6.6540 Y25.7590
G01 X6.8291 Y25.7917
G01 X6.9952 Y25.8561
G01 X7.1466 Y25.9498
G01 X7.2782 Y26.0698
G01 X7.3855 Y26.2119
G01 X7.4649 Y26.3714
G01 X7.5137 Y26.5427
G01 X7.5301 Y26.7200
G01 X7.5137 Y26.8973
G01 X7.4649 Y27.0686
G01 X7.3855 Y27.2281
G01 X7.2782 Y27.3702
G01 X7.1466 Y27.4902
G01 X6.9952 Y27.5839
G01 X6.8291 Y27.6483
G01 X6.6540 Y27.6810
G01 X6.4760 Y27.6810
G01 X6.3009 Y27.6483
G01 X6.1904 Y27.6054
G01 X6.1348 Y27.5839
G01 X5.9834 Y27.4902
G01 X5.8518 Y27.3702
G01 X5.7445 Y27.2281
G01 X5.6651 Y27.0686
G01 X5.6163 Y26.8973
G01 X5.5999 Y26.7200
G00 Z2.0000
G00 X5.4596 Y26.7200
G01 F90.00
G01 Z-0.1859
G01 F100.00
G01 X5.4784 Y26.5169
G01 X5.5342 Y26.3207
G01 X5.6252 Y26.1381
G01 X5.7481 Y25.9753
G01 X5.8988 Y25.8379
G01 X6.0723 Y25.7305
G01 X6.2625 Y25.6568
G01 X6.4630 Y25.6193
G01 X6.6670 Y25.6193
G01 X6.8675 Y25.6568
G01 X7.0577 Y25.7305
G01 X7.2312 Y25.8379
G01 X7.3819 Y25.9753
G01 X7.5048 Y26.1381
G01 X7.5958 Y26.3207
G01 X7.6516 Y26.5169
G01 X7.6704 Y26.7200
G01 X7.6516 Y26.9231
G01 X7.5958 Y27.1193
G01 X7.5048 Y27.3019
G01 X7.3819 Y27.4647
G01 X7.2312 Y27.6021
G01 X7.0577 Y27.7095
G01 X6.8675 Y27.7832
G01 X6.6670 Y27.8207
G01 X6.4630 Y27.8207
G01 X6.2625 Y27.7832
G01 X6.1399 Y27.7357
G01 X6.0723 Y27.7095
G01 X5.8988 Y27.6021
G01 X5.7481 Y27.4647
G01 X5.6252 Y27.3019
G01 X5.5342 Y27.1193
G01 X5.4784 Y26.9231
G01 X5.4596 Y26.7200
G00 Z2.0000
G00 X13.0796 Y26.7200
G01 F90.00
G01 Z-0.1859
G01 F100.00
G01 X13.0984 Y26.5169
G01 X13.1542 Y26.3207
G01 X13.2452 Y26.1381
G01 X13.3681 Y25.9753
G01 X13.5188 Y25.8379
G01 X13.6923 Y25.7305
G01 X13.8825 Y25.6568
G01 X14.0830 Y25.6193
G01 X14.2870 Y25.6193
G01 X14.4875 Y25.6568
G01 X14.6777 Y25.7305
G01 X14.8512 Y25.8379
G01 X15.0019 Y25.9753
G01 X15.1248 Y26.1381
G01 X15.2158 Y26.3207
G01 X15.2716 Y26.5169
G01 X15.2904 Y26.7200
G01 X15.2716 Y26.9231
G01 X15.2158 Y27.1193
G01 X15.1248 Y27.3019
G01 X15.0019 Y27.4647
G01 X14.8512 Y27.6021
G01 X14.6777 Y27.7095
G01 X14.4875 Y27.7832
G01 X14.2870 Y27.8207
G01 X14.0830 Y27.8207
G01 X13.8825 Y27.7832
G01 X13.7599 Y27.7357
G01 X13.6923 Y27.7095
G01 X13.5188 Y27.6021
G01 X13.3681 Y27.4647
G01 X13.2452 Y27.3019
G01 X13.1542 Y27.1193
G01 X13.0984 Y26.9231
G01 X13.0796 Y26.7200
G00 Z2.0000
G00 X13.2199 Y26.7200
G01 F90.00
G01 Z-0.1859
G01 F100.00
G01 X13.2363 Y26.5427
G01 X13.2851 Y26.3714
G01 X13.3645 Y26.2119
G01 X13.4718 Y26.0698
G01 X13.6034 Y25.9498
G01 X13.7548 Y25.8561
G01 X13.9209 Y25.7917
G01 X14.0960 Y25.7590
G01 X14.2740 Y25.7590
G01 X14.4491 Y25.7917
G01 X14.6152 Y25.8561
G01 X14.7666 Y25.9498
G01 X14.8982 Y26.0698
G01 X15.0055 Y26.2119
G01 X15.0849 Y26.3714
G01 X15.1337 Y26.5427
G01 X15.1501 Y26.7200
G01 X15.1337 Y26.8973
G01 X15.0849 Y27.0686
G01 X15.0055 Y27.2281
G01 X14.8982 Y27.3702
G01 X14.7666 Y27.4902
G01 X14.6152 Y27.5839
G01 X14.4491 Y27.6483
G01 X14.2740 Y27.6810
G01 X14.0960 Y27.6810
G01 X13.9209 Y27.6483
G01 X13.8104 Y27.6054
G01 X13.7548 Y27.5839
G01 X13.6034 Y27.4902
G01 X13.4718 Y27.3702
G01 X13.3645 Y27.2281
G01 X13.2851 Y27.0686
G01 X13.2363 Y26.8973
G01 X13.2199 Y26.7200
G00 Z2.0000
G00 X14.9847 Y26.7249
G01 F90.00
G01 Z-0.1859
G01 F100.00
G01 X14.9809 Y26.7984
G01 X14.9694 Y26.8760
G01 X14.9504 Y26.9522
G01 X14.9239 Y27.0261
G01 X14.8904 Y27.0970
G01 X14.8500 Y27.1643
G01 X14.8033 Y27.2274
G01 X14.7505 Y27.2855
G01 X14.6924 Y27.3383
G01 X14.6293 Y27.3850
G01 X14.5620 Y27.4254
G01 X14.4911 Y27.4589
G01 X14.4172 Y27.4854
G01 X14.3410 Y27.5044
G01 X14.2634 Y27.5159
G01 X14.1850 Y27.5198
G01 X14.1066 Y27.5159
G01 X14.0290 Y27.5044
G01 X13.9528 Y27.4854
G01 X13.8789 Y27.4589
G01 X13.8080 Y27.4254
G01 X13.7407 Y27.3850
G01 X13.6776 Y27.3383
G01 X13.6195 Y27.2855
G01 X13.5667 Y27.2274
G01 X13.5200 Y27.1643
G01 X13.4796 Y27.0970
G01 X13.4461 Y27.0261
G01 X13.4196 Y26.9522
G01 X13.4006 Y26.8760
G01 X13.3891 Y26.7984
G01 X13.3852 Y26.7200
G01 X13.3891 Y26.6416
G01 X13.4006 Y26.5640
G01 X13.4196 Y26.4878
G01 X13.4461 Y26.4139
G01 X13.4796 Y26.3430
G01 X13.5200 Y26.2757
G01 X13.5667 Y26.2126
G01 X13.6195 Y26.1545
G01 X13.6776 Y26.1017
G01 X13.7407 Y26.0550
G01 X13.8080 Y26.0146
G01 X13.8789 Y25.9811
G01 X13.9528 Y25.9546
G01 X14.0290 Y25.9356
G01 X14.1066 Y25.9241
G01 X14.1850 Y25.9202
G01 X14.2634 Y25.9241
G01 X14.3410 Y25.9356
G01 X14.4172 Y25.9546
G01 X14.4911 Y25.9811
G01 X14.5620 Y26.0146
G01 X14.6293 Y26.0550
G01 X14.6924 Y26.1017
G01 X14.7505 Y26.1545
G01 X14.8033 Y26.2126
G01 X14.8500 Y26.2757
G01 X14.8904 Y26.3430
G01 X14.9239 Y26.4139
G01 X14.9504 Y26.4878
G01 X14.9694 Y26.5640
G01 X14.9809 Y26.6416
G01 X14.9847 Y26.7151
G01 X14.9847 Y26.7249
G00 Z2.0000
G00 X15.1242 Y26.7318
G01 F90.00
G01 Z-0.1859
G01 F100.00
G01 X15.1200 Y26.8121
G01 X15.1186 Y26.8238
G01 X15.1065 Y26.9033
G01 X15.0872 Y26.9814
G01 X15.0841 Y26.9927
G01 X15.0804 Y27.0039
G01 X15.0530 Y27.0795
G01 X15.0189 Y27.1524
G01 X15.0136 Y27.1629
G01 X15.0078 Y27.1731
G01 X14.9662 Y27.2420
G01 X14.9185 Y27.3068
G01 X14.9113 Y27.3160
G01 X14.8574 Y27.3758
G01 X14.8493 Y27.3843
G01 X14.8408 Y27.3924
G01 X14.7810 Y27.4463
G01 X14.7166 Y27.4944
G01 X14.7070 Y27.5012
G01 X14.6970 Y27.5075
G01 X14.6279 Y27.5486
G01 X14.5553 Y27.5832
G01 X14.5445 Y27.5880
G01 X14.5336 Y27.5922
G01 X14.4577 Y27.6191
G01 X14.3798 Y27.6389
G01 X14.3683 Y27.6415
G01 X14.2888 Y27.6536
G01 X14.2771 Y27.6550
G01 X14.1968 Y27.6592
G01 X14.1850 Y27.6595
G01 X14.1732 Y27.6592
G01 X14.0929 Y27.6550
G01 X14.0812 Y27.6536
G01 X14.0017 Y27.6415
G01 X13.9236 Y27.6222
G01 X13.9123 Y27.6191
G01 X13.8364 Y27.5922
G01 X13.8255 Y27.5880
G01 X13.7526 Y27.5539
G01 X13.7421 Y27.5486
G01 X13.7319 Y27.5428
G01 X13.6630 Y27.5012
G01 X13.5982 Y27.4535
G01 X13.5890 Y27.4463
G01 X13.5292 Y27.3924
G01 X13.5207 Y27.3843
G01 X13.5126 Y27.3758
G01 X13.4587 Y27.3160
G01 X13.4106 Y27.2516
G01 X13.4038 Y27.2420
G01 X13.3975 Y27.2320
G01 X13.3564 Y27.1629
G01 X13.3218 Y27.0903
G01 X13.3170 Y27.0795
G01 X13.3128 Y27.0686
G01 X13.2859 Y26.9927
G01 X13.2661 Y26.9148
G01 X13.2635 Y26.9033
G01 X13.2514 Y26.8238
G01 X13.2500 Y26.8121
G01 X13.2458 Y26.7318
G01 X13.2455 Y26.7200
G01 X13.2458 Y26.7082
G01 X13.2500 Y26.6279
G01 X13.2514 Y26.6162
G01 X13.2635 Y26.5367
G01 X13.2828 Y26.4586
G01 X13.2859 Y26.4473
G01 X13.2896 Y26.4361
G01 X13.3170 Y26.3605
G01 X13.3511 Y26.2876
G01 X13.3564 Y26.2771
G01 X13.3622 Y26.2669
G01 X13.4038 Y26.1980
G01 X13.4515 Y26.1332
G01 X13.4587 Y26.1240
G01 X13.5126 Y26.0642
G01 X13.5207 Y26.0557
G01 X13.5292 Y26.0476
G01 X13.5890 Y25.9937
G01 X13.6534 Y25.9456
G01 X13.6630 Y25.9388
G01 X13.6730 Y25.9325
G01 X13.7421 Y25.8914
G01 X13.8147 Y25.8568
G01 X13.8255 Y25.8520
G01 X13.8364 Y25.8478
G01 X13.9123 Y25.8209
G01 X13.9902 Y25.8011
G01 X14.0017 Y25.7985
G01 X14.0812 Y25.7864
G01 X14.0929 Y25.7850
G01 X14.1732 Y25.7808
G01 X14.1850 Y25.7805
G01 X14.1968 Y25.7808
G01 X14.2771 Y25.7850
G01 X14.2888 Y25.7864
G01 X14.3683 Y25.7985
G01 X14.4464 Y25.8178
G01 X14.4577 Y25.8209
G01 X14.5336 Y25.8478
G01 X14.5445 Y25.8520
G01 X14.6174 Y25.8861
G01 X14.6279 Y25.8914
G01 X14.6381 Y25.8972
G01 X14.7070 Y25.9388
G01 X14.7718 Y25.9865
G01 X14.7810 Y25.9937
G01 X14.8408 Y26.0476
G01 X14.8493 Y26.0557
G01 X14.8574 Y26.0642
G01 X14.9113 Y26.1240
G01 X14.9594 Y26.1884
G01 X14.9662 Y26.1980
G01 X14.9725 Y26.2080
G01 X15.0136 Y26.2771
G01 X15.0482 Y26.3497
G01 X15.0530 Y26.3605
G01 X15.0572 Y26.3714
G01 X15.0841 Y26.4473
G01 X15.0872 Y26.4586
G01 X15.1065 Y26.5367
G01 X15.1085 Y26.5483
G01 X15.1200 Y26.6279
G01 X15.1242 Y26.7082
G01 X15.1245 Y26.7200
G01 X15.1242 Y26.7318
G00 Z2.0000
G00 X17.5246 Y26.7200
G01 F90.00
G01 Z-0.1859
G01 F100.00
G01 X17.5434 Y26.5169
G01 X17.5992 Y26.3207
G01 X17.6902 Y26.1381
G01 X17.8131 Y25.9753
G01 X17.9638 Y25.8379
G01 X18.1373 Y25.7305
G01 X18.3275 Y25.6568
G01 X18.5280 Y25.6193
G01 X18.7320 Y25.6193
G01 X18.9325 Y25.6568
G01 X19.1227 Y25.7305
G01 X19.2962 Y25.8379
G01 X19.4469 Y25.9753
G01 X19.5698 Y26.1381
G01 X19.6608 Y26.3207
G01 X19.7166 Y26.5169
G01 X19.7354 Y26.7200
G01 X19.7166 Y26.9231
G01 X19.6608 Y27.1193
G01 X19.5698 Y27.3019
G01 X19.4469 Y27.4647
G01 X19.2962 Y27.6021
G01 X19.1227 Y27.7095
G01 X18.9325 Y27.7832
G01 X18.7320 Y27.8207
G01 X18.5280 Y27.8207
G01 X18.3275 Y27.7832
G01 X18.2049 Y27.7357
G01 X18.1373 Y27.7095
G01 X17.9638 Y27.6021
G01 X17.8131 Y27.4647
G01 X17.6902 Y27.3019
G01 X17.5992 Y27.1193
G01 X17.5434 Y26.9231
G01 X17.5246 Y26.7200
G00 Z2.0000
G00 X17.6649 Y26.7200
G01 F90.00
G01 Z-0.1859
G01 F100.00
G01 X17.6813 Y26.5427
G01 X17.7301 Y26.3714
G01 X17.8095 Y26.2119
G01 X17.9168 Y26.0698
G01 X18.0484 Y25.9498
G01 X18.1998 Y25.8561
G01 X18.3659 Y25.7917
G01 X18.5410 Y25.7590
G01 X18.7190 Y25.7590
G01 X18.8941 Y25.7917
G01 X19.0602 Y25.8561
G01 X19.2116 Y25.9498
G01 X19.3432 Y26.0698
G01 X19.4505 Y26.2119
G01 X19.5299 Y26.3714
G01 X19.5787 Y26.5427
G01 X19.5951 Y26.7200
G01 X19.5787 Y26.8973
G01 X19.5299 Y27.0686
G01 X19.4505 Y27.2281
G01 X19.3432 Y27.3702
G01 X19.2116 Y27.4902
G01 X19.0602 Y27.5839
G01 X18.8941 Y27.6483
G01 X18.7190 Y27.6810
G01 X18.5410 Y27.6810
G01 X18.3659 Y27.6483
G01 X18.2554 Y27.6054
G01 X18.1998 Y27.5839
G01 X18.0484 Y27.4902
G01 X17.9168 Y27.3702
G01 X17.8095 Y27.2281
G01 X17.7301 Y27.0686
G01 X17.6813 Y26.8973
G01 X17.6649 Y26.7200
G00 Z2.0000
G00 X19.4297 Y26.7249
G01 F90.00
G01 Z-0.1859
G01 F100.00
G01 X19.4259 Y26.7984
G01 X19.4144 Y26.8760
G01 X19.3954 Y26.9522
G01 X19.3689 Y27.0261
G01 X19.3354 Y27.0970
G01 X19.2950 Y27.1643
G01 X19.2483 Y27.2274
G01 X19.1955 Y27.2855
G01 X19.1374 Y27.3383
G01 X19.0743 Y27.3850
G01 X19.0070 Y27.4254
G01 X18.9361 Y27.4589
G01 X18.8622 Y27.4854
G01 X18.7860 Y27.5044
G01 X18.7084 Y27.5159
G01 X18.6300 Y27.5198
G01 X18.5516 Y27.5159
G01 X18.4740 Y27.5044
G01 X18.3978 Y27.4854
G01 X18.3239 Y27.4589
G01 X18.2530 Y27.4254
G01 X18.1857 Y27.3850
G01 X18.1226 Y27.3383
G01 X18.0645 Y27.2855
G01 X18.0117 Y27.2274
G01 X17.9650 Y27.1643
G01 X17.9246 Y27.0970
G01 X17.8911 Y27.0261
G01 X17.8646 Y26.9522
G01 X17.8456 Y26.8760
G01 X17.8341 Y26.7984
G01 X17.8302 Y26.7200
G01 X17.8341 Y26.6416
G01 X17.8456 Y26.5640
G01 X17.8646 Y26.4878
G01 X17.8911 Y26.4139
G01 X17.9246 Y26.3430
G01 X17.9650 Y26.2757
G01 X18.0117 Y26.2126
G01 X18.0645 Y26.1545
G01 X18.1226 Y26.1017
G01 X18.1857 Y26.0550
G01 X18.2530 Y26.0146
G01 X18.3239 Y25.9811
G01 X18.3978 Y25.9546
G01 X18.4740 Y25.9356
G01 X18.5516 Y25.9241
G01 X18.6300 Y25.9202
G01 X18.7084 Y25.9241
G01 X18.7860 Y25.9356
G01 X18.8622 Y25.9546
G01 X18.9361 Y25.9811
G01 X19.0070 Y26.0146
G01 X19.0743 Y26.0550
G01 X19.1374 Y26.1017
G01 X19.1955 Y26.1545
G01 X19.2483 Y26.2126
G01 X19.2950 Y26.2757
G01 X19.3354 Y26.3430
G01 X19.3689 Y26.4139
G01 X19.3954 Y26.4878
G01 X19.4144 Y26.5640
G01 X19.4259 Y26.6416
G01 X19.4297 Y26.7151
G01 X19.4297 Y26.7249
G00 Z2.0000
G00 X19.5692 Y26.7318
G01 F90.00
G01 Z-0.1859
G01 F100.00
G01 X19.5650 Y26.8121
G01 X19.5636 Y26.8238
G01 X19.5515 Y26.9033
G01 X19.5322 Y26.9814
G01 X19.5291 Y26.9927
G01 X19.5254 Y27.0039
G01 X19.4980 Y27.0795
G01 X19.4639 Y27.1524
G01 X19.4586 Y27.1629
G01 X19.4528 Y27.1731
G01 X19.4112 Y27.2420
G01 X19.4044 Y27.2516
G01 X19.3563 Y27.3160
G01 X19.3024 Y27.3758
G01 X19.2943 Y27.3843
G01 X19.2858 Y27.3924
G01 X19.2260 Y27.4463
G01 X19.1616 Y27.4944
G01 X19.1520 Y27.5012
G01 X19.1420 Y27.5075
G01 X19.0729 Y27.5486
G01 X19.0003 Y27.5832
G01 X18.9895 Y27.5880
G01 X18.9786 Y27.5922
G01 X18.9027 Y27.6191
G01 X18.8248 Y27.6389
G01 X18.8133 Y27.6415
G01 X18.7338 Y27.6536
G01 X18.7221 Y27.6550
G01 X18.6418 Y27.6592
G01 X18.6300 Y27.6595
G01 X18.6182 Y27.6592
G01 X18.5379 Y27.6550
G01 X18.5262 Y27.6536
G01 X18.4467 Y27.6415
G01 X18.3686 Y27.6222
G01 X18.3573 Y27.6191
G01 X18.2814 Y27.5922
G01 X18.2705 Y27.5880
G01 X18.1976 Y27.5539
G01 X18.1871 Y27.5486
G01 X18.1769 Y27.5428
G01 X18.1080 Y27.5012
G01 X18.0984 Y27.4944
G01 X18.0340 Y27.4463
G01 X17.9742 Y27.3924
G01 X17.9657 Y27.3843
G01 X17.9576 Y27.3758
G01 X17.9037 Y27.3160
G01 X17.8556 Y27.2516
G01 X17.8488 Y27.2420
G01 X17.8425 Y27.2320
G01 X17.8014 Y27.1629
G01 X17.7668 Y27.0903
G01 X17.7620 Y27.0795
G01 X17.7578 Y27.0686
G01 X17.7309 Y26.9927
G01 X17.7111 Y26.9148
G01 X17.7085 Y26.9033
G01 X17.6964 Y26.8238
G01 X17.6950 Y26.8121
G01 X17.6908 Y26.7318
G01 X17.6905 Y26.7200
G01 X17.6908 Y26.7082
G01 X17.6950 Y26.6279
G01 X17.6964 Y26.6162
G01 X17.7085 Y26.5367
G01 X17.7278 Y26.4586
G01 X17.7309 Y26.4473
G01 X17.7578 Y26.3714
G01 X17.7620 Y26.3605
G01 X17.7961 Y26.2876
G01 X17.8014 Y26.2771
G01 X17.8072 Y26.2669
G01 X17.8488 Y26.1980
G01 X17.8556 Y26.1884
G01 X17.9037 Y26.1240
G01 X17.9576 Y26.0642
G01 X17.9657 Y26.0557
G01 X17.9742 Y26.0476
G01 X18.0340 Y25.9937
G01 X18.0984 Y25.9456
G01 X18.1080 Y25.9388
G01 X18.1180 Y25.9325
G01 X18.1871 Y25.8914
G01 X18.2597 Y25.8568
G01 X18.2705 Y25.8520
G01 X18.2814 Y25.8478
G01 X18.3573 Y25.8209
G01 X18.4352 Y25.8011
G01 X18.4467 Y25.7985
G01 X18.5262 Y25.7864
G01 X18.5379 Y25.7850
G01 X18.6182 Y25.7808
G01 X18.6300 Y25.7805
G01 X18.6418 Y25.7808
G01 X18.7221 Y25.7850
G01 X18.7338 Y25.7864
G01 X18.8133 Y25.7985
G01 X18.8914 Y25.8178
G01 X18.9027 Y25.8209
G01 X18.9786 Y25.8478
G01 X18.9895 Y25.8520
G01 X19.0624 Y25.8861
G01 X19.0729 Y25.8914
G01 X19.0831 Y25.8972
G01 X19.1520 Y25.9388
G01 X19.1616 Y25.9456
G01 X19.2260 Y25.9937
G01 X19.2858 Y26.0476
G01 X19.2943 Y26.0557
G01 X19.3024 Y26.0642
G01 X19.3563 Y26.1240
G01 X19.4044 Y26.1884
G01 X19.4112 Y26.1980
G01 X19.4175 Y26.2080
G01 X19.4586 Y26.2771
G01 X19.4932 Y26.3497
G01 X19.4980 Y26.3605
G01 X19.5022 Y26.3714
G01 X19.5291 Y26.4473
G01 X19.5322 Y26.4586
G01 X19.5515 Y26.5367
G01 X19.5535 Y26.5483
G01 X19.5650 Y26.6279
G01 X19.5692 Y26.7082
G01 X19.5695 Y26.7200
G01 X19.5692 Y26.7318
G00 Z2.0000
G00 X28.2861 Y25.9406
G01 F90.00
G01 Z-0.1859
G01 F100.00
G01 X28.1317 Y25.9406
G01 X28.2397 Y25.8326
G01 X28.2472 Y25.8580
G01 X28.2570 Y25.8845
G01 X28.2688 Y25.9102
G01 X28.2778 Y25.9268
G01 X28.2861 Y25.9406
G00 Z2.0000
G00 X29.4585 Y22.3842
G01 F90.00
G01 Z-0.1859
G01 F100.00
G01 X29.3503 Y22.4924
G01 X29.3428 Y22.4670
G01 X29.3330 Y22.4405
G01 X29.3212 Y22.4148
G01 X29.3122 Y22.3982
G01 X29.3038 Y22.3842
G01 X29.4585 Y22.3842
G00 Z2.0000
G00 X26.5400 Y19.9052
G01 F90.00
G01 Z-0.1859
G01 F100.00
G01 X29.7400 Y19.9052
G01 X29.7473 Y19.9055
G01 X29.7546 Y19.9063
G01 X29.7619 Y19.9076
G01 X29.7690 Y19.9095
G01 X29.7759 Y19.9119
G01 X29.7827 Y19.9148
G01 X29.7892 Y19.9182
G01 X29.7954 Y19.9220
G01 X29.8052 Y19.9294
G01 X29.8123 Y19.9362
G01 X29.8202 Y19.9455
G01 X29.8268 Y19.9558
G01 X29.8322 Y19.9668
G01 X29.8362 Y19.9784
G01 X29.8387 Y19.9904
G01 X29.8398 Y20.0026
G01 X29.8398 Y22.0050
G01 X29.8395 Y22.0123
G01 X29.8387 Y22.0196
G01 X29.8374 Y22.0269
G01 X29.8355 Y22.0340
G01 X29.8331 Y22.0409
G01 X29.8302 Y22.0477
G01 X29.8268 Y22.0542
G01 X29.8230 Y22.0604
G01 X29.8156 Y22.0702
G01 X29.8070 Y22.0789
G01 X29.7975 Y22.0866
G01 X29.7870 Y22.0930
G01 X29.7759 Y22.0981
G01 X29.7642 Y22.1018
G01 X29.7522 Y22.1040
G01 X29.7400 Y22.1048
G01 X26.5400 Y22.1048
G01 X26.5327 Y22.1045
G01 X26.5254 Y22.1037
G01 X26.5181 Y22.1024
G01 X26.5110 Y22.1005
G01 X26.5041 Y22.0981
G01 X26.4973 Y22.0952
G01 X26.4908 Y22.0918
G01 X26.4846 Y22.0880
G01 X26.4748 Y22.0806
G01 X26.4661 Y22.0720
G01 X26.4584 Y22.0625
G01 X26.4520 Y22.0520
G01 X26.4469 Y22.0409
G01 X26.4438 Y22.0316
G01 X26.4413 Y22.0196
G01 X26.4402 Y22.0074
G01 X26.4402 Y20.0026
G01 X26.4410 Y19.9928
G01 X26.4426 Y19.9831
G01 X26.4445 Y19.9760
G01 X26.4478 Y19.9668
G01 X26.4520 Y19.9580
G01 X26.4570 Y19.9496
G01 X26.4629 Y19.9417
G01 X26.4694 Y19.9344
G01 X26.4767 Y19.9279
G01 X26.4846 Y19.9220
G01 X26.4930 Y19.9170
G01 X26.5018 Y19.9128
G01 X26.5110 Y19.9095
G01 X26.5205 Y19.9071
G01 X26.5302 Y19.9057
G01 X26.5400 Y19.9052
G00 Z2.0000
G00 X30.6039 Y16.1844
G01 F90.00
G01 Z-0.1859
G01 F100.00
G01 X30.7583 Y16.1844
G01 X30.6503 Y16.2924
G01 X30.6428 Y16.2670
G01 X30.6330 Y16.2405
G01 X30.6212 Y16.2148
G01 X30.6122 Y16.1982
G01 X30.6039 Y16.1844
G00 Z2.0000
G00 X33.7345 Y17.9050
G01 F90.00
G01 Z-0.1859
G01 F100.00
G01 X33.7537 Y17.6737
G01 X33.8107 Y17.4486
G01 X33.9039 Y17.2361
G01 X34.0309 Y17.0417
G01 X34.0402 Y17.0315
G01 X34.1881 Y16.8709
G01 X34.3713 Y16.7284
G01 X34.5754 Y16.6179
G01 X34.7950 Y16.5425
G01 X35.0239 Y16.5043
G01 X35.2561 Y16.5043
G01 X35.4850 Y16.5425
G01 X35.7046 Y16.6179
G01 X35.9087 Y16.7284
G01 X36.0919 Y16.8709
G01 X36.2491 Y17.0417
G01 X36.3761 Y17.2361
G01 X36.4693 Y17.4486
G01 X36.5263 Y17.6737
G01 X36.5455 Y17.9050
G01 X36.5263 Y18.1363
G01 X36.4693 Y18.3614
G01 X36.3761 Y18.5739
G01 X36.2491 Y18.7683
G01 X36.0919 Y18.9391
G01 X35.9087 Y19.0816
G01 X35.7046 Y19.1921
G01 X35.4850 Y19.2675
G01 X35.2561 Y19.3057
G01 X35.0239 Y19.3057
G01 X34.7950 Y19.2675
G01 X34.5754 Y19.1921
G01 X34.3713 Y19.0816
G01 X34.1881 Y18.9391
G01 X34.0309 Y18.7683
G01 X33.9039 Y18.5739
G01 X33.8107 Y18.3614
G01 X33.7537 Y18.1363
G01 X33.7345 Y17.9050
G00 Z2.0000
G00 X33.8747 Y17.9050
G01 F90.00
G01 Z-0.1859
G01 F100.00
G01 X33.8920 Y17.6967
G01 X33.9433 Y17.4942
G01 X34.0272 Y17.3028
G01 X34.1415 Y17.1278
G01 X34.1430 Y17.1262
G01 X34.2830 Y16.9741
G01 X34.4479 Y16.8457
G01 X34.6317 Y16.7463
G01 X34.8294 Y16.6784
G01 X35.0355 Y16.6440
G01 X35.2445 Y16.6440
G01 X35.4506 Y16.6784
G01 X35.6483 Y16.7463
G01 X35.8321 Y16.8457
G01 X35.9970 Y16.9741
G01 X36.1385 Y17.1278
G01 X36.2528 Y17.3028
G01 X36.3367 Y17.4942
G01 X36.3880 Y17.6967
G01 X36.4053 Y17.9050
G01 X36.3880 Y18.1133
G01 X36.3367 Y18.3158
G01 X36.2528 Y18.5072
G01 X36.1385 Y18.6822
G01 X35.9970 Y18.8359
G01 X35.8321 Y18.9643
G01 X35.6483 Y19.0637
G01 X35.4506 Y19.1316
G01 X35.2445 Y19.1660
G01 X35.0355 Y19.1660
G01 X34.8294 Y19.1316
G01 X34.6317 Y19.0637
G01 X34.4479 Y18.9643
G01 X34.2830 Y18.8359
G01 X34.1415 Y18.6822
G01 X34.0272 Y18.5072
G01 X33.9433 Y18.3158
G01 X33.8920 Y18.1133
G01 X33.8747 Y17.9050
G00 Z2.0000
G00 X36.2397 Y17.9099
G01 F90.00
G01 Z-0.1859
G01 F100.00
G01 X36.2345 Y18.0128
G01 X36.2187 Y18.1196
G01 X36.1924 Y18.2243
G01 X36.1561 Y18.3259
G01 X36.1099 Y18.4234
G01 X36.0545 Y18.5160
G01 X35.9902 Y18.6027
G01 X35.9177 Y18.6827
G01 X35.8377 Y18.7552
G01 X35.7510 Y18.8195
G01 X35.6584 Y18.8749
G01 X35.5609 Y18.9211
G01 X35.4593 Y18.9574
G01 X35.3546 Y18.9837
G01 X35.2478 Y18.9995
G01 X35.1400 Y19.0048
G01 X35.0322 Y18.9995
G01 X34.9254 Y18.9837
G01 X34.8207 Y18.9574
G01 X34.7191 Y18.9211
G01 X34.6216 Y18.8749
G01 X34.5290 Y18.8195
G01 X34.4423 Y18.7552
G01 X34.3623 Y18.6827
G01 X34.2898 Y18.6027
G01 X34.2255 Y18.5160
G01 X34.1701 Y18.4234
G01 X34.1239 Y18.3259
G01 X34.0876 Y18.2243
G01 X34.0613 Y18.1196
G01 X34.0455 Y18.0128
G01 X34.0402 Y17.9050
G01 X34.0455 Y17.7972
G01 X34.0613 Y17.6904
G01 X34.0876 Y17.5857
G01 X34.1239 Y17.4841
G01 X34.1701 Y17.3866
G01 X34.2255 Y17.2940
G01 X34.2898 Y17.2073
G01 X34.3623 Y17.1273
G01 X34.4423 Y17.0548
G01 X34.5290 Y16.9905
G01 X34.6216 Y16.9351
G01 X34.7191 Y16.8889
G01 X34.8207 Y16.8526
G01 X34.9254 Y16.8263
G01 X35.0322 Y16.8105
G01 X35.1400 Y16.8052
G01 X35.2478 Y16.8105
G01 X35.3546 Y16.8263
G01 X35.4593 Y16.8526
G01 X35.5609 Y16.8889
G01 X35.6584 Y16.9351
G01 X35.7510 Y16.9905
G01 X35.8377 Y17.0548
G01 X35.9177 Y17.1273
G01 X35.9902 Y17.2073
G01 X36.0545 Y17.2940
G01 X36.1099 Y17.3866
G01 X36.1561 Y17.4841
G01 X36.1924 Y17.5857
G01 X36.2187 Y17.6904
G01 X36.2345 Y17.7972
G01 X36.2397 Y17.9001
G01 X36.2397 Y17.9099
G00 Z2.0000
G00 X36.3792 Y17.9168
G01 F90.00
G01 Z-0.1859
G01 F100.00
G01 X36.3744 Y18.0148
G01 X36.3736 Y18.0265
G01 X36.3721 Y18.0382
G01 X36.3577 Y18.1352
G01 X36.3557 Y18.1468
G01 X36.3531 Y18.1583
G01 X36.3293 Y18.2535
G01 X36.3261 Y18.2648
G01 X36.3225 Y18.2760
G01 X36.2894 Y18.3684
G01 X36.2852 Y18.3793
G01 X36.2804 Y18.3901
G01 X36.2384 Y18.4788
G01 X36.2332 Y18.4893
G01 X36.2274 Y18.4995
G01 X36.1769 Y18.5837
G01 X36.1706 Y18.5936
G01 X36.1639 Y18.6033
G01 X36.1054 Y18.6821
G01 X36.0982 Y18.6913
G01 X36.0905 Y18.7002
G01 X36.0246 Y18.7730
G01 X36.0165 Y18.7815
G01 X36.0080 Y18.7896
G01 X35.9352 Y18.8555
G01 X35.9263 Y18.8632
G01 X35.9171 Y18.8704
G01 X35.8383 Y18.9289
G01 X35.8286 Y18.9356
G01 X35.8187 Y18.9419
G01 X35.7345 Y18.9924
G01 X35.7243 Y18.9982
G01 X35.7138 Y19.0034
G01 X35.6251 Y19.0454
G01 X35.6143 Y19.0502
G01 X35.6034 Y19.0544
G01 X35.5110 Y19.0875
G01 X35.4998 Y19.0911
G01 X35.4885 Y19.0943
G01 X35.3933 Y19.1181
G01 X35.3818 Y19.1207
G01 X35.3702 Y19.1227
G01 X35.2732 Y19.1371
G01 X35.2615 Y19.1386
G01 X35.2498 Y19.1394
G01 X35.1518 Y19.1442
G01 X35.1400 Y19.1445
G01 X35.1282 Y19.1442
G01 X35.0302 Y19.1394
G01 X35.0185 Y19.1386
G01 X35.0068 Y19.1371
G01 X34.9098 Y19.1227
G01 X34.8982 Y19.1207
G01 X34.8867 Y19.1181
G01 X34.7915 Y19.0943
G01 X34.7802 Y19.0911
G01 X34.7690 Y19.0875
G01 X34.6766 Y19.0544
G01 X34.6657 Y19.0502
G01 X34.6549 Y19.0454
G01 X34.5662 Y19.0034
G01 X34.5557 Y18.9982
G01 X34.5455 Y18.9924
G01 X34.4613 Y18.9419
G01 X34.4514 Y18.9356
G01 X34.4417 Y18.9289
G01 X34.3629 Y18.8704
G01 X34.3537 Y18.8632
G01 X34.3448 Y18.8555
G01 X34.2720 Y18.7896
G01 X34.2635 Y18.7815
G01 X34.2554 Y18.7730
G01 X34.1895 Y18.7002
G01 X34.1818 Y18.6913
G01 X34.1746 Y18.6821
G01 X34.1161 Y18.6033
G01 X34.1094 Y18.5936
G01 X34.1031 Y18.5837
G01 X34.0526 Y18.4995
G01 X34.0468 Y18.4893
G01 X34.0416 Y18.4788
G01 X33.9996 Y18.3901
G01 X33.9948 Y18.3793
G01 X33.9906 Y18.3684
G01 X33.9575 Y18.2760
G01 X33.9539 Y18.2648
G01 X33.9507 Y18.2535
G01 X33.9269 Y18.1583
G01 X33.9243 Y18.1468
G01 X33.9223 Y18.1352
G01 X33.9079 Y18.0382
G01 X33.9064 Y18.0265
G01 X33.9056 Y18.0148
G01 X33.9008 Y17.9168
G01 X33.9005 Y17.9050
G01 X33.9008 Y17.8932
G01 X33.9056 Y17.7952
G01 X33.9064 Y17.7835
G01 X33.9079 Y17.7718
G01 X33.9223 Y17.6748
G01 X33.9243 Y17.6632
G01 X33.9269 Y17.6517
G01 X33.9507 Y17.5565
G01 X33.9539 Y17.5452
G01 X33.9575 Y17.5340
G01 X33.9906 Y17.4416
G01 X33.9948 Y17.4307
G01 X33.9996 Y17.4199
G01 X34.0416 Y17.3312
G01 X34.0468 Y17.3207
G01 X34.0526 Y17.3105
G01 X34.1031 Y17.2263
G01 X34.1094 Y17.2164
G01 X34.1161 Y17.2067
G01 X34.1746 Y17.1279
G01 X34.1818 Y17.1187
G01 X34.1895 Y17.1098
G01 X34.2554 Y17.0370
G01 X34.2635 Y17.0285
G01 X34.2720 Y17.0204
G01 X34.3448 Y16.9545
G01 X34.3537 Y16.9468
G01 X34.3629 Y16.9396
G01 X34.4417 Y16.8811
G01 X34.4514 Y16.8744
G01 X34.4613 Y16.8681
G01 X34.5455 Y16.8176
G01 X34.5557 Y16.8118
G01 X34.5662 Y16.8066
G01 X34.6549 Y16.7646
G01 X34.6657 Y16.7598
G01 X34.6766 Y16.7556
G01 X34.7690 Y16.7225
G01 X34.7802 Y16.7189
G01 X34.7915 Y16.7157
G01 X34.8867 Y16.6919
G01 X34.8982 Y16.6893
G01 X34.9098 Y16.6873
G01 X35.0068 Y16.6729
G01 X35.0185 Y16.6714
G01 X35.0302 Y16.6706
G01 X35.1282 Y16.6658
G01 X35.1400 Y16.6655
G01 X35.1518 Y16.6658
G01 X35.2498 Y16.6706
G01 X35.2615 Y16.6714
G01 X35.2732 Y16.6729
G01 X35.3702 Y16.6873
G01 X35.3818 Y16.6893
G01 X35.3933 Y16.6919
G01 X35.4885 Y16.7157
G01 X35.4998 Y16.7189
G01 X35.5110 Y16.7225
G01 X35.6034 Y16.7556
G01 X35.6143 Y16.7598
G01 X35.6251 Y16.7646
G01 X35.7138 Y16.8066
G01 X35.7243 Y16.8118
G01 X35.7345 Y16.8176
G01 X35.8187 Y16.8681
G01 X35.8286 Y16.8744
G01 X35.8383 Y16.8811
G01 X35.9171 Y16.9396
G01 X35.9263 Y16.9468
G01 X35.9352 Y16.9545
G01 X36.0080 Y17.0204
G01 X36.0165 Y17.0285
G01 X36.0246 Y17.0370
G01 X36.0905 Y17.1098
G01 X36.0982 Y17.1187
G01 X36.1054 Y17.1279
G01 X36.1639 Y17.2067
G01 X36.1706 Y17.2164
G01 X36.1769 Y17.2263
G01 X36.2274 Y17.3105
G01 X36.2332 Y17.3207
G01 X36.2384 Y17.3312
G01 X36.2804 Y17.4199
G01 X36.2852 Y17.4307
G01 X36.2894 Y17.4416
G01 X36.3225 Y17.5340
G01 X36.3261 Y17.5452
G01 X36.3293 Y17.5565
G01 X36.3531 Y17.6517
G01 X36.3557 Y17.6632
G01 X36.3577 Y17.6748
G01 X36.3721 Y17.7718
G01 X36.3736 Y17.7835
G01 X36.3744 Y17.7952
G01 X36.3792 Y17.8932
G01 X36.3795 Y17.9050
G01 X36.3792 Y17.9168
G00 Z2.0000
G00 X38.9091 Y6.3133
G01 F90.00
G01 Z-0.1859
G01 F100.00
G01 X38.9275 Y6.2408
G01 X38.9319 Y6.2292
G01 X38.9376 Y6.2182
G01 X38.9447 Y6.2080
G01 X38.9530 Y6.1988
G01 X39.0076 Y6.1477
G01 X39.0153 Y6.1415
G01 X39.0258 Y6.1348
G01 X39.0347 Y6.1305
G01 X39.0464 Y6.1263
G01 X39.0560 Y6.1241
G01 X39.1247 Y6.1115
G01 X39.1365 Y6.1100
G01 X39.1437 Y6.1099
G01 X39.1559 Y6.1107
G01 X39.1786 Y6.1108
G01 X39.2401 Y6.1140
G01 X39.2513 Y6.1125
G01 X39.2785 Y6.1107
G01 X41.1041 Y6.1107
G01 X41.1121 Y6.1113
G01 X41.1433 Y6.1147
G01 X41.1553 Y6.1174
G01 X41.1645 Y6.1205
G01 X41.1756 Y6.1257
G01 X41.2369 Y6.1592
G01 X41.2450 Y6.1642
G01 X41.2526 Y6.1699
G01 X41.2597 Y6.1762
G01 X53.0007 Y17.9172
G01 X53.0108 Y17.9281
G01 X53.0155 Y17.9338
G01 X53.0211 Y17.9420
G01 X53.0259 Y17.9506
G01 X53.0579 Y18.0210
G01 X53.0617 Y18.0327
G01 X53.0633 Y18.0400
G01 X53.0644 Y18.0473
G01 X53.0649 Y18.0597
G01 X53.0643 Y18.0696
G01 X53.0540 Y18.1412
G01 X53.0527 Y18.1485
G01 X53.0493 Y18.1604
G01 X53.0444 Y18.1718
G01 X53.0382 Y18.1825
G01 X53.0322 Y18.1905
G01 X52.9815 Y18.2488
G01 X52.9762 Y18.2540
G01 X52.9705 Y18.2588
G01 X52.9603 Y18.2657
G01 X52.9492 Y18.2714
G01 X52.9399 Y18.2748
G01 X52.8705 Y18.2953
G01 X52.8636 Y18.2970
G01 X52.8566 Y18.2983
G01 X52.8448 Y18.2993
G01 X50.8696 Y18.2993
G01 X50.8616 Y18.2987
G01 X50.8304 Y18.2953
G01 X50.8184 Y18.2926
G01 X50.8092 Y18.2895
G01 X50.7981 Y18.2843
G01 X50.7368 Y18.2508
G01 X50.7287 Y18.2458
G01 X50.7211 Y18.2401
G01 X50.7140 Y18.2338
G01 X38.9715 Y6.4912
G01 X38.9656 Y6.4848
G01 X38.9470 Y6.4622
G01 X38.9429 Y6.4559
G01 X38.9392 Y6.4494
G01 X38.9343 Y6.4381
G01 X38.9112 Y6.3695
G01 X38.9080 Y6.3575
G01 X38.9066 Y6.3477
G01 X38.9061 Y6.3353
G01 X38.9068 Y6.3254
G01 X38.9091 Y6.3133
G00 Z2.0000
G00 X38.7736 Y6.2791
G01 F90.00
G01 Z-0.1859
G01 F100.00
G01 X38.7907 Y6.2113
G01 X38.7957 Y6.1942
G01 X38.7998 Y6.1830
G01 X38.8044 Y6.1720
G01 X38.8095 Y6.1613
G01 X38.8182 Y6.1457
G01 X38.8246 Y6.1357
G01 X38.8315 Y6.1260
G01 X38.8389 Y6.1167
G01 X38.8467 Y6.1077
G01 X38.8593 Y6.0951
G01 X38.9147 Y6.0433
G01 X38.9238 Y6.0356
G01 X38.9332 Y6.0284
G01 X38.9430 Y6.0217
G01 X38.9532 Y6.0154
G01 X38.9636 Y6.0097
G01 X38.9743 Y6.0045
G01 X38.9852 Y5.9998
G01 X38.9964 Y5.9956
G01 X39.0134 Y5.9905
G01 X39.0309 Y5.9866
G01 X39.0996 Y5.9741
G01 X39.1109 Y5.9723
G01 X39.1222 Y5.9710
G01 X39.1393 Y5.9702
G01 X39.1507 Y5.9703
G01 X39.1627 Y5.9710
G01 X39.1885 Y5.9714
G01 X39.2344 Y5.9738
G01 X39.2660 Y5.9713
G01 X39.2785 Y5.9710
G01 X41.1014 Y5.9710
G01 X41.1142 Y5.9713
G01 X41.1534 Y5.9752
G01 X41.1708 Y5.9777
G01 X41.1823 Y5.9801
G01 X41.1937 Y5.9831
G01 X41.2049 Y5.9866
G01 X41.2160 Y5.9906
G01 X41.2268 Y5.9952
G01 X41.2374 Y6.0004
G01 X41.3089 Y6.0394
G01 X41.3186 Y6.0453
G01 X41.3280 Y6.0517
G01 X41.3416 Y6.0621
G01 X41.3502 Y6.0696
G01 X41.3585 Y6.0775
G01 X53.0995 Y17.8185
G01 X53.1154 Y17.8355
G01 X53.1230 Y17.8445
G01 X53.1302 Y17.8539
G01 X53.1369 Y17.8637
G01 X53.1431 Y17.8738
G01 X53.1515 Y17.8894
G01 X53.1830 Y17.9584
G01 X53.1877 Y17.9693
G01 X53.1918 Y17.9805
G01 X53.1970 Y17.9975
G01 X53.1997 Y18.0091
G01 X53.2026 Y18.0267
G01 X53.2039 Y18.0385
G01 X53.2046 Y18.0504
G01 X53.2046 Y18.0623
G01 X53.2041 Y18.0742
G01 X53.2030 Y18.0860
G01 X53.1914 Y18.1670
G01 X53.1891 Y18.1787
G01 X53.1863 Y18.1902
G01 X53.1828 Y18.2016
G01 X53.1788 Y18.2128
G01 X53.1743 Y18.2238
G01 X53.1692 Y18.2346
G01 X53.1636 Y18.2451
G01 X53.1543 Y18.2602
G01 X53.1474 Y18.2700
G01 X53.1401 Y18.2793
G01 X53.0905 Y18.3367
G01 X53.0825 Y18.3455
G01 X53.0740 Y18.3538
G01 X53.0606 Y18.3656
G01 X53.0512 Y18.3729
G01 X53.0364 Y18.3829
G01 X53.0262 Y18.3890
G01 X53.0103 Y18.3971
G01 X52.9994 Y18.4018
G01 X52.9883 Y18.4060
G01 X52.9769 Y18.4096
G01 X52.9044 Y18.4309
G01 X52.8933 Y18.4335
G01 X52.8765 Y18.4366
G01 X52.8652 Y18.4379
G01 X52.8481 Y18.4390
G01 X50.8723 Y18.4390
G01 X50.8595 Y18.4387
G01 X50.8203 Y18.4348
G01 X50.8029 Y18.4323
G01 X50.7914 Y18.4299
G01 X50.7800 Y18.4269
G01 X50.7688 Y18.4234
G01 X50.7577 Y18.4194
G01 X50.7469 Y18.4148
G01 X50.7363 Y18.4096
G01 X50.6648 Y18.3706
G01 X50.6503 Y18.3615
G01 X50.6411 Y18.3549
G01 X50.6321 Y18.3479
G01 X50.6235 Y18.3404
G01 X50.6152 Y18.3325
G01 X38.8727 Y6.5900
G01 X38.8619 Y6.5785
G01 X38.8371 Y6.5484
G01 X38.8268 Y6.5338
G01 X38.8206 Y6.5236
G01 X38.8149 Y6.5131
G01 X38.8097 Y6.5024
G01 X38.8030 Y6.4858
G01 X38.7770 Y6.4083
G01 X38.7723 Y6.3910
G01 X38.7690 Y6.3735
G01 X38.7670 Y6.3558
G01 X38.7664 Y6.3439
G01 X38.7666 Y6.3261
G01 X38.7675 Y6.3142
G01 X38.7699 Y6.2965
G01 X38.7736 Y6.2791
G00 Z2.0000
G00 X38.0641 Y5.6139
G01 F90.00
G01 Z-0.1859
G01 F100.00
G01 X38.0896 Y5.6064
G01 X38.1160 Y5.5966
G01 X38.1417 Y5.5848
G01 X38.1664 Y5.5711
G01 X38.1900 Y5.5556
G01 X38.2536 Y5.5081
G01 X38.2755 Y5.4904
G01 X38.2904 Y5.4767
G01 X38.2968 Y5.4873
G01 X38.3072 Y5.5028
G01 X38.3417 Y5.5493
G01 X38.3535 Y5.5637
G01 X38.3860 Y5.5997
G01 X38.3989 Y5.6132
G01 X38.6468 Y5.8611
G01 X38.6603 Y5.8740
G01 X38.6894 Y5.9004
G01 X38.7107 Y5.9183
G01 X38.7572 Y5.9528
G01 X38.7727 Y5.9632
G01 X38.7867 Y5.9717
G01 X38.7570 Y5.9996
G01 X38.7377 Y6.0201
G01 X38.7199 Y6.0420
G01 X38.7089 Y6.0574
G01 X38.6987 Y6.0732
G01 X38.6894 Y6.0896
G01 X38.6808 Y6.1064
G01 X38.6696 Y6.1323
G01 X38.6603 Y6.1590
G01 X38.6553 Y6.1771
G01 X38.6496 Y6.1994
G01 X38.0641 Y5.6139
G00 Z2.0000
G00 X38.4500 Y4.6665
G01 F90.00
G01 Z-0.1859
G01 F100.00
G01 X38.4203 Y4.6483
G01 X38.3513 Y4.5972
G01 X38.3456 Y4.5926
G01 X38.2784 Y4.5316
G01 X38.2174 Y4.4644
G01 X38.2128 Y4.4587
G01 X38.1603 Y4.3877
G01 X38.1148 Y4.3120
G01 X38.1101 Y4.3034
G01 X38.0716 Y4.2212
G01 X38.0411 Y4.1357
G01 X38.0185 Y4.0453
G01 X38.0048 Y3.9531
G01 X38.0003 Y3.8649
G01 X38.0003 Y3.8551
G01 X38.0044 Y3.7718
G01 X38.0054 Y3.7620
G01 X38.0185 Y3.6747
G01 X38.0398 Y3.5890
G01 X38.0418 Y3.5820
G01 X38.0725 Y3.4965
G01 X38.1124 Y3.4123
G01 X38.1603 Y3.3323
G01 X38.2128 Y3.2613
G01 X38.2190 Y3.2537
G01 X38.2750 Y3.1919
G01 X38.2819 Y3.1850
G01 X38.3475 Y3.1258
G01 X38.4223 Y3.0703
G01 X38.5023 Y3.0224
G01 X38.5820 Y2.9845
G01 X38.5911 Y2.9807
G01 X38.6696 Y2.9526
G01 X38.6790 Y2.9498
G01 X38.7647 Y2.9285
G01 X38.8569 Y2.9148
G01 X38.9500 Y2.9102
G01 X39.0407 Y2.9146
G01 X39.1305 Y2.9276
G01 X39.1401 Y2.9295
G01 X39.2257 Y2.9511
G01 X39.3135 Y2.9825
G01 X39.3977 Y3.0224
G01 X39.4735 Y3.0676
G01 X39.4817 Y3.0731
G01 X39.5487 Y3.1228
G01 X39.5563 Y3.1290
G01 X39.6216 Y3.1884
G01 X39.6842 Y3.2575
G01 X39.7397 Y3.3323
G01 X39.7852 Y3.4080
G01 X39.7899 Y3.4166
G01 X39.8255 Y3.4920
G01 X39.8293 Y3.5011
G01 X39.8589 Y3.5843
G01 X39.8810 Y3.6723
G01 X39.8946 Y3.7620
G01 X39.8956 Y3.7718
G01 X39.8998 Y3.8600
G01 X39.8952 Y3.9531
G01 X39.8824 Y4.0405
G01 X39.8805 Y4.0501
G01 X39.8589 Y4.1357
G01 X39.8284 Y4.2212
G01 X39.8255 Y4.2280
G01 X39.7876 Y4.3077
G01 X39.7424 Y4.3835
G01 X39.7369 Y4.3917
G01 X39.6826 Y4.4644
G01 X39.6216 Y4.5316
G01 X39.5544 Y4.5926
G01 X39.5487 Y4.5972
G01 X39.4797 Y4.6483
G01 X39.4500 Y4.6665
G01 X39.4500 Y4.8100
G01 X41.5307 Y4.8101
G01 X41.5748 Y4.8124
G01 X41.6233 Y4.8196
G01 X41.6709 Y4.8315
G01 X41.7126 Y4.8463
G01 X41.7216 Y4.8500
G01 X41.7571 Y4.8668
G01 X41.7657 Y4.8715
G01 X41.8036 Y4.8943
G01 X41.8411 Y4.9220
G01 X41.8793 Y4.9564
G01 X54.1629 Y17.2400
G01 X90.2271 Y17.2400
G01 X90.2785 Y17.2427
G01 X90.3246 Y17.2496
G01 X90.3722 Y17.2615
G01 X90.4184 Y17.2781
G01 X90.4584 Y17.2968
G01 X90.4670 Y17.3015
G01 X90.5007 Y17.3216
G01 X90.5089 Y17.3271
G01 X90.5443 Y17.3535
G01 X90.5789 Y17.3847
G01 X93.2786 Y20.0844
G01 X93.3083 Y20.1170
G01 X93.3145 Y20.1246
G01 X93.3407 Y20.1601
G01 X93.3635 Y20.1980
G01 X93.3682 Y20.2066
G01 X93.3850 Y20.2421
G01 X93.3887 Y20.2511
G01 X93.4035 Y20.2928
G01 X93.4143 Y20.3356
G01 X93.4162 Y20.3452
G01 X93.4226 Y20.3889
G01 X93.4250 Y20.4354
G01 X93.4254 Y20.8338
G01 X93.4547 Y20.8517
G01 X93.5237 Y20.9028
G01 X93.5294 Y20.9074
G01 X93.5966 Y20.9684
G01 X93.6560 Y21.0337
G01 X93.6607 Y21.0394
G01 X93.7147 Y21.1123
G01 X93.7626 Y21.1923
G01 X93.8025 Y21.2765
G01 X93.8324 Y21.3596
G01 X93.8346 Y21.3666
G01 X93.8565 Y21.4547
G01 X93.8696 Y21.5420
G01 X93.8706 Y21.5518
G01 X93.8748 Y21.6400
G01 X93.8706 Y21.7282
G01 X93.8696 Y21.7380
G01 X93.8565 Y21.8253
G01 X93.8339 Y21.9157
G01 X93.8043 Y21.9989
G01 X93.8005 Y22.0080
G01 X93.7626 Y22.0877
G01 X93.7174 Y22.1635
G01 X93.7119 Y22.1717
G01 X93.6592 Y22.2425
G01 X93.5966 Y22.3116
G01 X93.5313 Y22.3710
G01 X93.5237 Y22.3772
G01 X93.4527 Y22.4297
G01 X93.3770 Y22.4752
G01 X93.3684 Y22.4799
G01 X93.2885 Y22.5175
G01 X93.2054 Y22.5474
G01 X93.1960 Y22.5502
G01 X93.1103 Y22.5715
G01 X93.0230 Y22.5846
G01 X93.0132 Y22.5856
G01 X92.9250 Y22.5898
G01 X92.8368 Y22.5856
G01 X92.8270 Y22.5846
G01 X92.7397 Y22.5715
G01 X92.6540 Y22.5502
G01 X92.6446 Y22.5474
G01 X92.5615 Y22.5175
G01 X92.4816 Y22.4799
G01 X92.4730 Y22.4752
G01 X92.3973 Y22.4297
G01 X92.3263 Y22.3772
G01 X92.3187 Y22.3710
G01 X92.2551 Y22.3133
G01 X92.2500 Y22.3081
G01 X92.1908 Y22.2425
G01 X92.1353 Y22.1677
G01 X92.0874 Y22.0877
G01 X92.0495 Y22.0080
G01 X92.0457 Y21.9989
G01 X92.0176 Y21.9204
G01 X92.0148 Y21.9110
G01 X91.9935 Y21.8253
G01 X91.9804 Y21.7380
G01 X91.9794 Y21.7282
G01 X91.9752 Y21.6400
G01 X91.9798 Y21.5469
G01 X91.9935 Y21.4547
G01 X92.0148 Y21.3690
G01 X92.0176 Y21.3596
G01 X92.0475 Y21.2765
G01 X92.0851 Y21.1966
G01 X92.0898 Y21.1880
G01 X92.1339 Y21.1144
G01 X92.1381 Y21.1083
G01 X92.1908 Y21.0375
G01 X92.2500 Y20.9719
G01 X92.2551 Y20.9667
G01 X92.3187 Y20.9090
G01 X92.3244 Y20.9043
G01 X92.3953 Y20.8517
G01 X92.4250 Y20.8335
G01 X92.4250 Y20.6450
G01 X90.0200 Y18.2400
G01 X53.9558 Y18.2400
G01 X53.9117 Y18.2380
G01 X53.9019 Y18.2370
G01 X53.8582 Y18.2304
G01 X53.8106 Y18.2185
G01 X53.7690 Y18.2037
G01 X53.7600 Y18.2000
G01 X53.7201 Y18.1810
G01 X53.6821 Y18.1584
G01 X53.6740 Y18.1529
G01 X53.6386 Y18.1265
G01 X53.6022 Y18.0936
G01 X41.3187 Y5.8100
G01 X39.1955 Y5.8100
G01 X39.1489 Y5.8076
G01 X39.1004 Y5.8004
G01 X39.0528 Y5.7885
G01 X39.0089 Y5.7728
G01 X38.9622 Y5.7510
G01 X38.9201 Y5.7257
G01 X38.8807 Y5.6965
G01 X38.8461 Y5.6653
G01 X38.5931 Y5.4121
G01 X38.5635 Y5.3793
G01 X38.5371 Y5.3439
G01 X38.5316 Y5.3357
G01 X38.5079 Y5.2956
G01 X38.4881 Y5.2534
G01 X38.4715 Y5.2072
G01 X38.4596 Y5.1596
G01 X38.4524 Y5.1111
G01 X38.4500 Y5.0621
G01 X38.4500 Y4.6665
G00 Z2.0000
G00 X37.3519 Y4.7368
G01 F90.00
G01 Z-0.1859
G01 F100.00
G01 X37.3750 Y4.6683
G01 X37.3797 Y4.6574
G01 X37.3844 Y4.6492
G01 X37.4982 Y4.4865
G01 X37.5030 Y4.4805
G01 X37.5230 Y4.4576
G01 X37.5300 Y4.4509
G01 X37.5357 Y4.4464
G01 X37.5417 Y4.4423
G01 X37.5480 Y4.4386
G01 X37.6170 Y4.4038
G01 X37.6239 Y4.4011
G01 X37.6309 Y4.3988
G01 X37.6406 Y4.3967
G01 X37.6480 Y4.3957
G01 X37.6579 Y4.3952
G01 X37.6653 Y4.3955
G01 X37.7373 Y4.4029
G01 X37.7446 Y4.4040
G01 X37.7567 Y4.4069
G01 X37.7660 Y4.4103
G01 X37.7749 Y4.4147
G01 X37.7833 Y4.4198
G01 X37.7893 Y4.4243
G01 X37.8457 Y4.4694
G01 X37.8527 Y4.4758
G01 X37.8575 Y4.4811
G01 X37.8633 Y4.4886
G01 X37.9882 Y4.6670
G01 X38.0874 Y4.7664
G01 X38.1119 Y4.7970
G01 X38.1182 Y4.8075
G01 X38.1232 Y4.8186
G01 X38.1459 Y4.8949
G01 X38.1479 Y4.9042
G01 X38.1488 Y4.9113
G01 X38.1493 Y4.9208
G01 X38.1493 Y4.9841
G01 X38.1475 Y5.0087
G01 X38.1460 Y5.0199
G01 X38.1492 Y5.0814
G01 X38.1493 Y5.1041
G01 X38.1501 Y5.1134
G01 X38.1504 Y5.1424
G01 X38.1499 Y5.1498
G01 X38.1488 Y5.1572
G01 X38.1472 Y5.1645
G01 X38.1451 Y5.1716
G01 X38.1189 Y5.2417
G01 X38.1148 Y5.2507
G01 X38.1084 Y5.2613
G01 X38.1007 Y5.2711
G01 X38.0955 Y5.2764
G01 X38.0900 Y5.2814
G01 X38.0261 Y5.3292
G01 X38.0154 Y5.3355
G01 X38.0064 Y5.3395
G01 X37.9946 Y5.3432
G01 X37.9824 Y5.3455
G01 X37.9028 Y5.3512
G01 X37.8905 Y5.3507
G01 X37.8782 Y5.3487
G01 X37.8664 Y5.3451
G01 X37.8550 Y5.3402
G01 X37.7915 Y5.3055
G01 X37.7834 Y5.3006
G01 X37.7758 Y5.2949
G01 X37.7688 Y5.2885
G01 X37.4121 Y4.9318
G01 X37.4053 Y4.9243
G01 X37.3845 Y4.8975
G01 X37.3803 Y4.8916
G01 X37.3753 Y4.8833
G01 X37.3722 Y4.8767
G01 X37.3687 Y4.8677
G01 X37.3667 Y4.8607
G01 X37.3486 Y4.7881
G01 X37.3469 Y4.7758
G01 X37.3466 Y4.7684
G01 X37.3469 Y4.7610
G01 X37.3487 Y4.7487
G01 X37.3519 Y4.7368
G00 Z2.0000
G00 X37.2195 Y4.6921
G01 F90.00
G01 Z-0.1859
G01 F100.00
G01 X37.2418 Y4.6259
G01 X37.2478 Y4.6099
G01 X37.2525 Y4.5995
G01 X37.2576 Y4.5893
G01 X37.2633 Y4.5794
G01 X37.2694 Y4.5698
G01 X37.3822 Y4.4085
G01 X37.3934 Y4.3937
G01 X37.4180 Y4.3653
G01 X37.4260 Y4.3569
G01 X37.4345 Y4.3489
G01 X37.4433 Y4.3413
G01 X37.4525 Y4.3342
G01 X37.4620 Y4.3275
G01 X37.4718 Y4.3212
G01 X37.4871 Y4.3128
G01 X37.5494 Y4.2813
G01 X37.5602 Y4.2762
G01 X37.5712 Y4.2716
G01 X37.5880 Y4.2658
G01 X37.5995 Y4.2626
G01 X37.6111 Y4.2600
G01 X37.6287 Y4.2572
G01 X37.6465 Y4.2558
G01 X37.6644 Y4.2556
G01 X37.6822 Y4.2568
G01 X37.7576 Y4.2647
G01 X37.7752 Y4.2676
G01 X37.7925 Y4.2718
G01 X37.8039 Y4.2754
G01 X37.8150 Y4.2795
G01 X37.8260 Y4.2841
G01 X37.8367 Y4.2893
G01 X37.8471 Y4.2950
G01 X37.8573 Y4.3012
G01 X37.8671 Y4.3079
G01 X37.8765 Y4.3151
G01 X37.9355 Y4.3624
G01 X37.9441 Y4.3699
G01 X37.9523 Y4.3778
G01 X37.9638 Y4.3904
G01 X37.9710 Y4.3993
G01 X37.9778 Y4.4085
G01 X38.0957 Y4.5769
G01 X38.1870 Y4.6683
G01 X38.1956 Y4.6778
G01 X38.2199 Y4.7081
G01 X38.2301 Y4.7224
G01 X38.2393 Y4.7375
G01 X38.2472 Y4.7532
G01 X38.2540 Y4.7695
G01 X38.2596 Y4.7862
G01 X38.2809 Y4.8588
G01 X38.2835 Y4.8698
G01 X38.2857 Y4.8810
G01 X38.2879 Y4.8980
G01 X38.2887 Y4.9094
G01 X38.2890 Y4.9208
G01 X38.2889 Y4.9877
G01 X38.2862 Y5.0256
G01 X38.2889 Y5.0778
G01 X38.2890 Y5.0973
G01 X38.2898 Y5.1133
G01 X38.2901 Y5.1470
G01 X38.2888 Y5.1649
G01 X38.2873 Y5.1767
G01 X38.2838 Y5.1943
G01 X38.2790 Y5.2115
G01 X38.2751 Y5.2228
G01 X38.2486 Y5.2938
G01 X38.2413 Y5.3101
G01 X38.2358 Y5.3206
G01 X38.2298 Y5.3309
G01 X38.2198 Y5.3457
G01 X38.2126 Y5.3551
G01 X38.2008 Y5.3686
G01 X38.1881 Y5.3811
G01 X38.1792 Y5.3889
G01 X38.1698 Y5.3963
G01 X38.1091 Y5.4417
G01 X38.0992 Y5.4483
G01 X38.0838 Y5.4574
G01 X38.0732 Y5.4627
G01 X38.0624 Y5.4676
G01 X38.0456 Y5.4738
G01 X38.0343 Y5.4773
G01 X38.0227 Y5.4801
G01 X38.0111 Y5.4825
G01 X37.9993 Y5.4842
G01 X37.9874 Y5.4853
G01 X37.9177 Y5.4903
G01 X37.9059 Y5.4909
G01 X37.8940 Y5.4908
G01 X37.8821 Y5.4902
G01 X37.8644 Y5.4882
G01 X37.8527 Y5.4861
G01 X37.8411 Y5.4834
G01 X37.8296 Y5.4802
G01 X37.8128 Y5.4742
G01 X37.8018 Y5.4696
G01 X37.7859 Y5.4616
G01 X37.7246 Y5.4281
G01 X37.7098 Y5.4194
G01 X37.7004 Y5.4130
G01 X37.6868 Y5.4026
G01 X37.6782 Y5.3952
G01 X37.6700 Y5.3873
G01 X37.3133 Y5.0306
G01 X37.3049 Y5.0218
G01 X37.2970 Y5.0126
G01 X37.2740 Y4.9830
G01 X37.2639 Y4.9688
G01 X37.2547 Y4.9539
G01 X37.2468 Y4.9385
G01 X37.2399 Y4.9224
G01 X37.2360 Y4.9115
G01 X37.2311 Y4.8947
G01 X37.2141 Y4.8270
G01 X37.2115 Y4.8154
G01 X37.2095 Y4.8036
G01 X37.2075 Y4.7859
G01 X37.2070 Y4.7740
G01 X37.2072 Y4.7562
G01 X37.2082 Y4.7443
G01 X37.2097 Y4.7325
G01 X37.2130 Y4.7150
G01 X37.2160 Y4.7035
G01 X37.2195 Y4.6921
G00 Z2.0000
G00 X37.7486 Y3.6014
G01 F90.00
G01 Z-0.1859
G01 F100.00
G01 X37.7444 Y3.6202
G01 X37.7412 Y3.6385
G01 X37.7290 Y3.7210
G01 X37.7267 Y3.7395
G01 X37.7253 Y3.7581
G01 X37.7212 Y3.8414
G01 X37.7208 Y3.8600
G01 X37.7212 Y3.8786
G01 X37.7253 Y3.9619
G01 X37.7267 Y3.9805
G01 X37.7290 Y3.9990
G01 X37.7427 Y4.0907
G01 X37.7463 Y4.1089
G01 X37.7498 Y4.1233
G01 X37.6872 Y4.1169
G01 X37.6684 Y4.1159
G01 X37.6401 Y4.1162
G01 X37.6213 Y4.1175
G01 X37.6114 Y4.1186
G01 X37.6156 Y4.0998
G01 X37.6188 Y4.0815
G01 X37.6310 Y3.9990
G01 X37.6333 Y3.9805
G01 X37.6347 Y3.9619
G01 X37.6388 Y3.8786
G01 X37.6392 Y3.8600
G01 X37.6388 Y3.8414
G01 X37.6347 Y3.7581
G01 X37.6333 Y3.7395
G01 X37.6310 Y3.7210
G01 X37.6173 Y3.6293
G01 X37.6137 Y3.6111
G01 X37.6102 Y3.5967
G01 X37.6728 Y3.6031
G01 X37.6916 Y3.6041
G01 X37.7199 Y3.6038
G01 X37.7387 Y3.6025
G01 X37.7486 Y3.6014
G00 Z2.0000
G00 X35.9100 Y4.6665
G01 F90.00
G01 Z-0.1859
G01 F100.00
G01 X35.8803 Y4.6483
G01 X35.8094 Y4.5957
G01 X35.8037 Y4.5910
G01 X35.7401 Y4.5333
G01 X35.7350 Y4.5281
G01 X35.6758 Y4.4625
G01 X35.6217 Y4.3897
G01 X35.6176 Y4.3835
G01 X35.5724 Y4.3077
G01 X35.5325 Y4.2235
G01 X35.5011 Y4.1357
G01 X35.4790 Y4.0477
G01 X35.4776 Y4.0405
G01 X35.4648 Y3.9531
G01 X35.4602 Y3.8600
G01 X35.4648 Y3.7669
G01 X35.4785 Y3.6747
G01 X35.5011 Y3.5843
G01 X35.5325 Y3.4965
G01 X35.5724 Y3.4123
G01 X35.6189 Y3.3344
G01 X35.6231 Y3.3283
G01 X35.6758 Y3.2575
G01 X35.7384 Y3.1884
G01 X35.8075 Y3.1258
G01 X35.8823 Y3.0703
G01 X35.9623 Y3.0224
G01 X36.0465 Y2.9825
G01 X36.1343 Y2.9511
G01 X36.2247 Y2.9285
G01 X36.3169 Y2.9148
G01 X36.4100 Y2.9102
G01 X36.5031 Y2.9148
G01 X36.5953 Y2.9285
G01 X36.6857 Y2.9511
G01 X36.7735 Y2.9825
G01 X36.8577 Y3.0224
G01 X36.9356 Y3.0689
G01 X36.9417 Y3.0731
G01 X37.0125 Y3.1258
G01 X37.0781 Y3.1850
G01 X37.0850 Y3.1919
G01 X37.1442 Y3.2575
G01 X37.1969 Y3.3283
G01 X37.2024 Y3.3365
G01 X37.2476 Y3.4123
G01 X37.2855 Y3.4920
G01 X37.2893 Y3.5011
G01 X37.3189 Y3.5843
G01 X37.3405 Y3.6699
G01 X37.3424 Y3.6795
G01 X37.3552 Y3.7669
G01 X37.3597 Y3.8551
G01 X37.3598 Y3.8624
G01 X37.3552 Y3.9531
G01 X37.3415 Y4.0453
G01 X37.3189 Y4.1357
G01 X37.2893 Y4.2189
G01 X37.2865 Y4.2257
G01 X37.2476 Y4.3077
G01 X37.2024 Y4.3835
G01 X37.1969 Y4.3917
G01 X37.1426 Y4.4644
G01 X37.0816 Y4.5316
G01 X37.0144 Y4.5926
G01 X37.0087 Y4.5972
G01 X36.9397 Y4.6483
G01 X36.9100 Y4.6665
G01 X36.9100 Y4.8550
G01 X50.6550 Y18.6000
G01 X87.8450 Y18.6000
G01 X87.8940 Y18.6024
G01 X87.9425 Y18.6096
G01 X87.9854 Y18.6202
G01 X87.9948 Y18.6231
G01 X88.0318 Y18.6363
G01 X88.0408 Y18.6400
G01 X88.0807 Y18.6590
G01 X88.1228 Y18.6843
G01 X88.1622 Y18.7135
G01 X88.1950 Y18.7431
G01 X90.1423 Y20.6902
G01 X91.2374 Y20.6902
G01 X91.2472 Y20.6910
G01 X91.2592 Y20.6932
G01 X91.2686 Y20.6960
G01 X91.2777 Y20.6998
G01 X91.2863 Y20.7044
G01 X91.2964 Y20.7113
G01 X91.3038 Y20.7177
G01 X91.3106 Y20.7248
G01 X91.3166 Y20.7325
G01 X91.3218 Y20.7408
G01 X91.3252 Y20.7473
G01 X91.3290 Y20.7564
G01 X91.3312 Y20.7634
G01 X91.3333 Y20.7729
G01 X91.3343 Y20.7802
G01 X91.3348 Y20.7900
G01 X91.3348 Y22.4900
G01 X91.3343 Y22.4998
G01 X91.3333 Y22.5071
G01 X91.3318 Y22.5142
G01 X91.3298 Y22.5213
G01 X91.3272 Y22.5282
G01 X91.3241 Y22.5349
G01 X91.3206 Y22.5413
G01 X91.3166 Y22.5475
G01 X91.3121 Y22.5533
G01 X91.3073 Y22.5588
G01 X91.3002 Y22.5656
G01 X91.2945 Y22.5702
G01 X91.2863 Y22.5756
G01 X91.2799 Y22.5791
G01 X91.2732 Y22.5822
G01 X91.2663 Y22.5848
G01 X91.2592 Y22.5868
G01 X91.2521 Y22.5883
G01 X91.2448 Y22.5893
G01 X91.2374 Y22.5898
G01 X89.5350 Y22.5898
G01 X89.5277 Y22.5895
G01 X89.5204 Y22.5887
G01 X89.5108 Y22.5868
G01 X89.5037 Y22.5848
G01 X89.4946 Y22.5812
G01 X89.4880 Y22.5780
G01 X89.4816 Y22.5743
G01 X89.4736 Y22.5687
G01 X89.4644 Y22.5606
G01 X89.4579 Y22.5533
G01 X89.4520 Y22.5454
G01 X89.4459 Y22.5349
G01 X89.4419 Y22.5259
G01 X89.4382 Y22.5142
G01 X89.4363 Y22.5046
G01 X89.4352 Y22.4924
G01 X89.4352 Y21.3973
G01 X87.6379 Y19.6000
G01 X50.4479 Y19.6000
G01 X50.3989 Y19.5976
G01 X50.3552 Y19.5912
G01 X50.3456 Y19.5893
G01 X50.3004 Y19.5777
G01 X50.2611 Y19.5637
G01 X50.2521 Y19.5600
G01 X50.2122 Y19.5410
G01 X50.1743 Y19.5184
G01 X50.1661 Y19.5129
G01 X50.1307 Y19.4865
G01 X50.0944 Y19.4536
G01 X36.0547 Y5.4139
G01 X36.0235 Y5.3793
G01 X35.9971 Y5.3439
G01 X35.9916 Y5.3357
G01 X35.9690 Y5.2978
G01 X35.9500 Y5.2579
G01 X35.9463 Y5.2489
G01 X35.9315 Y5.2072
G01 X35.9196 Y5.1596
G01 X35.9124 Y5.1111
G01 X35.9100 Y5.0645
G01 X35.9100 Y4.6665
G00 Z2.0000
G00 X35.5241 Y5.6139
G01 F90.00
G01 Z-0.1859
G01 F100.00
G01 X35.5496 Y5.6064
G01 X35.5760 Y5.5966
G01 X35.6017 Y5.5848
G01 X35.6264 Y5.5711
G01 X35.6500 Y5.5556
G01 X35.7136 Y5.5081
G01 X35.7355 Y5.4904
G01 X35.7504 Y5.4767
G01 X35.7568 Y5.4873
G01 X35.7672 Y5.5028
G01 X35.8017 Y5.5493
G01 X35.8196 Y5.5706
G01 X35.8460 Y5.5997
G01 X35.8589 Y5.6132
G01 X49.5662 Y19.3206
G01 X49.2308 Y19.3206
G01 X35.5241 Y5.6139
G00 Z2.0000
G00 X34.8119 Y4.7368
G01 F90.00
G01 Z-0.1859
G01 F100.00
G01 X34.8350 Y4.6683
G01 X34.8387 Y4.6596
G01 X34.8444 Y4.6492
G01 X34.9582 Y4.4865
G01 X34.9630 Y4.4805
G01 X34.9830 Y4.4576
G01 X34.9900 Y4.4509
G01 X34.9957 Y4.4464
G01 X35.0017 Y4.4423
G01 X35.0080 Y4.4386
G01 X35.0769 Y4.4038
G01 X35.0838 Y4.4011
G01 X35.0909 Y4.3988
G01 X35.1006 Y4.3967
G01 X35.1080 Y4.3957
G01 X35.1154 Y4.3952
G01 X35.1253 Y4.3955
G01 X35.1973 Y4.4029
G01 X35.2046 Y4.4040
G01 X35.2143 Y4.4062
G01 X35.2237 Y4.4094
G01 X35.2327 Y4.4135
G01 X35.2433 Y4.4198
G01 X35.2493 Y4.4243
G01 X35.3057 Y4.4694
G01 X35.3110 Y4.4742
G01 X35.3175 Y4.4811
G01 X35.3233 Y4.4886
G01 X35.4483 Y4.6670
G01 X35.5474 Y4.7664
G01 X35.5719 Y4.7970
G01 X35.5782 Y4.8075
G01 X35.5832 Y4.8186
G01 X35.6059 Y4.8949
G01 X35.6079 Y4.9042
G01 X35.6088 Y4.9113
G01 X35.6093 Y4.9208
G01 X35.6093 Y4.9841
G01 X35.6075 Y5.0087
G01 X35.6060 Y5.0199
G01 X35.6092 Y5.0814
G01 X35.6093 Y5.1041
G01 X35.6101 Y5.1134
G01 X35.6104 Y5.1424
G01 X35.6099 Y5.1498
G01 X35.6088 Y5.1572
G01 X35.6072 Y5.1645
G01 X35.6051 Y5.1716
G01 X35.5789 Y5.2417
G01 X35.5748 Y5.2507
G01 X35.5684 Y5.2613
G01 X35.5607 Y5.2711
G01 X35.5555 Y5.2764
G01 X35.5500 Y5.2814
G01 X35.4861 Y5.3292
G01 X35.4754 Y5.3355
G01 X35.4641 Y5.3404
G01 X35.4522 Y5.3438
G01 X35.4424 Y5.3455
G01 X35.3628 Y5.3512
G01 X35.3505 Y5.3507
G01 X35.3382 Y5.3487
G01 X35.3264 Y5.3451
G01 X35.3150 Y5.3402
G01 X35.2515 Y5.3055
G01 X35.2434 Y5.3006
G01 X35.2358 Y5.2949
G01 X35.2288 Y5.2885
G01 X34.8721 Y4.9318
G01 X34.8653 Y4.9243
G01 X34.8445 Y4.8975
G01 X34.8390 Y4.8895
G01 X34.8353 Y4.8833
G01 X34.8322 Y4.8767
G01 X34.8287 Y4.8677
G01 X34.8267 Y4.8607
G01 X34.8086 Y4.7881
G01 X34.8069 Y4.7758
G01 X34.8066 Y4.7684
G01 X34.8069 Y4.7610
G01 X34.8087 Y4.7487
G01 X34.8119 Y4.7368
G00 Z2.0000
G00 X34.6795 Y4.6921
G01 F90.00
G01 Z-0.1859
G01 F100.00
G01 X34.7018 Y4.6259
G01 X34.7078 Y4.6099
G01 X34.7125 Y4.5995
G01 X34.7176 Y4.5893
G01 X34.7233 Y4.5794
G01 X34.7293 Y4.5698
G01 X34.8422 Y4.4085
G01 X34.8534 Y4.3937
G01 X34.8780 Y4.3653
G01 X34.8860 Y4.3569
G01 X34.8945 Y4.3489
G01 X34.9033 Y4.3413
G01 X34.9125 Y4.3342
G01 X34.9220 Y4.3275
G01 X34.9318 Y4.3212
G01 X34.9471 Y4.3128
G01 X35.0094 Y4.2813
G01 X35.0202 Y4.2762
G01 X35.0312 Y4.2716
G01 X35.0480 Y4.2658
G01 X35.0653 Y4.2613
G01 X35.0770 Y4.2590
G01 X35.0887 Y4.2572
G01 X35.1065 Y4.2558
G01 X35.1244 Y4.2556
G01 X35.1422 Y4.2568
G01 X35.2176 Y4.2647
G01 X35.2352 Y4.2676
G01 X35.2467 Y4.2703
G01 X35.2582 Y4.2735
G01 X35.2750 Y4.2795
G01 X35.2860 Y4.2841
G01 X35.2967 Y4.2893
G01 X35.3071 Y4.2950
G01 X35.3173 Y4.3012
G01 X35.3271 Y4.3079
G01 X35.3365 Y4.3151
G01 X35.3955 Y4.3624
G01 X35.4041 Y4.3699
G01 X35.4123 Y4.3778
G01 X35.4238 Y4.3904
G01 X35.4310 Y4.3993
G01 X35.4378 Y4.4085
G01 X35.5557 Y4.5769
G01 X35.6470 Y4.6683
G01 X35.6556 Y4.6778
G01 X35.6799 Y4.7081
G01 X35.6901 Y4.7224
G01 X35.6993 Y4.7375
G01 X35.7072 Y4.7532
G01 X35.7140 Y4.7695
G01 X35.7196 Y4.7862
G01 X35.7409 Y4.8588
G01 X35.7435 Y4.8698
G01 X35.7457 Y4.8810
G01 X35.7479 Y4.8980
G01 X35.7487 Y4.9094
G01 X35.7490 Y4.9208
G01 X35.7489 Y4.9877
G01 X35.7462 Y5.0256
G01 X35.7489 Y5.0778
G01 X35.7490 Y5.0973
G01 X35.7498 Y5.1133
G01 X35.7501 Y5.1470
G01 X35.7488 Y5.1649
G01 X35.7473 Y5.1767
G01 X35.7438 Y5.1943
G01 X35.7390 Y5.2115
G01 X35.7351 Y5.2228
G01 X35.7086 Y5.2938
G01 X35.7039 Y5.3047
G01 X35.6986 Y5.3154
G01 X35.6898 Y5.3309
G01 X35.6798 Y5.3457
G01 X35.6688 Y5.3597
G01 X35.6567 Y5.3729
G01 X35.6481 Y5.3811
G01 X35.6392 Y5.3889
G01 X35.6298 Y5.3963
G01 X35.5691 Y5.4417
G01 X35.5542 Y5.4515
G01 X35.5438 Y5.4574
G01 X35.5332 Y5.4627
G01 X35.5224 Y5.4676
G01 X35.5113 Y5.4719
G01 X35.5000 Y5.4756
G01 X35.4827 Y5.4801
G01 X35.4711 Y5.4825
G01 X35.4593 Y5.4842
G01 X35.4474 Y5.4853
G01 X35.3777 Y5.4903
G01 X35.3659 Y5.4909
G01 X35.3540 Y5.4908
G01 X35.3421 Y5.4902
G01 X35.3303 Y5.4890
G01 X35.3127 Y5.4861
G01 X35.3011 Y5.4834
G01 X35.2896 Y5.4801
G01 X35.2728 Y5.4742
G01 X35.2618 Y5.4696
G01 X35.2459 Y5.4616
G01 X35.1846 Y5.4281
G01 X35.1698 Y5.4194
G01 X35.1604 Y5.4130
G01 X35.1513 Y5.4062
G01 X35.1382 Y5.3952
G01 X35.1300 Y5.3873
G01 X34.7733 Y5.0306
G01 X34.7649 Y5.0218
G01 X34.7570 Y5.0126
G01 X34.7340 Y4.9830
G01 X34.7238 Y4.9688
G01 X34.7147 Y4.9539
G01 X34.7068 Y4.9384
G01 X34.7021 Y4.9278
G01 X34.6960 Y4.9115
G01 X34.6911 Y4.8947
G01 X34.6741 Y4.8270
G01 X34.6715 Y4.8154
G01 X34.6695 Y4.8036
G01 X34.6675 Y4.7859
G01 X34.6670 Y4.7740
G01 X34.6672 Y4.7562
G01 X34.6682 Y4.7443
G01 X34.6697 Y4.7325
G01 X34.6718 Y4.7208
G01 X34.6760 Y4.7035
G01 X34.6795 Y4.6921
G00 Z2.0000
G00 X35.2086 Y3.6014
G01 F90.00
G01 Z-0.1859
G01 F100.00
G01 X35.2044 Y3.6202
G01 X35.2012 Y3.6385
G01 X35.1890 Y3.7210
G01 X35.1867 Y3.7395
G01 X35.1853 Y3.7581
G01 X35.1812 Y3.8414
G01 X35.1808 Y3.8600
G01 X35.1812 Y3.8786
G01 X35.1853 Y3.9619
G01 X35.1867 Y3.9805
G01 X35.1890 Y3.9990
G01 X35.2027 Y4.0907
G01 X35.2063 Y4.1089
G01 X35.2098 Y4.1233
G01 X35.1472 Y4.1169
G01 X35.1283 Y4.1159
G01 X35.1001 Y4.1162
G01 X35.0813 Y4.1175
G01 X35.0714 Y4.1186
G01 X35.0756 Y4.0998
G01 X35.0788 Y4.0815
G01 X35.0910 Y3.9990
G01 X35.0933 Y3.9805
G01 X35.0947 Y3.9619
G01 X35.0988 Y3.8786
G01 X35.0992 Y3.8600
G01 X35.0988 Y3.8414
G01 X35.0947 Y3.7581
G01 X35.0933 Y3.7395
G01 X35.0910 Y3.7210
G01 X35.0773 Y3.6293
G01 X35.0737 Y3.6111
G01 X35.0702 Y3.5967
G01 X35.1328 Y3.6031
G01 X35.1516 Y3.6041
G01 X35.1799 Y3.6038
G01 X35.1987 Y3.6025
G01 X35.2086 Y3.6014
G00 Z2.0000
G00 X33.3700 Y4.6665
G01 F90.00
G01 Z-0.1859
G01 F100.00
G01 X33.3403 Y4.6483
G01 X33.2694 Y4.5957
G01 X33.2637 Y4.5910
G01 X33.2001 Y4.5333
G01 X33.1950 Y4.5281
G01 X33.1358 Y4.4625
G01 X33.0817 Y4.3897
G01 X33.0776 Y4.3835
G01 X33.0324 Y4.3077
G01 X32.9925 Y4.2235
G01 X32.9611 Y4.1357
G01 X32.9390 Y4.0477
G01 X32.9376 Y4.0405
G01 X32.9248 Y3.9531
G01 X32.9202 Y3.8600
G01 X32.9248 Y3.7669
G01 X32.9385 Y3.6747
G01 X32.9611 Y3.5843
G01 X32.9925 Y3.4965
G01 X33.0324 Y3.4123
G01 X33.0789 Y3.3344
G01 X33.0831 Y3.3283
G01 X33.1358 Y3.2575
G01 X33.1984 Y3.1884
G01 X33.2675 Y3.1258
G01 X33.3423 Y3.0703
G01 X33.4223 Y3.0224
G01 X33.5065 Y2.9825
G01 X33.5943 Y2.9511
G01 X33.6847 Y2.9285
G01 X33.7769 Y2.9148
G01 X33.8700 Y2.9102
G01 X33.9631 Y2.9148
G01 X34.0553 Y2.9285
G01 X34.1457 Y2.9511
G01 X34.2335 Y2.9825
G01 X34.3177 Y3.0224
G01 X34.3956 Y3.0689
G01 X34.4017 Y3.0731
G01 X34.4725 Y3.1258
G01 X34.5381 Y3.1850
G01 X34.5450 Y3.1919
G01 X34.6042 Y3.2575
G01 X34.6569 Y3.3283
G01 X34.6624 Y3.3365
G01 X34.7076 Y3.4123
G01 X34.7455 Y3.4920
G01 X34.7493 Y3.5011
G01 X34.7789 Y3.5843
G01 X34.8005 Y3.6699
G01 X34.8024 Y3.6795
G01 X34.8152 Y3.7669
G01 X34.8197 Y3.8551
G01 X34.8198 Y3.8624
G01 X34.8152 Y3.9531
G01 X34.8015 Y4.0453
G01 X34.7789 Y4.1357
G01 X34.7493 Y4.2189
G01 X34.7465 Y4.2257
G01 X34.7076 Y4.3077
G01 X34.6624 Y4.3835
G01 X34.6569 Y4.3917
G01 X34.6026 Y4.4644
G01 X34.5416 Y4.5316
G01 X34.4744 Y4.5926
G01 X34.4687 Y4.5972
G01 X34.3997 Y4.6483
G01 X34.3700 Y4.6665
G01 X34.3700 Y4.8550
G01 X49.1150 Y19.6000
G01 X86.3050 Y19.6000
G01 X86.3491 Y19.6020
G01 X86.3589 Y19.6030
G01 X86.3977 Y19.6088
G01 X86.4073 Y19.6107
G01 X86.4501 Y19.6215
G01 X86.4963 Y19.6381
G01 X86.5407 Y19.6590
G01 X86.5786 Y19.6816
G01 X86.5868 Y19.6871
G01 X86.6241 Y19.7151
G01 X86.6585 Y19.7464
G01 X87.6288 Y20.7161
G01 X87.6621 Y20.7080
G01 X87.7495 Y20.6950
G01 X87.7568 Y20.6944
G01 X87.8474 Y20.6902
G01 X87.9381 Y20.6948
G01 X88.0255 Y20.7076
G01 X88.0351 Y20.7095
G01 X88.1184 Y20.7304
G01 X88.1254 Y20.7326
G01 X88.2085 Y20.7625
G01 X88.2884 Y20.8001
G01 X88.2970 Y20.8048
G01 X88.3727 Y20.8503
G01 X88.4437 Y20.9028
G01 X88.4513 Y20.9090
G01 X88.5149 Y20.9667
G01 X88.5760 Y21.0337
G01 X88.5822 Y21.0413
G01 X88.6347 Y21.1123
G01 X88.6802 Y21.1880
G01 X88.6849 Y21.1966
G01 X88.7225 Y21.2765
G01 X88.7524 Y21.3596
G01 X88.7552 Y21.3690
G01 X88.7765 Y21.4547
G01 X88.7896 Y21.5420
G01 X88.7906 Y21.5518
G01 X88.7948 Y21.6400
G01 X88.7906 Y21.7282
G01 X88.7896 Y21.7380
G01 X88.7765 Y21.8253
G01 X88.7539 Y21.9157
G01 X88.7225 Y22.0035
G01 X88.6849 Y22.0834
G01 X88.6802 Y22.0920
G01 X88.6374 Y22.1635
G01 X88.6319 Y22.1717
G01 X88.5792 Y22.2425
G01 X88.5200 Y22.3081
G01 X88.5131 Y22.3150
G01 X88.4475 Y22.3742
G01 X88.3727 Y22.4297
G01 X88.2927 Y22.4776
G01 X88.2085 Y22.5175
G01 X88.1207 Y22.5489
G01 X88.0303 Y22.5715
G01 X87.9381 Y22.5852
G01 X87.8499 Y22.5897
G01 X87.8401 Y22.5897
G01 X87.7519 Y22.5852
G01 X87.6645 Y22.5724
G01 X87.6549 Y22.5705
G01 X87.5740 Y22.5502
G01 X87.5646 Y22.5474
G01 X87.4815 Y22.5175
G01 X87.3994 Y22.4788
G01 X87.3930 Y22.4752
G01 X87.3173 Y22.4297
G01 X87.2463 Y22.3772
G01 X87.2387 Y22.3710
G01 X87.1769 Y22.3150
G01 X87.1700 Y22.3081
G01 X87.1108 Y22.2425
G01 X87.0553 Y22.1677
G01 X87.0074 Y22.0877
G01 X86.9685 Y22.0057
G01 X86.9376 Y21.9204
G01 X86.9348 Y21.9110
G01 X86.9135 Y21.8253
G01 X86.9004 Y21.7380
G01 X86.8996 Y21.7307
G01 X86.8952 Y21.6400
G01 X86.8996 Y21.5493
G01 X86.9004 Y21.5420
G01 X86.9130 Y21.4571
G01 X86.9212 Y21.4233
G01 X86.0979 Y20.6000
G01 X48.9079 Y20.6000
G01 X48.8638 Y20.5980
G01 X48.8540 Y20.5970
G01 X48.8104 Y20.5904
G01 X48.7628 Y20.5785
G01 X48.7211 Y20.5637
G01 X48.7121 Y20.5600
G01 X48.6722 Y20.5410
G01 X48.6343 Y20.5184
G01 X48.6261 Y20.5129
G01 X48.5907 Y20.4865
G01 X48.5544 Y20.4536
G01 X33.5147 Y5.4139
G01 X33.4835 Y5.3793
G01 X33.4571 Y5.3439
G01 X33.4516 Y5.3357
G01 X33.4290 Y5.2978
G01 X33.4100 Y5.2579
G01 X33.4063 Y5.2489
G01 X33.3915 Y5.2072
G01 X33.3796 Y5.1596
G01 X33.3724 Y5.1111
G01 X33.3700 Y5.0645
G01 X33.3700 Y4.6665
G00 Z2.0000
G00 X33.2303 Y4.7407
G01 F90.00
G01 Z-0.1859
G01 F100.00
G01 X33.1881 Y4.7094
G01 X33.1743 Y4.6984
G01 X33.1081 Y4.6385
G01 X33.0955 Y4.6262
G01 X33.0355 Y4.5601
G01 X33.0278 Y4.5512
G01 X33.0206 Y4.5419
G01 X32.9709 Y4.4749
G01 X32.9609 Y4.4604
G01 X32.9149 Y4.3838
G01 X32.9091 Y4.3736
G01 X32.9038 Y4.3631
G01 X32.8682 Y4.2877
G01 X32.8634 Y4.2769
G01 X32.8592 Y4.2660
G01 X32.8311 Y4.1874
G01 X32.8274 Y4.1763
G01 X32.8243 Y4.1649
G01 X32.8040 Y4.0840
G01 X32.8003 Y4.0668
G01 X32.7872 Y3.9785
G01 X32.7857 Y3.9668
G01 X32.7849 Y3.9551
G01 X32.7808 Y3.8718
G01 X32.7805 Y3.8600
G01 X32.7808 Y3.8482
G01 X32.7849 Y3.7649
G01 X32.7857 Y3.7532
G01 X32.7872 Y3.7415
G01 X32.7994 Y3.6590
G01 X32.8014 Y3.6474
G01 X32.8040 Y3.6360
G01 X32.8243 Y3.5551
G01 X32.8274 Y3.5437
G01 X32.8311 Y3.5326
G01 X32.8592 Y3.4540
G01 X32.8634 Y3.4431
G01 X32.8682 Y3.4323
G01 X32.9038 Y3.3569
G01 X32.9091 Y3.3464
G01 X32.9149 Y3.3362
G01 X32.9578 Y3.2646
G01 X32.9674 Y3.2498
G01 X33.0206 Y3.1781
G01 X33.0278 Y3.1688
G01 X33.0355 Y3.1599
G01 X33.0915 Y3.0981
G01 X33.0996 Y3.0896
G01 X33.1081 Y3.0815
G01 X33.1699 Y3.0255
G01 X33.1788 Y3.0178
G01 X33.1881 Y3.0106
G01 X33.2551 Y2.9609
G01 X33.2647 Y2.9541
G01 X33.2746 Y2.9478
G01 X33.3462 Y2.9049
G01 X33.3564 Y2.8991
G01 X33.3669 Y2.8938
G01 X33.4423 Y2.8582
G01 X33.4531 Y2.8534
G01 X33.4640 Y2.8492
G01 X33.5426 Y2.8211
G01 X33.5537 Y2.8174
G01 X33.5651 Y2.8143
G01 X33.6460 Y2.7940
G01 X33.6574 Y2.7914
G01 X33.6690 Y2.7894
G01 X33.7515 Y2.7772
G01 X33.7632 Y2.7757
G01 X33.7749 Y2.7749
G01 X33.8582 Y2.7708
G01 X33.8700 Y2.7705
G01 X33.8818 Y2.7708
G01 X33.9651 Y2.7749
G01 X33.9768 Y2.7757
G01 X33.9885 Y2.7772
G01 X34.0710 Y2.7894
G01 X34.0826 Y2.7914
G01 X34.0940 Y2.7940
G01 X34.1749 Y2.8143
G01 X34.1863 Y2.8174
G01 X34.1974 Y2.8211
G01 X34.2760 Y2.8492
G01 X34.2869 Y2.8534
G01 X34.2977 Y2.8582
G01 X34.3731 Y2.8938
G01 X34.3836 Y2.8991
G01 X34.3938 Y2.9049
G01 X34.4654 Y2.9478
G01 X34.4802 Y2.9574
G01 X34.5519 Y3.0106
G01 X34.5612 Y3.0178
G01 X34.5701 Y3.0255
G01 X34.6319 Y3.0815
G01 X34.6404 Y3.0896
G01 X34.6485 Y3.0981
G01 X34.7045 Y3.1599
G01 X34.7122 Y3.1688
G01 X34.7194 Y3.1781
G01 X34.7691 Y3.2451
G01 X34.7759 Y3.2547
G01 X34.7822 Y3.2646
G01 X34.8251 Y3.3362
G01 X34.8309 Y3.3464
G01 X34.8362 Y3.3569
G01 X34.8718 Y3.4323
G01 X34.8766 Y3.4431
G01 X34.8808 Y3.4540
G01 X34.9089 Y3.5326
G01 X34.9126 Y3.5437
G01 X34.9157 Y3.5551
G01 X34.9360 Y3.6360
G01 X34.9386 Y3.6474
G01 X34.9406 Y3.6590
G01 X34.9528 Y3.7415
G01 X34.9543 Y3.7532
G01 X34.9551 Y3.7649
G01 X34.9594 Y3.8541
G01 X34.9592 Y3.8718
G01 X34.9551 Y3.9551
G01 X34.9543 Y3.9668
G01 X34.9528 Y3.9785
G01 X34.9406 Y4.0610
G01 X34.9386 Y4.0726
G01 X34.9360 Y4.0840
G01 X34.9157 Y4.1649
G01 X34.9126 Y4.1763
G01 X34.9089 Y4.1874
G01 X34.8808 Y4.2660
G01 X34.8766 Y4.2769
G01 X34.8718 Y4.2877
G01 X34.8362 Y4.3631
G01 X34.8309 Y4.3736
G01 X34.8251 Y4.3838
G01 X34.7822 Y4.4554
G01 X34.7759 Y4.4653
G01 X34.7691 Y4.4749
G01 X34.7194 Y4.5419
G01 X34.7084 Y4.5557
G01 X34.6485 Y4.6219
G01 X34.6362 Y4.6345
G01 X34.5701 Y4.6945
G01 X34.5612 Y4.7022
G01 X34.5097 Y4.7407
G01 X34.5097 Y4.7971
G01 X49.1729 Y19.4603
G01 X49.9035 Y19.4603
G01 X35.9576 Y5.5144
G01 X35.9495 Y5.5059
G01 X35.9155 Y5.4679
G01 X35.8849 Y5.4271
G01 X35.8781 Y5.4175
G01 X35.8718 Y5.4076
G01 X35.8458 Y5.3636
G01 X35.8237 Y5.3176
G01 X35.8190 Y5.3069
G01 X35.8147 Y5.2959
G01 X35.7978 Y5.2478
G01 X35.7851 Y5.1984
G01 X35.7826 Y5.1869
G01 X35.7806 Y5.1753
G01 X35.7734 Y5.1248
G01 X35.7704 Y5.0680
G01 X35.7703 Y4.7407
G01 X35.7188 Y4.7022
G01 X35.7099 Y4.6945
G01 X35.6438 Y4.6345
G01 X35.6315 Y4.6219
G01 X35.5716 Y4.5557
G01 X35.5606 Y4.5419
G01 X35.5109 Y4.4749
G01 X35.5041 Y4.4653
G01 X35.4978 Y4.4554
G01 X35.4520 Y4.3787
G01 X35.4438 Y4.3631
G01 X35.4082 Y4.2877
G01 X35.4034 Y4.2769
G01 X35.3992 Y4.2660
G01 X35.3711 Y4.1874
G01 X35.3674 Y4.1763
G01 X35.3643 Y4.1649
G01 X35.3440 Y4.0840
G01 X35.3414 Y4.0726
G01 X35.3394 Y4.0610
G01 X35.3272 Y3.9785
G01 X35.3252 Y3.9609
G01 X35.3208 Y3.8718
G01 X35.3205 Y3.8600
G01 X35.3208 Y3.8482
G01 X35.3249 Y3.7649
G01 X35.3257 Y3.7532
G01 X35.3272 Y3.7415
G01 X35.3394 Y3.6590
G01 X35.3414 Y3.6474
G01 X35.3440 Y3.6360
G01 X35.3643 Y3.5551
G01 X35.3674 Y3.5437
G01 X35.3711 Y3.5326
G01 X35.3992 Y3.4540
G01 X35.4034 Y3.4431
G01 X35.4082 Y3.4323
G01 X35.4438 Y3.3569
G01 X35.4491 Y3.3464
G01 X35.4549 Y3.3362
G01 X35.4978 Y3.2646
G01 X35.5041 Y3.2547
G01 X35.5109 Y3.2451
G01 X35.5606 Y3.1781
G01 X35.5678 Y3.1688
G01 X35.5755 Y3.1599
G01 X35.6315 Y3.0981
G01 X35.6396 Y3.0896
G01 X35.6481 Y3.0815
G01 X35.7099 Y3.0255
G01 X35.7188 Y3.0178
G01 X35.7281 Y3.0106
G01 X35.7951 Y2.9609
G01 X35.8047 Y2.9541
G01 X35.8146 Y2.9478
G01 X35.8862 Y2.9049
G01 X35.8964 Y2.8991
G01 X35.9069 Y2.8938
G01 X35.9823 Y2.8582
G01 X35.9931 Y2.8534
G01 X36.0040 Y2.8492
G01 X36.0826 Y2.8211
G01 X36.0937 Y2.8174
G01 X36.1051 Y2.8143
G01 X36.1860 Y2.7940
G01 X36.1974 Y2.7914
G01 X36.2090 Y2.7894
G01 X36.2915 Y2.7772
G01 X36.3032 Y2.7757
G01 X36.3149 Y2.7749
G01 X36.3982 Y2.7708
G01 X36.4100 Y2.7705
G01 X36.4218 Y2.7708
G01 X36.5051 Y2.7749
G01 X36.5168 Y2.7757
G01 X36.5285 Y2.7772
G01 X36.6110 Y2.7894
G01 X36.6226 Y2.7914
G01 X36.6340 Y2.7940
G01 X36.7149 Y2.8143
G01 X36.7263 Y2.8174
G01 X36.7374 Y2.8211
G01 X36.8160 Y2.8492
G01 X36.8269 Y2.8534
G01 X36.8377 Y2.8582
G01 X36.9131 Y2.8938
G01 X36.9236 Y2.8991
G01 X36.9338 Y2.9049
G01 X37.0054 Y2.9478
G01 X37.0153 Y2.9541
G01 X37.0249 Y2.9609
G01 X37.0919 Y3.0106
G01 X37.1012 Y3.0178
G01 X37.1101 Y3.0255
G01 X37.1719 Y3.0815
G01 X37.1845 Y3.0938
G01 X37.2445 Y3.1599
G01 X37.2522 Y3.1688
G01 X37.2594 Y3.1781
G01 X37.3091 Y3.2451
G01 X37.3159 Y3.2547
G01 X37.3222 Y3.2646
G01 X37.3651 Y3.3362
G01 X37.3709 Y3.3464
G01 X37.3762 Y3.3569
G01 X37.4118 Y3.4323
G01 X37.4166 Y3.4431
G01 X37.4208 Y3.4540
G01 X37.4489 Y3.5326
G01 X37.4526 Y3.5437
G01 X37.4557 Y3.5551
G01 X37.4760 Y3.6360
G01 X37.4786 Y3.6474
G01 X37.4806 Y3.6590
G01 X37.4928 Y3.7415
G01 X37.4943 Y3.7532
G01 X37.4951 Y3.7649
G01 X37.4992 Y3.8482
G01 X37.4995 Y3.8600
G01 X37.4992 Y3.8718
G01 X37.4948 Y3.9609
G01 X37.4928 Y3.9785
G01 X37.4806 Y4.0610
G01 X37.4786 Y4.0726
G01 X37.4760 Y4.0840
G01 X37.4557 Y4.1649
G01 X37.4526 Y4.1763
G01 X37.4489 Y4.1874
G01 X37.4208 Y4.2660
G01 X37.4166 Y4.2769
G01 X37.4118 Y4.2877
G01 X37.3762 Y4.3631
G01 X37.3709 Y4.3736
G01 X37.3651 Y4.3838
G01 X37.3222 Y4.4554
G01 X37.3159 Y4.4653
G01 X37.3091 Y4.4749
G01 X37.2594 Y4.5419
G01 X37.2484 Y4.5557
G01 X37.1885 Y4.6219
G01 X37.1762 Y4.6345
G01 X37.1101 Y4.6945
G01 X37.1012 Y4.7022
G01 X37.0497 Y4.7407
G01 X37.0497 Y4.7971
G01 X50.7129 Y18.4603
G01 X87.8450 Y18.4603
G01 X87.8568 Y18.4606
G01 X87.9077 Y18.4634
G01 X87.9582 Y18.4706
G01 X87.9698 Y18.4726
G01 X88.0194 Y18.4847
G01 X88.0307 Y18.4878
G01 X88.0419 Y18.4915
G01 X88.0844 Y18.5068
G01 X88.1006 Y18.5137
G01 X88.1466 Y18.5358
G01 X88.1905 Y18.5618
G01 X88.2004 Y18.5681
G01 X88.2100 Y18.5749
G01 X88.2508 Y18.6055
G01 X88.2888 Y18.6395
G01 X88.2974 Y18.6476
G01 X90.2002 Y20.5505
G01 X91.2350 Y20.5505
G01 X91.2526 Y20.5511
G01 X91.2643 Y20.5523
G01 X91.2759 Y20.5540
G01 X91.2875 Y20.5563
G01 X91.2989 Y20.5592
G01 X91.3101 Y20.5626
G01 X91.3212 Y20.5665
G01 X91.3321 Y20.5710
G01 X91.3427 Y20.5761
G01 X91.3531 Y20.5816
G01 X91.3631 Y20.5876
G01 X91.3729 Y20.5942
G01 X91.3824 Y20.6012
G01 X91.3914 Y20.6086
G01 X91.4002 Y20.6165
G01 X91.4085 Y20.6248
G01 X91.4164 Y20.6336
G01 X91.4274 Y20.6473
G01 X91.4342 Y20.6569
G01 X91.4404 Y20.6669
G01 X91.4489 Y20.6823
G01 X91.4540 Y20.6929
G01 X91.4585 Y20.7038
G01 X91.4624 Y20.7149
G01 X91.4658 Y20.7261
G01 X91.4699 Y20.7433
G01 X91.4727 Y20.7607
G01 X91.4739 Y20.7724
G01 X91.4744 Y20.7841
G01 X91.4745 Y22.4900
G01 X91.4739 Y22.5076
G01 X91.4719 Y22.5251
G01 X91.4687 Y22.5425
G01 X91.4642 Y22.5595
G01 X91.4585 Y22.5762
G01 X91.4515 Y22.5924
G01 X91.4434 Y22.6081
G01 X91.4342 Y22.6231
G01 X91.4238 Y22.6374
G01 X91.4125 Y22.6509
G01 X91.4044 Y22.6594
G01 X91.3959 Y22.6675
G01 X91.3824 Y22.6788
G01 X91.3681 Y22.6892
G01 X91.3531 Y22.6984
G01 X91.3374 Y22.7065
G01 X91.3212 Y22.7135
G01 X91.3045 Y22.7192
G01 X91.2875 Y22.7237
G01 X91.2701 Y22.7269
G01 X91.2526 Y22.7289
G01 X91.2350 Y22.7295
G01 X89.5291 Y22.7294
G01 X89.5115 Y22.7284
G01 X89.4941 Y22.7260
G01 X89.4768 Y22.7223
G01 X89.4655 Y22.7192
G01 X89.4543 Y22.7155
G01 X89.4379 Y22.7090
G01 X89.4273 Y22.7039
G01 X89.4119 Y22.6954
G01 X89.3971 Y22.6858
G01 X89.3876 Y22.6788
G01 X89.3786 Y22.6714
G01 X89.3698 Y22.6635
G01 X89.3615 Y22.6552
G01 X89.3498 Y22.6419
G01 X89.3392 Y22.6279
G01 X89.3326 Y22.6181
G01 X89.3266 Y22.6081
G01 X89.3185 Y22.5924
G01 X89.3137 Y22.5817
G01 X89.3076 Y22.5651
G01 X89.3042 Y22.5539
G01 X89.3013 Y22.5425
G01 X89.2981 Y22.5251
G01 X89.2966 Y22.5135
G01 X89.2958 Y22.5018
G01 X89.2955 Y22.4900
G01 X89.2955 Y21.4552
G01 X87.5800 Y19.7397
G01 X86.8495 Y19.7397
G01 X87.6751 Y20.5648
G01 X87.7382 Y20.5557
G01 X87.7499 Y20.5549
G01 X87.8391 Y20.5506
G01 X87.8568 Y20.5508
G01 X87.9401 Y20.5549
G01 X87.9576 Y20.5564
G01 X88.0460 Y20.5694
G01 X88.0576 Y20.5714
G01 X88.0690 Y20.5740
G01 X88.1499 Y20.5943
G01 X88.1613 Y20.5974
G01 X88.1724 Y20.6011
G01 X88.2565 Y20.6312
G01 X88.2727 Y20.6382
G01 X88.3481 Y20.6738
G01 X88.3586 Y20.6791
G01 X88.3688 Y20.6849
G01 X88.4404 Y20.7278
G01 X88.4503 Y20.7341
G01 X88.4599 Y20.7409
G01 X88.5269 Y20.7906
G01 X88.5362 Y20.7978
G01 X88.5451 Y20.8055
G01 X88.6069 Y20.8615
G01 X88.6154 Y20.8696
G01 X88.6235 Y20.8781
G01 X88.6795 Y20.9399
G01 X88.6872 Y20.9488
G01 X88.6944 Y20.9581
G01 X88.7441 Y21.0251
G01 X88.7509 Y21.0347
G01 X88.7572 Y21.0446
G01 X88.8001 Y21.1162
G01 X88.8059 Y21.1264
G01 X88.8112 Y21.1369
G01 X88.8468 Y21.2123
G01 X88.8516 Y21.2231
G01 X88.8558 Y21.2340
G01 X88.8839 Y21.3126
G01 X88.8876 Y21.3237
G01 X88.8907 Y21.3351
G01 X88.9110 Y21.4160
G01 X88.9136 Y21.4274
G01 X88.9156 Y21.4390
G01 X88.9278 Y21.5215
G01 X88.9293 Y21.5332
G01 X88.9301 Y21.5449
G01 X88.9342 Y21.6282
G01 X88.9345 Y21.6400
G01 X88.9342 Y21.6518
G01 X88.9301 Y21.7351
G01 X88.9293 Y21.7468
G01 X88.9278 Y21.7585
G01 X88.9156 Y21.8410
G01 X88.9136 Y21.8526
G01 X88.9110 Y21.8640
G01 X88.8907 Y21.9449
G01 X88.8876 Y21.9563
G01 X88.8839 Y21.9674
G01 X88.8558 Y22.0460
G01 X88.8516 Y22.0569
G01 X88.8468 Y22.0677
G01 X88.8112 Y22.1431
G01 X88.8059 Y22.1536
G01 X88.8001 Y22.1638
G01 X88.7572 Y22.2354
G01 X88.7509 Y22.2453
G01 X88.7441 Y22.2549
G01 X88.6944 Y22.3219
G01 X88.6872 Y22.3312
G01 X88.6795 Y22.3401
G01 X88.6235 Y22.4019
G01 X88.6154 Y22.4104
G01 X88.6069 Y22.4185
G01 X88.5451 Y22.4745
G01 X88.5362 Y22.4822
G01 X88.5269 Y22.4894
G01 X88.4599 Y22.5391
G01 X88.4503 Y22.5459
G01 X88.4404 Y22.5522
G01 X88.3688 Y22.5951
G01 X88.3586 Y22.6009
G01 X88.3481 Y22.6062
G01 X88.2727 Y22.6418
G01 X88.2619 Y22.6466
G01 X88.2510 Y22.6508
G01 X88.1724 Y22.6789
G01 X88.1613 Y22.6826
G01 X88.1499 Y22.6857
G01 X88.0690 Y22.7060
G01 X88.0576 Y22.7086
G01 X88.0460 Y22.7106
G01 X87.9635 Y22.7228
G01 X87.9518 Y22.7243
G01 X87.9401 Y22.7251
G01 X87.8568 Y22.7292
G01 X87.8450 Y22.7295
G01 X87.8332 Y22.7292
G01 X87.7499 Y22.7251
G01 X87.7382 Y22.7243
G01 X87.7265 Y22.7228
G01 X87.6440 Y22.7106
G01 X87.6324 Y22.7086
G01 X87.6210 Y22.7060
G01 X87.5401 Y22.6857
G01 X87.5287 Y22.6826
G01 X87.5176 Y22.6789
G01 X87.4390 Y22.6508
G01 X87.4281 Y22.6466
G01 X87.4173 Y22.6418
G01 X87.3419 Y22.6062
G01 X87.3314 Y22.6009
G01 X87.3212 Y22.5951
G01 X87.2496 Y22.5522
G01 X87.2397 Y22.5459
G01 X87.2301 Y22.5391
G01 X87.1631 Y22.4894
G01 X87.1538 Y22.4822
G01 X87.1449 Y22.4745
G01 X87.0831 Y22.4185
G01 X87.0746 Y22.4104
G01 X87.0665 Y22.4019
G01 X87.0105 Y22.3401
G01 X87.0028 Y22.3312
G01 X86.9956 Y22.3219
G01 X86.9459 Y22.2549
G01 X86.9391 Y22.2453
G01 X86.9328 Y22.2354
G01 X86.8899 Y22.1638
G01 X86.8814 Y22.1484
G01 X86.8432 Y22.0677
G01 X86.8384 Y22.0569
G01 X86.8342 Y22.0460
G01 X86.8061 Y21.9674
G01 X86.8024 Y21.9563
G01 X86.7993 Y21.9449
G01 X86.7790 Y21.8640
G01 X86.7753 Y21.8468
G01 X86.7622 Y21.7585
G01 X86.7607 Y21.7468
G01 X86.7599 Y21.7351
G01 X86.7556 Y21.6459
G01 X86.7558 Y21.6282
G01 X86.7602 Y21.5391
G01 X86.7622 Y21.5215
G01 X86.7699 Y21.4696
G01 X86.0400 Y20.7397
G01 X85.9183 Y20.7397
G01 X85.9869 Y20.7906
G01 X85.9962 Y20.7978
G01 X86.0051 Y20.8055
G01 X86.0669 Y20.8615
G01 X86.0754 Y20.8696
G01 X86.0835 Y20.8781
G01 X86.1395 Y20.9399
G01 X86.1472 Y20.9488
G01 X86.1544 Y20.9581
G01 X86.2041 Y21.0251
G01 X86.2109 Y21.0347
G01 X86.2172 Y21.0446
G01 X86.2601 Y21.1162
G01 X86.2659 Y21.1264
G01 X86.2712 Y21.1369
G01 X86.3068 Y21.2123
G01 X86.3116 Y21.2231
G01 X86.3158 Y21.2340
G01 X86.3439 Y21.3126
G01 X86.3476 Y21.3237
G01 X86.3507 Y21.3351
G01 X86.3710 Y21.4160
G01 X86.3736 Y21.4274
G01 X86.3756 Y21.4390
G01 X86.3878 Y21.5215
G01 X86.3893 Y21.5332
G01 X86.3901 Y21.5449
G01 X86.3942 Y21.6282
G01 X86.3945 Y21.6400
G01 X86.3942 Y21.6518
G01 X86.3901 Y21.7351
G01 X86.3893 Y21.7468
G01 X86.3878 Y21.7585
G01 X86.3756 Y21.8410
G01 X86.3736 Y21.8526
G01 X86.3710 Y21.8640
G01 X86.3507 Y21.9449
G01 X86.3476 Y21.9563
G01 X86.3439 Y21.9674
G01 X86.3158 Y22.0460
G01 X86.3116 Y22.0569
G01 X86.3068 Y22.0677
G01 X86.2712 Y22.1431
G01 X86.2659 Y22.1536
G01 X86.2601 Y22.1638
G01 X86.2172 Y22.2354
G01 X86.2109 Y22.2453
G01 X86.2041 Y22.2549
G01 X86.1544 Y22.3219
G01 X86.1472 Y22.3312
G01 X86.1395 Y22.3401
G01 X86.0835 Y22.4019
G01 X86.0754 Y22.4104
G01 X86.0669 Y22.4185
G01 X86.0051 Y22.4745
G01 X85.9962 Y22.4822
G01 X85.9869 Y22.4894
G01 X85.9199 Y22.5391
G01 X85.9103 Y22.5459
G01 X85.9004 Y22.5522
G01 X85.8288 Y22.5951
G01 X85.8186 Y22.6009
G01 X85.8081 Y22.6062
G01 X85.7273 Y22.6443
G01 X85.7110 Y22.6508
G01 X85.6324 Y22.6789
G01 X85.6213 Y22.6826
G01 X85.6099 Y22.6857
G01 X85.5290 Y22.7060
G01 X85.5176 Y22.7086
G01 X85.5060 Y22.7106
G01 X85.4176 Y22.7236
G01 X85.4001 Y22.7251
G01 X85.3168 Y22.7292
G01 X85.2991 Y22.7294
G01 X85.2099 Y22.7251
G01 X85.1982 Y22.7243
G01 X85.1346 Y22.7151
G01 X84.3074 Y23.5424
G01 X84.2988 Y23.5505
G01 X84.2608 Y23.5845
G01 X84.2200 Y23.6151
G01 X84.2104 Y23.6219
G01 X84.2005 Y23.6282
G01 X84.1566 Y23.6542
G01 X84.1106 Y23.6763
G01 X84.0998 Y23.6810
G01 X84.0519 Y23.6985
G01 X84.0407 Y23.7022
G01 X84.0294 Y23.7053
G01 X83.9798 Y23.7174
G01 X83.9682 Y23.7194
G01 X83.9177 Y23.7266
G01 X83.8668 Y23.7294
G01 X83.8550 Y23.7297
G01 X49.3579 Y23.7297
G01 X49.3069 Y23.7275
G01 X49.2952 Y23.7266
G01 X49.2835 Y23.7252
G01 X49.2331 Y23.7174
G01 X49.2216 Y23.7149
G01 X49.1722 Y23.7022
G01 X49.1241 Y23.6853
G01 X49.1131 Y23.6810
G01 X49.1024 Y23.6763
G01 X49.0564 Y23.6542
G01 X49.0124 Y23.6282
G01 X49.0025 Y23.6219
G01 X48.9929 Y23.6151
G01 X48.9521 Y23.5845
G01 X48.9141 Y23.5505
G01 X48.9056 Y23.5424
G01 X30.8776 Y5.5144
G01 X30.8432 Y5.4768
G01 X30.8355 Y5.4679
G01 X30.8283 Y5.4586
G01 X30.7981 Y5.4175
G01 X30.7716 Y5.3739
G01 X30.7658 Y5.3636
G01 X30.7605 Y5.3531
G01 X30.7390 Y5.3069
G01 X30.7215 Y5.2589
G01 X30.7178 Y5.2478
G01 X30.7147 Y5.2365
G01 X30.7026 Y5.1869
G01 X30.7006 Y5.1753
G01 X30.6934 Y5.1248
G01 X30.6904 Y5.0680
G01 X30.6903 Y4.7407
G01 X30.6388 Y4.7022
G01 X30.6299 Y4.6945
G01 X30.5638 Y4.6345
G01 X30.5515 Y4.6219
G01 X30.4916 Y4.5557
G01 X30.4806 Y4.5419
G01 X30.4309 Y4.4749
G01 X30.4241 Y4.4653
G01 X30.4178 Y4.4554
G01 X30.3720 Y4.3787
G01 X30.3638 Y4.3631
G01 X30.3282 Y4.2877
G01 X30.3234 Y4.2769
G01 X30.3192 Y4.2660
G01 X30.2911 Y4.1874
G01 X30.2874 Y4.1763
G01 X30.2843 Y4.1649
G01 X30.2640 Y4.0840
G01 X30.2614 Y4.0726
G01 X30.2594 Y4.0610
G01 X30.2472 Y3.9785
G01 X30.2457 Y3.9668
G01 X30.2449 Y3.9551
G01 X30.2408 Y3.8718
G01 X30.2405 Y3.8600
G01 X30.2408 Y3.8482
G01 X30.2449 Y3.7649
G01 X30.2457 Y3.7532
G01 X30.2472 Y3.7415
G01 X30.2594 Y3.6590
G01 X30.2614 Y3.6474
G01 X30.2640 Y3.6360
G01 X30.2843 Y3.5551
G01 X30.2874 Y3.5437
G01 X30.2911 Y3.5326
G01 X30.3192 Y3.4540
G01 X30.3234 Y3.4431
G01 X30.3282 Y3.4323
G01 X30.3638 Y3.3569
G01 X30.3691 Y3.3464
G01 X30.3749 Y3.3362
G01 X30.4178 Y3.2646
G01 X30.4241 Y3.2547
G01 X30.4309 Y3.2451
G01 X30.4806 Y3.1781
G01 X30.4878 Y3.1688
G01 X30.4955 Y3.1599
G01 X30.5515 Y3.0981
G01 X30.5596 Y3.0896
G01 X30.5681 Y3.0815
G01 X30.6299 Y3.0255
G01 X30.6388 Y3.0178
G01 X30.6481 Y3.0106
G01 X30.7151 Y2.9609
G01 X30.7247 Y2.9541
G01 X30.7346 Y2.9478
G01 X30.8062 Y2.9049
G01 X30.8164 Y2.8991
G01 X30.8269 Y2.8938
G01 X30.9023 Y2.8582
G01 X30.9131 Y2.8534
G01 X30.9240 Y2.8492
G01 X31.0026 Y2.8211
G01 X31.0137 Y2.8174
G01 X31.0251 Y2.8143
G01 X31.1060 Y2.7940
G01 X31.1174 Y2.7914
G01 X31.1290 Y2.7894
G01 X31.2115 Y2.7772
G01 X31.2232 Y2.7757
G01 X31.2349 Y2.7749
G01 X31.3182 Y2.7708
G01 X31.3300 Y2.7705
G01 X31.3418 Y2.7708
G01 X31.4251 Y2.7749
G01 X31.4368 Y2.7757
G01 X31.4485 Y2.7772
G01 X31.5310 Y2.7894
G01 X31.5426 Y2.7914
G01 X31.5540 Y2.7940
G01 X31.6349 Y2.8143
G01 X31.6463 Y2.8174
G01 X31.6574 Y2.8211
G01 X31.7360 Y2.8492
G01 X31.7469 Y2.8534
G01 X31.7577 Y2.8582
G01 X31.8331 Y2.8938
G01 X31.8436 Y2.8991
G01 X31.8538 Y2.9049
G01 X31.9254 Y2.9478
G01 X31.9353 Y2.9541
G01 X31.9449 Y2.9609
G01 X32.0119 Y3.0106
G01 X32.0212 Y3.0178
G01 X32.0301 Y3.0255
G01 X32.0919 Y3.0815
G01 X32.1004 Y3.0896
G01 X32.1085 Y3.0981
G01 X32.1645 Y3.1599
G01 X32.1722 Y3.1688
G01 X32.1794 Y3.1781
G01 X32.2291 Y3.2451
G01 X32.2359 Y3.2547
G01 X32.2422 Y3.2646
G01 X32.2851 Y3.3362
G01 X32.2909 Y3.3464
G01 X32.2962 Y3.3569
G01 X32.3318 Y3.4323
G01 X32.3366 Y3.4431
G01 X32.3408 Y3.4540
G01 X32.3689 Y3.5326
G01 X32.3726 Y3.5437
G01 X32.3757 Y3.5551
G01 X32.3960 Y3.6360
G01 X32.3986 Y3.6474
G01 X32.4006 Y3.6590
G01 X32.4128 Y3.7415
G01 X32.4143 Y3.7532
G01 X32.4151 Y3.7649
G01 X32.4192 Y3.8482
G01 X32.4195 Y3.8600
G01 X32.4192 Y3.8718
G01 X32.4148 Y3.9609
G01 X32.4128 Y3.9785
G01 X32.4006 Y4.0610
G01 X32.3986 Y4.0726
G01 X32.3960 Y4.0840
G01 X32.3757 Y4.1649
G01 X32.3726 Y4.1763
G01 X32.3689 Y4.1874
G01 X32.3408 Y4.2660
G01 X32.3366 Y4.2769
G01 X32.3318 Y4.2877
G01 X32.2962 Y4.3631
G01 X32.2909 Y4.3736
G01 X32.2851 Y4.3838
G01 X32.2422 Y4.4554
G01 X32.2359 Y4.4653
G01 X32.2291 Y4.4749
G01 X32.1794 Y4.5419
G01 X32.1684 Y4.5557
G01 X32.1085 Y4.6219
G01 X32.0962 Y4.6345
G01 X32.0301 Y4.6945
G01 X32.0212 Y4.7022
G01 X31.9697 Y4.7407
G01 X31.9697 Y4.7971
G01 X49.6229 Y22.4503
G01 X59.1782 Y22.4503
G01 X59.1431 Y22.4185
G01 X59.1305 Y22.4062
G01 X59.0666 Y22.3357
G01 X59.0556 Y22.3219
G01 X59.0024 Y22.2502
G01 X58.9928 Y22.2354
G01 X58.9499 Y22.1638
G01 X58.9441 Y22.1536
G01 X58.9388 Y22.1431
G01 X58.9032 Y22.0677
G01 X58.8962 Y22.0515
G01 X58.8661 Y21.9674
G01 X58.8624 Y21.9563
G01 X58.8593 Y21.9449
G01 X58.8390 Y21.8640
G01 X58.8364 Y21.8526
G01 X58.8344 Y21.8410
G01 X58.8222 Y21.7585
G01 X58.8207 Y21.7468
G01 X58.8199 Y21.7351
G01 X58.8158 Y21.6518
G01 X58.8155 Y21.6400
G01 X58.8158 Y21.6282
G01 X58.8202 Y21.5391
G01 X58.8222 Y21.5215
G01 X58.8344 Y21.4390
G01 X58.8364 Y21.4274
G01 X58.8390 Y21.4160
G01 X58.8593 Y21.3351
G01 X58.8624 Y21.3237
G01 X58.8661 Y21.3126
G01 X58.8942 Y21.2340
G01 X58.8984 Y21.2231
G01 X58.9032 Y21.2123
G01 X58.9388 Y21.1369
G01 X58.9441 Y21.1264
G01 X58.9499 Y21.1162
G01 X58.9928 Y21.0446
G01 X58.9991 Y21.0347
G01 X59.0059 Y21.0251
G01 X59.0556 Y20.9581
G01 X59.0628 Y20.9488
G01 X59.0705 Y20.9399
G01 X59.1265 Y20.8781
G01 X59.1346 Y20.8696
G01 X59.1431 Y20.8615
G01 X59.2049 Y20.8055
G01 X59.2138 Y20.7978
G01 X59.2231 Y20.7906
G01 X59.2917 Y20.7397
G01 X48.9079 Y20.7397
G01 X48.8569 Y20.7375
G01 X48.8452 Y20.7366
G01 X48.8335 Y20.7352
G01 X48.7831 Y20.7274
G01 X48.7716 Y20.7249
G01 X48.7222 Y20.7122
G01 X48.6741 Y20.6953
G01 X48.6631 Y20.6910
G01 X48.6524 Y20.6863
G01 X48.6064 Y20.6642
G01 X48.5624 Y20.6382
G01 X48.5525 Y20.6319
G01 X48.5429 Y20.6251
G01 X48.5021 Y20.5945
G01 X48.4641 Y20.5605
G01 X48.4556 Y20.5524
G01 X33.4135 Y5.5102
G01 X33.3755 Y5.4679
G01 X33.3449 Y5.4271
G01 X33.3381 Y5.4175
G01 X33.3318 Y5.4076
G01 X33.3058 Y5.3636
G01 X33.2837 Y5.3176
G01 X33.2790 Y5.3069
G01 X33.2747 Y5.2959
G01 X33.2578 Y5.2478
G01 X33.2451 Y5.1984
G01 X33.2415 Y5.1811
G01 X33.2340 Y5.1306
G01 X33.2325 Y5.1131
G01 X33.2304 Y5.0680
G01 X33.2303 Y4.7407
G00 Z2.0000
G00 X32.9841 Y5.6139
G01 F90.00
G01 Z-0.1859
G01 F100.00
G01 X33.0096 Y5.6064
G01 X33.0360 Y5.5966
G01 X33.0617 Y5.5848
G01 X33.0864 Y5.5711
G01 X33.1100 Y5.5556
G01 X33.1736 Y5.5082
G01 X33.1955 Y5.4904
G01 X33.2104 Y5.4767
G01 X33.2168 Y5.4873
G01 X33.2272 Y5.5028
G01 X33.2617 Y5.5493
G01 X33.2796 Y5.5706
G01 X33.3060 Y5.5997
G01 X33.3189 Y5.6132
G01 X48.3568 Y20.6511
G01 X48.3703 Y20.6640
G01 X48.3994 Y20.6904
G01 X48.4207 Y20.7083
G01 X48.4672 Y20.7428
G01 X48.4827 Y20.7532
G01 X48.4967 Y20.7617
G01 X48.4671 Y20.7896
G01 X48.4477 Y20.8101
G01 X48.4356 Y20.8246
G01 X48.4243 Y20.8396
G01 X48.4087 Y20.8632
G01 X48.3950 Y20.8879
G01 X48.3869 Y20.9049
G01 X48.3796 Y20.9223
G01 X48.3703 Y20.9490
G01 X48.3653 Y20.9671
G01 X48.3596 Y20.9894
G01 X32.9841 Y5.6139
G00 Z2.0000
G00 X32.2719 Y4.7368
G01 F90.00
G01 Z-0.1859
G01 F100.00
G01 X32.2950 Y4.6683
G01 X32.2997 Y4.6574
G01 X32.3044 Y4.6492
G01 X32.4182 Y4.4865
G01 X32.4230 Y4.4805
G01 X32.4430 Y4.4576
G01 X32.4500 Y4.4509
G01 X32.4557 Y4.4464
G01 X32.4617 Y4.4423
G01 X32.4680 Y4.4386
G01 X32.5370 Y4.4038
G01 X32.5462 Y4.4003
G01 X32.5533 Y4.3982
G01 X32.5606 Y4.3967
G01 X32.5680 Y4.3957
G01 X32.5779 Y4.3952
G01 X32.5853 Y4.3955
G01 X32.6573 Y4.4029
G01 X32.6646 Y4.4040
G01 X32.6767 Y4.4069
G01 X32.6860 Y4.4103
G01 X32.6949 Y4.4147
G01 X32.7033 Y4.4198
G01 X32.7093 Y4.4243
G01 X32.7657 Y4.4694
G01 X32.7727 Y4.4758
G01 X32.7775 Y4.4811
G01 X32.7833 Y4.4886
G01 X32.9082 Y4.6670
G01 X33.0074 Y4.7664
G01 X33.0319 Y4.7970
G01 X33.0382 Y4.8075
G01 X33.0432 Y4.8186
G01 X33.0659 Y4.8949
G01 X33.0679 Y4.9042
G01 X33.0688 Y4.9113
G01 X33.0693 Y4.9208
G01 X33.0693 Y4.9841
G01 X33.0675 Y5.0087
G01 X33.0660 Y5.0199
G01 X33.0692 Y5.0814
G01 X33.0693 Y5.1041
G01 X33.0701 Y5.1134
G01 X33.0704 Y5.1424
G01 X33.0699 Y5.1498
G01 X33.0688 Y5.1572
G01 X33.0672 Y5.1645
G01 X33.0651 Y5.1716
G01 X33.0389 Y5.2417
G01 X33.0348 Y5.2507
G01 X33.0284 Y5.2613
G01 X33.0239 Y5.2673
G01 X33.0190 Y5.2729
G01 X33.0100 Y5.2814
G01 X32.9461 Y5.3292
G01 X32.9354 Y5.3355
G01 X32.9241 Y5.3404
G01 X32.9146 Y5.3432
G01 X32.9024 Y5.3455
G01 X32.8228 Y5.3512
G01 X32.8105 Y5.3507
G01 X32.7982 Y5.3487
G01 X32.7864 Y5.3451
G01 X32.7750 Y5.3402
G01 X32.7115 Y5.3055
G01 X32.7034 Y5.3006
G01 X32.6958 Y5.2949
G01 X32.6888 Y5.2885
G01 X32.3321 Y4.9318
G01 X32.3253 Y4.9243
G01 X32.3045 Y4.8975
G01 X32.3003 Y4.8916
G01 X32.2953 Y4.8833
G01 X32.2912 Y4.8745
G01 X32.2887 Y4.8677
G01 X32.2867 Y4.8607
G01 X32.2686 Y4.7881
G01 X32.2669 Y4.7758
G01 X32.2668 Y4.7635
G01 X32.2674 Y4.7561
G01 X32.2687 Y4.7487
G01 X32.2719 Y4.7368
G00 Z2.0000
G00 X32.1395 Y4.6921
G01 F90.00
G01 Z-0.1859
G01 F100.00
G01 X32.1618 Y4.6259
G01 X32.1678 Y4.6099
G01 X32.1725 Y4.5995
G01 X32.1776 Y4.5893
G01 X32.1833 Y4.5794
G01 X32.1893 Y4.5698
G01 X32.3022 Y4.4085
G01 X32.3134 Y4.3937
G01 X32.3380 Y4.3653
G01 X32.3460 Y4.3569
G01 X32.3545 Y4.3489
G01 X32.3633 Y4.3413
G01 X32.3725 Y4.3342
G01 X32.3820 Y4.3275
G01 X32.3918 Y4.3212
G01 X32.4071 Y4.3128
G01 X32.4694 Y4.2813
G01 X32.4802 Y4.2762
G01 X32.4912 Y4.2716
G01 X32.5024 Y4.2676
G01 X32.5138 Y4.2641
G01 X32.5311 Y4.2600
G01 X32.5487 Y4.2572
G01 X32.5665 Y4.2558
G01 X32.5844 Y4.2556
G01 X32.6022 Y4.2568
G01 X32.6776 Y4.2647
G01 X32.6952 Y4.2676
G01 X32.7125 Y4.2718
G01 X32.7239 Y4.2754
G01 X32.7350 Y4.2795
G01 X32.7460 Y4.2841
G01 X32.7567 Y4.2893
G01 X32.7671 Y4.2950
G01 X32.7773 Y4.3012
G01 X32.7871 Y4.3079
G01 X32.7965 Y4.3151
G01 X32.8555 Y4.3624
G01 X32.8641 Y4.3699
G01 X32.8723 Y4.3778
G01 X32.8838 Y4.3904
G01 X32.8910 Y4.3993
G01 X32.8978 Y4.4085
G01 X33.0157 Y4.5769
G01 X33.1070 Y4.6683
G01 X33.1156 Y4.6778
G01 X33.1399 Y4.7081
G01 X33.1501 Y4.7224
G01 X33.1593 Y4.7375
G01 X33.1672 Y4.7532
G01 X33.1740 Y4.7695
G01 X33.1796 Y4.7862
G01 X33.2009 Y4.8588
G01 X33.2035 Y4.8698
G01 X33.2057 Y4.8810
G01 X33.2079 Y4.8980
G01 X33.2087 Y4.9094
G01 X33.2090 Y4.9208
G01 X33.2089 Y4.9877
G01 X33.2062 Y5.0256
G01 X33.2089 Y5.0778
G01 X33.2090 Y5.0973
G01 X33.2098 Y5.1133
G01 X33.2101 Y5.1470
G01 X33.2088 Y5.1649
G01 X33.2073 Y5.1767
G01 X33.2038 Y5.1943
G01 X33.1990 Y5.2115
G01 X33.1951 Y5.2228
G01 X33.1686 Y5.2938
G01 X33.1613 Y5.3101
G01 X33.1558 Y5.3206
G01 X33.1498 Y5.3309
G01 X33.1398 Y5.3457
G01 X33.1326 Y5.3551
G01 X33.1208 Y5.3686
G01 X33.1081 Y5.3811
G01 X33.0992 Y5.3889
G01 X33.0898 Y5.3963
G01 X33.0291 Y5.4417
G01 X33.0192 Y5.4483
G01 X33.0038 Y5.4574
G01 X32.9932 Y5.4627
G01 X32.9824 Y5.4676
G01 X32.9656 Y5.4738
G01 X32.9543 Y5.4773
G01 X32.9427 Y5.4801
G01 X32.9310 Y5.4825
G01 X32.9193 Y5.4842
G01 X32.9074 Y5.4853
G01 X32.8377 Y5.4903
G01 X32.8259 Y5.4909
G01 X32.8140 Y5.4908
G01 X32.8021 Y5.4902
G01 X32.7903 Y5.4890
G01 X32.7727 Y5.4861
G01 X32.7553 Y5.4818
G01 X32.7440 Y5.4783
G01 X32.7328 Y5.4742
G01 X32.7218 Y5.4696
G01 X32.7059 Y5.4616
G01 X32.6446 Y5.4281
G01 X32.6298 Y5.4194
G01 X32.6158 Y5.4097
G01 X32.6068 Y5.4026
G01 X32.5982 Y5.3952
G01 X32.5900 Y5.3873
G01 X32.2333 Y5.0306
G01 X32.2249 Y5.0218
G01 X32.2170 Y5.0126
G01 X32.1940 Y4.9830
G01 X32.1838 Y4.9688
G01 X32.1747 Y4.9539
G01 X32.1668 Y4.9384
G01 X32.1599 Y4.9224
G01 X32.1560 Y4.9115
G01 X32.1511 Y4.8947
G01 X32.1341 Y4.8270
G01 X32.1315 Y4.8154
G01 X32.1295 Y4.8036
G01 X32.1280 Y4.7918
G01 X32.1272 Y4.7800
G01 X32.1269 Y4.7681
G01 X32.1276 Y4.7502
G01 X32.1288 Y4.7384
G01 X32.1318 Y4.7208
G01 X32.1344 Y4.7092
G01 X32.1395 Y4.6921
G00 Z2.0000
G00 X32.6686 Y3.6014
G01 F90.00
G01 Z-0.1859
G01 F100.00
G01 X32.6644 Y3.6202
G01 X32.6612 Y3.6385
G01 X32.6490 Y3.7210
G01 X32.6467 Y3.7395
G01 X32.6453 Y3.7581
G01 X32.6412 Y3.8414
G01 X32.6408 Y3.8600
G01 X32.6412 Y3.8786
G01 X32.6453 Y3.9619
G01 X32.6467 Y3.9805
G01 X32.6490 Y3.9990
G01 X32.6627 Y4.0907
G01 X32.6663 Y4.1089
G01 X32.6698 Y4.1233
G01 X32.6072 Y4.1169
G01 X32.5884 Y4.1159
G01 X32.5601 Y4.1162
G01 X32.5413 Y4.1175
G01 X32.5314 Y4.1186
G01 X32.5356 Y4.0998
G01 X32.5388 Y4.0815
G01 X32.5510 Y3.9990
G01 X32.5533 Y3.9805
G01 X32.5547 Y3.9619
G01 X32.5588 Y3.8786
G01 X32.5592 Y3.8600
G01 X32.5588 Y3.8414
G01 X32.5547 Y3.7581
G01 X32.5533 Y3.7395
G01 X32.5510 Y3.7210
G01 X32.5373 Y3.6293
G01 X32.5337 Y3.6111
G01 X32.5302 Y3.5967
G01 X32.5928 Y3.6031
G01 X32.6116 Y3.6041
G01 X32.6399 Y3.6038
G01 X32.6587 Y3.6025
G01 X32.6686 Y3.6014
G00 Z2.0000
G00 X30.8300 Y4.6665
G01 F90.00
G01 Z-0.1859
G01 F100.00
G01 X30.8003 Y4.6483
G01 X30.7294 Y4.5957
G01 X30.7237 Y4.5910
G01 X30.6601 Y4.5333
G01 X30.6550 Y4.5281
G01 X30.5958 Y4.4625
G01 X30.5417 Y4.3897
G01 X30.5376 Y4.3835
G01 X30.4924 Y4.3077
G01 X30.4525 Y4.2235
G01 X30.4211 Y4.1357
G01 X30.3990 Y4.0477
G01 X30.3976 Y4.0405
G01 X30.3848 Y3.9531
G01 X30.3802 Y3.8600
G01 X30.3848 Y3.7669
G01 X30.3985 Y3.6747
G01 X30.4211 Y3.5843
G01 X30.4525 Y3.4965
G01 X30.4924 Y3.4123
G01 X30.5389 Y3.3344
G01 X30.5431 Y3.3283
G01 X30.5958 Y3.2575
G01 X30.6584 Y3.1884
G01 X30.7275 Y3.1258
G01 X30.8023 Y3.0703
G01 X30.8823 Y3.0224
G01 X30.9665 Y2.9825
G01 X31.0543 Y2.9511
G01 X31.1447 Y2.9285
G01 X31.2369 Y2.9148
G01 X31.3300 Y2.9102
G01 X31.4231 Y2.9148
G01 X31.5153 Y2.9285
G01 X31.6057 Y2.9511
G01 X31.6935 Y2.9825
G01 X31.7777 Y3.0224
G01 X31.8556 Y3.0689
G01 X31.8617 Y3.0731
G01 X31.9325 Y3.1258
G01 X31.9981 Y3.1850
G01 X32.0050 Y3.1919
G01 X32.0642 Y3.2575
G01 X32.1169 Y3.3283
G01 X32.1224 Y3.3365
G01 X32.1676 Y3.4123
G01 X32.2055 Y3.4920
G01 X32.2093 Y3.5011
G01 X32.2389 Y3.5843
G01 X32.2605 Y3.6699
G01 X32.2624 Y3.6795
G01 X32.2752 Y3.7669
G01 X32.2797 Y3.8551
G01 X32.2798 Y3.8624
G01 X32.2752 Y3.9531
G01 X32.2615 Y4.0453
G01 X32.2389 Y4.1357
G01 X32.2093 Y4.2189
G01 X32.2065 Y4.2257
G01 X32.1676 Y4.3077
G01 X32.1224 Y4.3835
G01 X32.1169 Y4.3917
G01 X32.0626 Y4.4644
G01 X32.0016 Y4.5316
G01 X31.9344 Y4.5926
G01 X31.9287 Y4.5972
G01 X31.8597 Y4.6483
G01 X31.8300 Y4.6665
G01 X31.8300 Y4.8550
G01 X49.5650 Y22.5900
G01 X83.6479 Y22.5900
G01 X84.3811 Y21.8562
G01 X84.3730 Y21.8229
G01 X84.3600 Y21.7355
G01 X84.3594 Y21.7282
G01 X84.3552 Y21.6424
G01 X84.3553 Y21.6351
G01 X84.3598 Y21.5469
G01 X84.3726 Y21.4595
G01 X84.3740 Y21.4523
G01 X84.3948 Y21.3690
G01 X84.3976 Y21.3596
G01 X84.4275 Y21.2765
G01 X84.4651 Y21.1966
G01 X84.4698 Y21.1880
G01 X84.5153 Y21.1123
G01 X84.5678 Y21.0413
G01 X84.5724 Y21.0356
G01 X84.6334 Y20.9684
G01 X84.6987 Y20.9090
G01 X84.7063 Y20.9028
G01 X84.7733 Y20.8531
G01 X84.7815 Y20.8476
G01 X84.8573 Y20.8024
G01 X84.9370 Y20.7645
G01 X84.9461 Y20.7607
G01 X85.0293 Y20.7311
G01 X85.1197 Y20.7085
G01 X85.2119 Y20.6948
G01 X85.3026 Y20.6902
G01 X85.3099 Y20.6903
G01 X85.3981 Y20.6948
G01 X85.4855 Y20.7076
G01 X85.4951 Y20.7095
G01 X85.5760 Y20.7298
G01 X85.5854 Y20.7326
G01 X85.6685 Y20.7625
G01 X85.7484 Y20.8001
G01 X85.7570 Y20.8048
G01 X85.8327 Y20.8503
G01 X85.9075 Y20.9058
G01 X85.9766 Y20.9684
G01 X86.0360 Y21.0337
G01 X86.0422 Y21.0413
G01 X86.0947 Y21.1123
G01 X86.1402 Y21.1880
G01 X86.1449 Y21.1966
G01 X86.1805 Y21.2720
G01 X86.1843 Y21.2811
G01 X86.2139 Y21.3643
G01 X86.2365 Y21.4547
G01 X86.2496 Y21.5420
G01 X86.2506 Y21.5518
G01 X86.2548 Y21.6400
G01 X86.2506 Y21.7282
G01 X86.2496 Y21.7380
G01 X86.2365 Y21.8253
G01 X86.2139 Y21.9157
G01 X86.1825 Y22.0035
G01 X86.1449 Y22.0834
G01 X86.1402 Y22.0920
G01 X86.0974 Y22.1635
G01 X86.0919 Y22.1717
G01 X86.0392 Y22.2425
G01 X85.9766 Y22.3116
G01 X85.9075 Y22.3742
G01 X85.8347 Y22.4283
G01 X85.8285 Y22.4324
G01 X85.7527 Y22.4776
G01 X85.6685 Y22.5175
G01 X85.5807 Y22.5489
G01 X85.4951 Y22.5705
G01 X85.4879 Y22.5720
G01 X85.3981 Y22.5852
G01 X85.3099 Y22.5897
G01 X85.3026 Y22.5898
G01 X85.2168 Y22.5856
G01 X85.2095 Y22.5850
G01 X85.1221 Y22.5720
G01 X85.0883 Y22.5638
G01 X84.2086 Y23.4436
G01 X84.1722 Y23.4765
G01 X84.1328 Y23.5057
G01 X84.0950 Y23.5285
G01 X84.0863 Y23.5332
G01 X84.0508 Y23.5500
G01 X84.0418 Y23.5537
G01 X84.0001 Y23.5685
G01 X83.9525 Y23.5804
G01 X83.9040 Y23.5876
G01 X83.8599 Y23.5899
G01 X49.3579 Y23.5900
G01 X49.3138 Y23.5880
G01 X49.3040 Y23.5870
G01 X49.2604 Y23.5804
G01 X49.2128 Y23.5685
G01 X49.1711 Y23.5537
G01 X49.1621 Y23.5500
G01 X49.1222 Y23.5310
G01 X49.0843 Y23.5084
G01 X49.0761 Y23.5029
G01 X49.0407 Y23.4765
G01 X49.0044 Y23.4436
G01 X30.9747 Y5.4139
G01 X30.9435 Y5.3793
G01 X30.9171 Y5.3439
G01 X30.9116 Y5.3357
G01 X30.8890 Y5.2978
G01 X30.8700 Y5.2579
G01 X30.8663 Y5.2489
G01 X30.8515 Y5.2072
G01 X30.8396 Y5.1596
G01 X30.8324 Y5.1111
G01 X30.8300 Y5.0645
G01 X30.8300 Y4.6665
G00 Z2.0000
G00 X29.9914 Y4.1186
G01 F90.00
G01 Z-0.1859
